; generated by PrusaSlicer 2.7.4+win64 on 2024-08-04 at 16:18:10 UTC

; 

; external perimeters extrusion width = 0.42mm
; perimeters extrusion width = 0.44mm
; infill extrusion width = 0.44mm
; solid infill extrusion width = 0.44mm
; top infill extrusion width = 0.40mm
; support material extrusion width = 0.36mm
; first layer extrusion width = 0.42mm


; printing object Buttons_case id:0 copy 0
; stop printing object Buttons_case id:0 copy 0

;TYPE:Custom
G90 ; use absolute coordinates
M83 ; extruder relative mode
M140 S60 ; set final bed temp
M104 S150 ; set temporary nozzle temp to prevent oozing during homing
G4 S30 ; allow partial nozzle warmup
G28 ; home all axis
G1 Z50 F240
G1 X7 Y10 F3000
M300 P300 S200 ; sound buzzer to say bed levelling is done
M300 P300 S0 ; pause sound so two beeps can play
M300 P300 S200 ; sound buzzer to say bed levelling is done
M104 S200 ; set final nozzle temp
M190 S60 ; wait for bed temp to stabilize
M109 S200 ; wait for nozzle temp to stabilize
G1 Z0.28 F240
G92 E0
G1 Y140 E10 F1500 ; prime the nozzle
G1 X6 F5000
G92 E0
G1 Y10 E10 F1200 ; prime the nozzle
G92 E0
G21 ; set units to millimeters
G90 ; use absolute coordinates
M83 ; use relative distances for extrusion
; Filament gcode
M107
;LAYER_CHANGE
;Z:0.2
;HEIGHT:0.2
G1 E-5 F3600
G1 Z.2 F9000
G1 X82.109 Y84.489
G1 Z.2
G1 E5 F2400
M204 P500
;TYPE:Skirt/Brim
;WIDTH:0.42
G1 F1200
G1 X83.551 Y83.548 E.05129
G1 X84.826 Y83.325 E.03855
G1 X102.889 Y83.325 E.53804
G1 X104.565 Y83.72 E.05129
G1 X105.607 Y84.489 E.03857
G1 X108.743 Y87.778 E.13536
G1 X109.613 Y89.263 E.05127
G1 X109.78 Y90.369 E.03332
G1 X109.78 Y100.217 E.29334
G1 X109.385 Y101.892 E.05126
G1 X108.284 Y103.216 E.05129
G1 X106.026 Y103.971 E.07092
G1 X81.69 Y103.971 E.72489
G1 X80.014 Y103.576 E.05129
G1 X78.691 Y102.475 E.05127
G1 X77.936 Y100.217 E.07092
G1 X77.936 Y90.369 E.29334
G1 X78.33 Y88.693 E.05128
G1 X78.972 Y87.778 E.03329
G1 X82.067 Y84.532 E.13359
G1 X82.067 Y84.532 F9000
G1 X82.34 Y84.792
G1 F1200
G1 X82.382 Y84.749 E.00179
G1 X83.759 Y83.875 E.04858
G1 X84.826 Y83.702 E.0322
G1 X102.889 Y83.702 E.53804
G1 X104.473 Y84.096 E.04862
G1 X105.334 Y84.749 E.03219
G1 X108.47 Y88.038 E.13536
G1 X109.277 Y89.456 E.0486
G1 X109.403 Y90.369 E.02745
G1 X109.403 Y100.217 E.29334
G1 X109.009 Y101.8 E.04859
G1 X107.918 Y103.014 E.04862
G1 X106.026 Y103.594 E.05894
G1 X81.69 Y103.594 E.72489
G1 X80.107 Y103.2 E.04859
G1 X78.893 Y102.11 E.0486
G1 X78.313 Y100.217 E.05897
G1 X78.313 Y90.369 E.29334
G1 X78.707 Y88.785 E.04862
G1 X79.245 Y88.038 E.02742
G1 X82.299 Y84.836 E.1318
G1 E-3.5 F3600
;WIPE_START
G1 F7200
G1 X82.34 Y84.792 E-.02857
G1 X82.382 Y84.749 E-.02855
G1 X83.759 Y83.875 E-.7747
G1 X84.826 Y83.702 E-.51344
G1 X85.152 Y83.702 E-.15474
;WIPE_END
; printing object Buttons_case id:0 copy 0
G1 X84.364 Y91.07 F9000
G1 E5 F2400
;TYPE:Support material
G1 F1200
G1 X84.635 Y91.341 E.01142
G1 X87.364 Y91.341 E.08129
G1 X87.364 Y92.341 E.02979
G1 X100.288 Y92.341 E.38496
G1 X100.288 Y91.341 E.02979
G1 X103.081 Y91.341 E.08319
G1 X103.351 Y91.07 E.01139
G1 X103.351 Y90.369 E.02088
G1 X106.026 Y90.369 E.07968
G1 X106.026 Y100.217 E.29334
G1 X81.69 Y100.217 E.72489
G1 X81.69 Y90.369 E.29334
G1 X84.364 Y90.369 E.07965
G1 X84.364 Y91.014 E.01921
G1 X84.364 Y91.014 F9000
G1 X105.589 Y100.047
G1 F1200
G1 X105.589 Y90.708 E.27818
G1 X105.17 Y90.708 E.01248
G1 X105.17 Y99.877 E.27311
G1 X104.751 Y99.877 E.01248
G1 X104.751 Y90.708 E.27311
G1 X104.332 Y90.708 E.01248
G1 X104.332 Y99.877 E.27311
G1 X103.913 Y99.877 E.01248
G1 X103.913 Y90.708 E.27311
G1 X103.691 Y90.708 E.00661
G1 X103.691 Y91.211 E.01498
G1 X103.494 Y91.408 E.0083
G1 X103.494 Y99.877 E.25226
G1 X103.075 Y99.877 E.01248
G1 X103.075 Y91.68 E.24416
G1 X102.656 Y91.68 E.01248
G1 X102.656 Y99.877 E.24416
G1 X102.237 Y99.877 E.01248
G1 X102.237 Y91.68 E.24416
G1 X101.818 Y91.68 E.01248
G1 X101.818 Y99.877 E.24416
G1 X101.399 Y99.877 E.01248
G1 X101.399 Y91.68 E.24416
G1 X100.98 Y91.68 E.01248
G1 X100.98 Y99.877 E.24416
G1 X100.561 Y99.877 E.01248
G1 X100.561 Y92.68 E.21437
G1 X100.142 Y92.68 E.01248
G1 X100.142 Y99.877 E.21437
G1 X99.723 Y99.877 E.01248
G1 X99.723 Y92.68 E.21437
G1 X99.304 Y92.68 E.01248
G1 X99.304 Y99.877 E.21437
G1 X98.885 Y99.877 E.01248
G1 X98.885 Y92.68 E.21437
G1 X98.466 Y92.68 E.01248
G1 X98.466 Y99.877 E.21437
G1 X98.047 Y99.877 E.01248
G1 X98.047 Y92.68 E.21437
G1 X97.628 Y92.68 E.01248
G1 X97.628 Y99.877 E.21437
G1 X97.209 Y99.877 E.01248
G1 X97.209 Y92.68 E.21437
G1 X96.79 Y92.68 E.01248
G1 X96.79 Y99.877 E.21437
G1 X96.372 Y99.877 E.01245
G1 X96.372 Y92.68 E.21437
G1 X95.953 Y92.68 E.01248
G1 X95.953 Y99.877 E.21437
G1 X95.534 Y99.877 E.01248
G1 X95.534 Y92.68 E.21437
G1 X95.115 Y92.68 E.01248
G1 X95.115 Y99.877 E.21437
G1 X94.696 Y99.877 E.01248
G1 X94.696 Y92.68 E.21437
G1 X94.277 Y92.68 E.01248
G1 X94.277 Y99.877 E.21437
G1 X93.858 Y99.877 E.01248
G1 X93.858 Y92.68 E.21437
G1 X93.439 Y92.68 E.01248
G1 X93.439 Y99.877 E.21437
G1 X93.02 Y99.877 E.01248
G1 X93.02 Y92.68 E.21437
G1 X92.601 Y92.68 E.01248
G1 X92.601 Y99.877 E.21437
G1 X92.182 Y99.877 E.01248
G1 X92.182 Y92.68 E.21437
G1 X91.763 Y92.68 E.01248
G1 X91.763 Y99.877 E.21437
G1 X91.344 Y99.877 E.01248
G1 X91.344 Y92.68 E.21437
G1 X90.925 Y92.68 E.01248
G1 X90.925 Y99.877 E.21437
G1 X90.506 Y99.877 E.01248
G1 X90.506 Y92.68 E.21437
G1 X90.087 Y92.68 E.01248
G1 X90.087 Y99.877 E.21437
G1 X89.668 Y99.877 E.01248
G1 X89.668 Y92.68 E.21437
G1 X89.249 Y92.68 E.01248
G1 X89.249 Y99.877 E.21437
G1 X88.83 Y99.877 E.01248
G1 X88.83 Y92.68 E.21437
G1 X88.411 Y92.68 E.01248
G1 X88.411 Y99.877 E.21437
G1 X87.992 Y99.877 E.01248
G1 X87.992 Y92.68 E.21437
G1 X87.573 Y92.68 E.01248
G1 X87.573 Y99.877 E.21437
G1 X87.154 Y99.877 E.01248
G1 X87.154 Y92.68 E.21437
G1 X87.024 Y92.68 E.00387
G1 X87.024 Y91.68 E.02979
G1 X86.735 Y91.68 E.00861
G1 X86.735 Y99.877 E.24416
G1 X86.316 Y99.877 E.01248
G1 X86.316 Y91.68 E.24416
G1 X85.897 Y91.68 E.01248
G1 X85.897 Y99.877 E.24416
G1 X85.478 Y99.877 E.01248
G1 X85.478 Y91.68 E.24416
G1 X85.059 Y91.68 E.01248
G1 X85.059 Y99.877 E.24416
G1 X84.64 Y99.877 E.01248
G1 X84.64 Y91.68 E.24416
G1 X84.494 Y91.68 E.00435
G1 X84.221 Y91.408 E.01148
G1 X84.221 Y99.877 E.25226
G1 X83.802 Y99.877 E.01248
G1 X83.802 Y90.708 E.27311
G1 X83.383 Y90.708 E.01248
G1 X83.383 Y99.877 E.27311
G1 X82.964 Y99.877 E.01248
G1 X82.964 Y90.708 E.27311
G1 X82.545 Y90.708 E.01248
G1 X82.545 Y99.877 E.27311
G1 X82.126 Y99.877 E.01248
G1 X82.126 Y90.538 E.27818
G1 E-3.5 F3600
;WIPE_START
G1 F7200
G1 X82.126 Y93.696 E-1.5
;WIPE_END
G1 X95.954 Y89.815 F9000
G1 E5 F2400
;TYPE:Perimeter
;WIDTH:0.419999
G1 F1200
G1 X95.954 Y88.143 E.0498
G1 X101.825 Y88.143 E.17488
G1 X101.825 Y88.979 E.0249
G1 X101.825 Y89.815 E.0249
G1 X96.014 Y89.815 E.17309
G1 X96.014 Y89.815 F9000
G1 X95.576 Y90.192
G1 F1200
G1 X95.576 Y87.766 E.07226
G1 X102.202 Y87.766 E.19737
G1 X102.202 Y88.979 E.03613
G1 X102.202 Y90.192 E.03613
G1 X95.636 Y90.192 E.19558
G1 X95.636 Y90.192 F9000
G1 X95.199 Y90.569
;TYPE:External perimeter
G1 F1200
G1 X95.199 Y87.389 E.09472
G1 X102.579 Y87.389 E.21982
G1 X102.579 Y88.979 E.04736
G1 X102.579 Y90.569 E.04736
G1 X95.259 Y90.569 E.21804
G1 E-3.5 F3600
;WIPE_START
G1 F7200
G1 X95.199 Y90.569 E-.0285
G1 X95.199 Y87.471 E-1.4715
;WIPE_END
G1 X101.705 Y89.05 F9000
G1 E5 F2400
;TYPE:Solid infill
;WIDTH:0.431076
G1 F1200
G1 X100.919 Y88.264 E.03408
G1 X100.919 Y88.264 F9000
G1 X100.37 Y88.264
G1 F1200
G1 X101.705 Y89.599 E.05789
G1 X101.705 Y89.599 F9000
G1 X101.251 Y89.694
G1 F1200
G1 X99.821 Y88.264 E.06201
G1 X99.821 Y88.264 F9000
G1 X99.272 Y88.264
G1 F1200
G1 X100.702 Y89.694 E.06201
G1 X100.702 Y89.694 F9000
G1 X100.153 Y89.694
G1 F1200
G1 X98.723 Y88.264 E.06201
G1 X98.723 Y88.264 F9000
G1 X98.174 Y88.264
G1 F1200
G1 X99.605 Y89.694 E.06203
G1 X99.605 Y89.694 F9000
G1 X99.056 Y89.694
G1 F1200
G1 X97.625 Y88.264 E.06203
G1 X97.625 Y88.264 F9000
G1 X97.076 Y88.264
G1 F1200
G1 X98.507 Y89.694 E.06203
G1 X98.507 Y89.694 F9000
G1 X97.958 Y89.694
G1 F1200
G1 X96.527 Y88.264 E.06203
G1 X96.527 Y88.264 F9000
G1 X96.074 Y88.36
G1 F1200
G1 X97.409 Y89.694 E.05787
G1 X97.409 Y89.694 F9000
G1 X96.86 Y89.694
G1 F1200
G1 X96.074 Y88.909 E.03406
G1 E-3.5 F3600
;WIPE_START
G1 F7200
G1 X96.86 Y89.694 E-.52766
;WIPE_END
G1 E-.97234 F3600
G1 X91.762 Y89.815 F9000
G1 E5 F2400
;TYPE:Perimeter
;WIDTH:0.419999
G1 F1200
G1 X85.89 Y89.815 E.17491
G1 X85.89 Y88.143 E.0498
G1 X91.762 Y88.143 E.17491
G1 X91.762 Y88.979 E.0249
G1 X91.762 Y89.755 E.02311
G1 X91.762 Y89.755 F9000
G1 X92.139 Y90.192
G1 F1200
G1 X85.513 Y90.192 E.19737
G1 X85.513 Y87.766 E.07226
G1 X92.139 Y87.766 E.19737
G1 X92.139 Y88.979 E.03613
G1 X92.139 Y90.132 E.03434
G1 X92.139 Y90.132 F9000
G1 X92.516 Y90.569
;TYPE:External perimeter
G1 F1200
G1 X85.136 Y90.569 E.21982
G1 X85.136 Y87.389 E.09472
G1 X92.516 Y87.389 E.21982
G1 X92.516 Y88.979 E.04736
G1 X92.516 Y90.509 E.04557
G1 X91.641 Y89.05 F9000
;TYPE:Solid infill
;WIDTH:0.431076
G1 F1200
G1 X90.855 Y88.264 E.03408
G1 X90.855 Y88.264 F9000
G1 X90.306 Y88.264
G1 F1200
G1 X91.641 Y89.599 E.05789
G1 X91.641 Y89.599 F9000
G1 X91.188 Y89.694
G1 F1200
G1 X89.757 Y88.264 E.06203
G1 X89.757 Y88.264 F9000
G1 X89.209 Y88.264
G1 F1200
G1 X90.639 Y89.694 E.06201
G1 X90.639 Y89.694 F9000
G1 X90.09 Y89.694
G1 F1200
G1 X88.66 Y88.264 E.06201
G1 X88.66 Y88.264 F9000
G1 X88.111 Y88.264
G1 F1200
G1 X89.541 Y89.694 E.06201
G1 X89.541 Y89.694 F9000
G1 X88.992 Y89.694
G1 F1200
G1 X87.562 Y88.264 E.06201
G1 X87.562 Y88.264 F9000
G1 X87.013 Y88.264
G1 F1200
G1 X88.443 Y89.694 E.06201
G1 X88.443 Y89.694 F9000
G1 X87.894 Y89.694
G1 F1200
G1 X86.464 Y88.264 E.06201
G1 X86.464 Y88.264 F9000
G1 X86.011 Y88.36
G1 F1200
G1 X87.345 Y89.694 E.05784
G1 X87.345 Y89.694 F9000
G1 X86.796 Y89.694
G1 F1200
G1 X86.011 Y88.909 E.03404
M106 S255
;LAYER_CHANGE
;Z:0.4
;HEIGHT:0.2
;BEFORE_LAYER_CHANGE
G92 E0
;0.4


G1 E-3.5 F3600
;WIPE_START
G1 F7200
G1 X86.796 Y89.694 E-.52732
;WIPE_END
G1 E-.97268 F3600
G1 Z.4 F9000
;AFTER_LAYER_CHANGE
;0.4
; stop printing object Buttons_case id:0 copy 0
G1 Z.4
G1 X86.796 Y83.325
G1 E5 F2400
;TYPE:Skirt/Brim
;WIDTH:0.42
G1 F1962
G1 X102.889 Y83.325 E.47936
G1 X104.565 Y83.72 E.05129
G1 X105.607 Y84.489 E.03857
G1 X108.743 Y87.778 E.13536
G1 X109.613 Y89.263 E.05127
G1 X109.78 Y90.369 E.03332
G1 X109.78 Y100.217 E.29334
G1 X109.385 Y101.892 E.05126
G1 X108.284 Y103.216 E.05129
G1 X106.026 Y103.971 E.07092
G1 X81.69 Y103.971 E.72489
G1 X80.014 Y103.576 E.05129
G1 X78.691 Y102.475 E.05127
G1 X77.936 Y100.217 E.07092
G1 X77.936 Y90.369 E.29334
G1 X78.33 Y88.693 E.05128
G1 X78.972 Y87.778 E.03329
G1 X82.109 Y84.489 E.13538
G1 X83.551 Y83.548 E.05129
G1 X84.826 Y83.325 E.03855
G1 X86.736 Y83.325 E.05689
G1 X86.736 Y83.325 F9000
G1 X86.736 Y83.702
G1 F1962
G1 X102.889 Y83.702 E.48114
G1 X104.473 Y84.096 E.04862
G1 X105.334 Y84.749 E.03219
G1 X108.47 Y88.038 E.13536
G1 X109.277 Y89.456 E.0486
G1 X109.403 Y90.369 E.02745
G1 X109.403 Y100.217 E.29334
G1 X109.009 Y101.8 E.04859
G1 X107.918 Y103.014 E.04862
G1 X106.026 Y103.594 E.05894
G1 X81.69 Y103.594 E.72489
G1 X80.107 Y103.2 E.04859
G1 X78.893 Y102.11 E.0486
G1 X78.313 Y100.217 E.05897
G1 X78.313 Y90.369 E.29334
G1 X78.707 Y88.785 E.04862
G1 X79.245 Y88.038 E.02742
G1 X82.382 Y84.749 E.13538
G1 X83.759 Y83.875 E.04858
G1 X84.826 Y83.702 E.0322
G1 X86.676 Y83.702 E.05511
G1 E-3.5 F3600
;WIPE_START
G1 F7200
G1 X86.736 Y83.702 E-.0285
G1 X89.834 Y83.702 E-1.4715
;WIPE_END
; printing object Buttons_case id:0 copy 0
G1 X85.82 Y88.073 F9000
G1 E5 F2400
;TYPE:Perimeter
;WIDTH:0.439999
G1 F1962
G1 X91.832 Y88.073 E.18857
G1 X91.832 Y90.9 E.08867
G1 X91.86 Y91.133 E.00736
G1 X91.954 Y91.373 E.00808
G1 X92.143 Y91.614 E.00961
G1 X92.437 Y91.801 E.01093
G1 X92.804 Y91.873 E.01173
G1 X94.911 Y91.873 E.06609
G1 X95.278 Y91.801 E.01173
G1 X95.572 Y91.614 E.01093
G1 X95.761 Y91.373 E.00961
G1 X95.855 Y91.133 E.00808
G1 X95.884 Y90.9 E.00736
G1 X95.884 Y88.073 E.08867
G1 X101.895 Y88.073 E.18854
G1 X101.895 Y90.23 E.06766
G1 X101.895 Y90.627 E.01245
G1 X101.851 Y90.663 E.00178
G1 X101.832 Y90.858 E.00615
G1 X101.832 Y93.885 E.09495
G1 X85.82 Y93.885 E.50224
G1 X85.82 Y88.133 E.18042
G1 X85.82 Y88.133 F9000
G1 X85.423 Y87.676
G1 F1962
G1 X92.229 Y87.676 E.21348
G1 X92.229 Y90.9 E.10113
G1 X92.245 Y91.038 E.00436
G1 X92.413 Y91.323 E.01038
G1 X92.587 Y91.434 E.00647
G1 X92.804 Y91.476 E.00693
G1 X95.01 Y91.467 E.06919
G1 X95.302 Y91.323 E.01021
G1 X95.414 Y91.18 E.0057
G1 X95.486 Y90.9 E.00907
G1 X95.486 Y87.676 E.10113
G1 X102.292 Y87.676 E.21348
G1 X102.292 Y90.23 E.08011
G1 X102.292 Y90.7 E.01474
G1 X102.241 Y90.742 E.00207
G1 X102.229 Y90.858 E.00366
G1 X102.229 Y94.282 E.1074
G1 X85.423 Y94.282 E.52714
G1 X85.423 Y87.736 E.20532
G1 X85.423 Y87.736 F9000
G1 X85.036 Y87.289
;TYPE:External perimeter
;WIDTH:0.419999
G1 F1500
G1 X92.616 Y87.289 E.22578
G1 X92.616 Y90.9 E.10756
G1 X92.676 Y91.039 E.00451
G1 X92.804 Y91.089 E.00409
G1 X94.911 Y91.089 E.06276
G1 X95.039 Y91.039 E.00409
G1 X95.099 Y90.9 E.00451
G1 X95.099 Y87.289 E.10756
G1 X102.679 Y87.289 E.22578
G1 X102.679 Y90.23 E.0876
G1 X102.679 Y90.771 E.01611
G1 X102.616 Y90.858 E.0032
G1 X102.616 Y94.669 E.11352
G1 X85.036 Y94.669 E.52365
G1 X85.036 Y87.349 E.21804
G1 E-3.5 F3600
;WIPE_START
G1 F7200
G1 X85.036 Y87.289 E-.0285
G1 X88.134 Y87.289 E-1.4715
;WIPE_END
G1 X85.949 Y93.557 F9000
G1 E5 F2400
M204 P250
;TYPE:Bridge infill
;WIDTH:0.391089
;HEIGHT:0.389872
G1 F1500
G1 X101.505 Y93.557 E.73807
G1 X101.505 Y93.116 E.02092
G1 X86.147 Y93.116 E.72867
G1 X86.147 Y92.675 E.02092
G1 X101.505 Y92.675 E.72867
G1 X101.505 Y92.234 E.02092
G1 X86.147 Y92.234 E.72867
G1 X86.147 Y91.793 E.02092
G1 X91.871 Y91.793 E.27158
G1 X91.668 Y91.535 E.01558
G1 X91.596 Y91.352 E.00933
G1 X86.147 Y91.352 E.25853
G1 X86.147 Y90.911 E.02092
G1 X91.505 Y90.911 E.25422
G1 X91.505 Y90.469 E.02097
G1 X86.147 Y90.469 E.25422
G1 X86.147 Y90.028 E.02092
G1 X91.505 Y90.028 E.25422
G1 X91.505 Y89.587 E.02092
G1 X86.147 Y89.587 E.25422
G1 X86.147 Y89.146 E.02092
G1 X91.703 Y89.146 E.26361
M204 P500
G1 X91.703 Y89.146 F9000
G1 X91.538 Y88.367
;TYPE:Solid infill
;WIDTH:0.415554
;HEIGHT:0.2
G1 F1962
G1 X86.114 Y88.367 E.15966
G1 X86.114 Y88.739 E.01095
G1 X91.538 Y88.739 E.15966
G1 X91.538 Y88.565 E.00512
G1 E-3.5 F3600
;WIPE_START
G1 F7200
G1 X91.538 Y88.739 E-.08265
G1 X88.554 Y88.739 E-1.41735
;WIPE_END
G1 X96.364 Y88.367 F9000
G1 E5 F2400
;WIDTH:0.415679
G1 F1962
G1 X96.177 Y88.367 E.00551
G1 X96.177 Y88.739 E.01095
G1 X96.363 Y88.74 E.00548
;WIDTH:0.41737
G1 X101.601 Y88.742 E.15493
G1 X101.601 Y88.368 E.01106
G1 X96.562 Y88.367 E.14905
G1 E-3.5 F3600
;WIPE_START
G1 F7200
G1 X99.72 Y88.367 E-1.5
;WIPE_END
G1 X95.526 Y91.793 F9000
G1 E5 F2400
M204 P250
;TYPE:Bridge infill
;WIDTH:0.391089
;HEIGHT:0.389872
G1 F1500
G1 X101.505 Y91.793 E.28368
G1 X101.505 Y91.352 E.02092
G1 X96.119 Y91.352 E.25554
G1 X96.174 Y91.212 E.00714
G1 X96.21 Y90.911 E.01438
G1 X101.505 Y90.911 E.25123
G1 X101.534 Y90.557 E.01685
G1 X101.568 Y90.529 E.00209
G1 X101.568 Y90.469 E.00285
G1 X96.211 Y90.469 E.25417
G1 X96.211 Y90.028 E.02092
G1 X101.568 Y90.028 E.25417
G1 X101.568 Y89.587 E.02092
G1 X96.211 Y89.587 E.25417
G1 X96.211 Y89.146 E.02092
G1 X101.766 Y89.146 E.26356
M204 P500
;LAYER_CHANGE
;Z:0.508333
;HEIGHT:0.108333
;BEFORE_LAYER_CHANGE
G92 E0
;0.508333


G1 E-3.5 F3600
;WIPE_START
G1 F7200
G1 X98.608 Y89.146 E-1.5
;WIPE_END
G1 Z.508 F9000
;AFTER_LAYER_CHANGE
;0.508333
G1 Z.508
G1 X103.077 Y97.268
G1 E5 F2400
;TYPE:Support material
;WIDTH:0.36
;HEIGHT:0.308333
G1 F1380
G1 X84.638 Y97.268 E.6598
G1 X84.638 Y95.951 E.04713
G1 X103.077 Y95.951 E.6598
G1 X103.077 Y95.208 E.02659
G1 X102.996 Y95.29 E.00412
G1 X84.638 Y95.272 E.6569
G1 X84.638 Y95.793 E.01864
;LAYER_CHANGE
;Z:0.6
;HEIGHT:0.0916667
;BEFORE_LAYER_CHANGE
G92 E0
;0.6


G1 E-3.5 F3600
;WIPE_START
G1 F7200
G1 X84.638 Y95.272 E-.24748
G1 X87.275 Y95.275 E-1.25252
;WIPE_END
G1 Z.6 F9000
;AFTER_LAYER_CHANGE
;0.6
G1 Z.6
G1 X92.658 Y91.845
G1 E5 F2400
;TYPE:Perimeter
;WIDTH:0.439999
;HEIGHT:0.2
G1 F1380
G1 X92.804 Y91.873 E.00466
