; generated by PrusaSlicer 2.7.4+win64 on 2024-08-03 at 19:37:09 UTC

; 

; external perimeters extrusion width = 0.42mm
; perimeters extrusion width = 0.44mm
; infill extrusion width = 0.44mm
; solid infill extrusion width = 0.44mm
; top infill extrusion width = 0.40mm
; support material extrusion width = 0.36mm
; first layer extrusion width = 0.42mm


; printing object Buzzer_case id:0 copy 0
; stop printing object Buzzer_case id:0 copy 0

;TYPE:Custom
G90 ; use absolute coordinates
M83 ; extruder relative mode
M140 S60 ; set final bed temp
M104 S150 ; set temporary nozzle temp to prevent oozing during homing
G4 S30 ; allow partial nozzle warmup
G28 ; home all axis
G1 Z50 F240
G1 X7 Y10 F3000
M300 P300 S200 ; sound buzzer to say bed levelling is done
M300 P300 S0 ; pause sound so two beeps can play
M300 P300 S200 ; sound buzzer to say bed levelling is done
M104 S200 ; set final nozzle temp
M190 S60 ; wait for bed temp to stabilize
M109 S200 ; wait for nozzle temp to stabilize
G1 Z0.28 F240
G92 E0
G1 Y140 E10 F1500 ; prime the nozzle
G1 X6 F5000
G92 E0
G1 Y10 E10 F1200 ; prime the nozzle
G92 E0
G21 ; set units to millimeters
G90 ; use absolute coordinates
M83 ; use relative distances for extrusion
; Filament gcode
M107
;LAYER_CHANGE
;Z:0.2
;HEIGHT:0.2
G1 E-5 F3600
G1 Z.2 F9000
G1 X81.401 Y74.001
G1 Z.2
G1 E5 F2400
M204 P500
;TYPE:Skirt/Brim
;WIDTH:0.42
G1 F1200
G1 X83.659 Y73.246 E.07092
G1 X90.659 Y73.246 E.20851
G1 X91.911 Y73.461 E.03784
G1 X112.411 Y80.711 E.64769
G1 X113.859 Y81.641 E.05126
G1 X114.739 Y83.121 E.05129
G1 X114.913 Y84.25 E.03403
G1 X114.913 Y99.75 E.46169
G1 X114.519 Y101.426 E.05128
G1 X113.418 Y102.749 E.05127
G1 X112.411 Y103.289 E.03404
G1 X91.911 Y110.539 E.64769
G1 X90.659 Y110.754 E.03784
G1 X83.659 Y110.754 E.20851
G1 X81.984 Y110.359 E.05126
G1 X80.66 Y109.258 E.05129
G1 X79.905 Y107 E.07092
G1 X79.905 Y77 E.8936
G1 X80.3 Y75.324 E.05129
G1 X81.362 Y74.047 E.04947
G1 X81.362 Y74.047 F9000
G1 X81.663 Y74.318
G1 F1200
G1 X81.766 Y74.203 E.0046
G1 X83.659 Y73.623 E.05897
G1 X90.659 Y73.623 E.20851
G1 X91.785 Y73.816 E.03403
G1 X112.285 Y81.066 E.64769
G1 X113.646 Y81.966 E.0486
G1 X114.427 Y83.398 E.04859
G1 X114.536 Y84.25 E.02559
G1 X114.536 Y99.75 E.46169
G1 X114.142 Y101.333 E.04859
G1 X113.052 Y102.547 E.0486
G1 X112.285 Y102.934 E.02559
G1 X91.785 Y110.184 E.64769
G1 X90.659 Y110.377 E.03403
G1 X83.659 Y110.377 E.20851
G1 X82.076 Y109.983 E.04859
G1 X80.862 Y108.893 E.0486
G1 X80.282 Y107 E.05897
G1 X80.282 Y77 E.8936
G1 X80.676 Y75.417 E.04859
G1 X81.623 Y74.362 E.04223
G1 E-3.5 F3600
;WIPE_START
G1 F7200
G1 X81.663 Y74.318 E-.02825
G1 X81.766 Y74.203 E-.07333
G1 X83.659 Y73.623 E-.94043
G1 X84.623 Y73.623 E-.45799
;WIPE_END
; printing object Buzzer_case id:0 copy 0
G1 X84.723 Y81.611 F9000
G1 E5 F2400
;TYPE:Perimeter
;WIDTH:0.419999
G1 F1200
G1 X85.071 Y81.818 E.01206
G1 X85.657 Y82.011 E.01838
G1 X86.273 Y82.058 E.0184
G1 X86.882 Y81.957 E.01839
G1 X87.449 Y81.712 E.0184
G1 X87.941 Y81.339 E.01839
G1 X88.329 Y80.86 E.01836
G1 X88.591 Y80.301 E.01839
G1 X88.712 Y79.696 E.01838
G1 X88.685 Y79.079 E.0184
G1 X88.511 Y78.487 E.01838
G1 X88.276 Y78.064 E.01441
G1 X89.595 Y78.064 E.03929
G1 X89.595 Y83.83 E.17175
G1 X89.609 Y84.534 E.02097
G1 X89.708 Y84.82 E.00901
G1 X89.974 Y85.127 E.0121
G1 X90.275 Y85.277 E.01002
G1 X90.538 Y85.314 E.00791
G1 X110.095 Y85.314 E.58254
G1 X110.095 Y92 E.19915
G1 X110.095 Y98.686 E.19915
G1 X90.538 Y98.686 E.58254
G1 X90.275 Y98.723 E.00791
G1 X89.974 Y98.873 E.01002
G1 X89.708 Y99.18 E.0121
G1 X89.626 Y99.39 E.00672
G1 X89.595 Y99.621 E.00694
G1 X89.595 Y105.936 E.1881
G1 X88.276 Y105.936 E.03929
G1 X88.511 Y105.513 E.01441
G1 X88.698 Y104.858 E.02029
G1 X88.712 Y104.304 E.01651
G1 X88.591 Y103.699 E.01838
G1 X88.329 Y103.14 E.01839
G1 X87.941 Y102.661 E.01836
G1 X87.449 Y102.288 E.01839
G1 X86.882 Y102.043 E.0184
G1 X86.273 Y101.942 E.01839
G1 X85.715 Y101.982 E.01666
G1 X85.099 Y102.172 E.0192
G1 X84.723 Y102.389 E.01293
G1 X84.723 Y81.671 E.61712
G1 E-3.5 F3600
;WIPE_START
G1 F7200
G1 X84.723 Y81.611 E-.0285
G1 X85.071 Y81.818 E-.19233
G1 X85.657 Y82.011 E-.29306
G1 X86.273 Y82.058 E-.29345
G1 X86.882 Y81.957 E-.29323
G1 X87.449 Y81.712 E-.29339
G1 X87.627 Y81.577 E-.10604
;WIPE_END
G1 X89.981 Y84.398 F9000
G1 E5 F2400
G1 F1200
G1 X89.981 Y84.469 E.00211
G1 X90.113 Y84.745 E.00911
G1 X90.291 Y84.88 E.00665
G1 X90.538 Y84.937 E.00755
G1 X110.472 Y84.937 E.59376
G1 X110.472 Y92 E.21038
G1 X110.472 Y99.063 E.21038
G1 X90.463 Y99.068 E.596
G1 X90.2 Y99.175 E.00846
G1 X90.04 Y99.36 E.00729
G1 X89.972 Y99.624 E.00812
G1 X89.972 Y106.313 E.19924
G1 X87.364 Y106.313 E.07768
G1 X87.556 Y106.18 E.00696
G1 X87.918 Y105.797 E.0157
G1 X88.177 Y105.338 E.0157
G1 X88.319 Y104.831 E.01568
G1 X88.335 Y104.304 E.0157
G1 X88.225 Y103.789 E.01569
G1 X87.995 Y103.316 E.01567
G1 X87.658 Y102.911 E.01569
G1 X87.234 Y102.598 E.0157
G1 X86.748 Y102.396 E.01568
G1 X86.227 Y102.316 E.0157
G1 X85.76 Y102.356 E.01396
G1 X85.221 Y102.528 E.01685
G1 X84.762 Y102.82 E.0162
G1 X84.346 Y103.282 E.01852
G1 X84.346 Y80.718 E.6721
G1 X84.66 Y81.089 E.01448
G1 X85.084 Y81.402 E.0157
G1 X85.57 Y81.604 E.01568
G1 X86.091 Y81.684 E.0157
G1 X86.616 Y81.637 E.0157
G1 X87.114 Y81.465 E.01569
G1 X87.556 Y81.18 E.01567
G1 X87.918 Y80.797 E.0157
G1 X88.177 Y80.338 E.0157
G1 X88.319 Y79.831 E.01568
G1 X88.335 Y79.304 E.0157
G1 X88.225 Y78.788 E.01572
G1 X87.995 Y78.316 E.01564
G1 X87.658 Y77.911 E.01569
G1 X87.363 Y77.687 E.01103
G1 X89.972 Y77.687 E.07771
G1 X89.98 Y84.338 E.19811
G1 E-3.5 F3600
;WIPE_START
G1 F7200
G1 X89.981 Y84.398 E-.0285
G1 X89.981 Y84.469 E-.03373
G1 X90.113 Y84.745 E-.14532
G1 X90.291 Y84.88 E-.10612
G1 X90.538 Y84.937 E-.12041
G1 X92.782 Y84.937 E-1.06592
;WIPE_END
G1 X84.334 Y78.321 F9000
G1 E5 F2400
;WIDTH:0.39029
G1 F1200
G1 X84.331 Y77.672 E.01781
G1 X85.003 Y77.672 E.01844
G1 X84.671 Y77.92 E.01137
G1 X84.373 Y78.275 E.01272
G1 X84.373 Y78.275 F9000
G1 X86.182 Y77.689
;TYPE:External perimeter
;WIDTH:0.439584
G1 F1200
G1 X86.618 Y77.739 E.01375
G1 X87.02 Y77.908 E.01366
;WIDTH:0.419999
G1 X87.376 Y78.161 E.01301
G1 X87.661 Y78.491 E.01299
G1 X87.859 Y78.88 E.013
G1 X87.958 Y79.304 E.01297
G1 X87.953 Y79.741 E.01302
G1 X87.843 Y80.163 E.01299
G1 X87.635 Y80.547 E.01301
G1 X87.342 Y80.87 E.01299
G1 X86.98 Y81.113 E.01299
G1 X86.57 Y81.262 E.01299
G1 X86.136 Y81.31 E.01301
G1 X85.704 Y81.251 E.01299
G1 X85.298 Y81.092 E.01299
G1 X84.942 Y80.839 E.01301
G1 X84.657 Y80.509 E.01299
G1 X84.459 Y80.12 E.013
;WIDTH:0.426931
G1 X84.357 Y79.696 E.01323
;WIDTH:0.432592
G1 X84.359 Y79.258 E.01348
G1 X84.475 Y78.837 E.01344
;WIDTH:0.419999
G1 X84.683 Y78.453 E.01301
G1 X84.976 Y78.13 E.01299
G1 X85.344 Y77.885 E.01317
;WIDTH:0.442568
G1 X85.804 Y77.719 E.01544
G1 X86.122 Y77.694 E.01007
G1 E-3.5 F3600
;WIPE_START
G1 F7200
G1 X86.182 Y77.689 E-.0286
G1 X86.618 Y77.739 E-.20846
G1 X87.02 Y77.908 E-.20714
G1 X87.376 Y78.161 E-.20745
G1 X87.661 Y78.491 E-.20712
G1 X87.859 Y78.88 E-.20733
G1 X87.958 Y79.304 E-.20682
G1 X87.953 Y79.741 E-.20759
G1 X87.943 Y79.781 E-.01949
;WIPE_END
G1 X84.334 Y105.679 F9000
G1 E5 F2400
;TYPE:Perimeter
;WIDTH:0.390282
G1 F1200
G1 X84.635 Y106.039 E.01288
G1 X85.002 Y106.328 E.01282
G1 X84.331 Y106.328 E.01841
G1 X84.334 Y105.739 E.01616
G1 X84.334 Y105.739 F9000
G1 X84.37 Y104.201
;TYPE:External perimeter
;WIDTH:0.439595
G1 F1200
G1 X84.475 Y103.837 E.01187
;WIDTH:0.419999
G1 X84.683 Y103.453 E.01301
G1 X84.976 Y103.13 E.01299
G1 X85.344 Y102.885 E.01317
G1 X85.805 Y102.731 E.01448
G1 X86.182 Y102.69 E.0113
G1 X86.614 Y102.749 E.01299
G1 X87.02 Y102.908 E.01299
G1 X87.376 Y103.161 E.01301
G1 X87.661 Y103.491 E.01299
G1 X87.859 Y103.88 E.013
G1 X87.958 Y104.304 E.01297
G1 X87.953 Y104.741 E.01302
G1 X87.843 Y105.163 E.01299
G1 X87.635 Y105.547 E.01301
G1 X87.342 Y105.87 E.01299
G1 X86.98 Y106.113 E.01299
;WIDTH:0.446062
G1 X86.572 Y106.275 E.01398
G1 X86.136 Y106.311 E.01393
;WIDTH:0.439591
G1 X85.701 Y106.261 E.01372
G1 X85.298 Y106.092 E.01369
;WIDTH:0.419999
G1 X84.906 Y105.799 E.01458
G1 X84.657 Y105.509 E.01139
G1 X84.459 Y105.12 E.013
;WIDTH:0.426984
G1 X84.357 Y104.689 E.01344
;WIDTH:0.439595
G1 X84.368 Y104.261 E.01342
G1 E-3.5 F3600
;WIPE_START
G1 F7200
G1 X84.37 Y104.201 E-.02852
G1 X84.475 Y103.837 E-.17995
G1 X84.683 Y103.453 E-.20744
G1 X84.976 Y103.13 E-.20714
G1 X85.344 Y102.885 E-.21
G1 X85.805 Y102.731 E-.23087
G1 X86.182 Y102.69 E-.18013
G1 X86.614 Y102.749 E-.2071
G1 X86.71 Y102.787 E-.04885
;WIPE_END
G1 X90.349 Y99.627 F9000
G1 E5 F2400
;WIDTH:0.419999
G1 F1200
G1 X90.349 Y106.69 E.21038
G1 X87.207 Y106.69 E.09359
;WIDTH:0.447635
G1 X86.617 Y106.676 E.01887
G1 X86.113 Y106.689 E.01612
;WIDTH:0.422398
G1 X85.233 Y106.69 E.02638
;WIDTH:0.419999
G1 X83.969 Y106.69 E.03765
G1 X83.969 Y105.288 E.04176
;WIDTH:0.4298
G1 X83.974 Y104.762 E.01608
;WIDTH:0.433926
G1 X83.969 Y103.712 E.03243
;WIDTH:0.419999
G1 X83.969 Y80.18 E.70094
;WIDTH:0.426931
G1 X83.969 Y78.712 E.04453
;WIDTH:0.419999
G1 X83.969 Y77.31 E.04176
G1 X85.112 Y77.31 E.03405
;WIDTH:0.440243
G1 X86.205 Y77.311 E.0343
;WIDTH:0.422398
G1 X87.086 Y77.31 E.02641
;WIDTH:0.419999
G1 X90.349 Y77.31 E.09719
G1 X90.349 Y84.371 E.21032
G1 X90.396 Y84.496 E.00398
G1 X90.538 Y84.56 E.00464
G1 X110.849 Y84.56 E.60499
G1 X110.849 Y92 E.22161
G1 X110.849 Y99.44 E.22161
G1 X90.538 Y99.44 E.60499
G1 X90.425 Y99.477 E.00354
G1 X90.376 Y99.574 E.00324
G1 E-3.5 F3600
;WIPE_START
G1 F7200
G1 X90.349 Y99.627 E-.02825
G1 X90.349 Y102.725 E-1.47175
;WIPE_END
G1 X109.205 Y85.435 F9000
G1 E5 F2400
;TYPE:Solid infill
;WIDTH:0.423147
G1 F1200
G1 X109.974 Y86.204 E.03266
G1 X109.974 Y86.204 F9000
G1 X109.974 Y86.741
G1 F1200
G1 X108.668 Y85.435 E.05547
G1 X108.668 Y85.435 F9000
G1 X108.13 Y85.435
G1 F1200
G1 X109.974 Y87.279 E.07833
G1 X109.974 Y87.279 F9000
G1 X109.974 Y87.817
G1 F1200
G1 X107.592 Y85.435 E.10118
G1 X107.592 Y85.435 F9000
G1 X107.055 Y85.435
G1 F1200
G1 X109.974 Y88.355 E.12401
G1 X109.974 Y88.355 F9000
G1 X109.974 Y88.892
G1 F1200
G1 X106.517 Y85.435 E.14684
G1 X106.517 Y85.435 F9000
G1 X105.979 Y85.435
G1 F1200
G1 X109.974 Y89.43 E.16969
G1 X109.974 Y89.43 F9000
G1 X109.974 Y89.968
G1 F1200
G1 X105.441 Y85.435 E.19254
G1 X105.441 Y85.435 F9000
G1 X104.904 Y85.435
G1 F1200
G1 X109.974 Y90.506 E.21538
G1 X109.974 Y90.506 F9000
G1 X109.974 Y91.043
G1 F1200
G1 X104.366 Y85.435 E.23821
G1 X104.366 Y85.435 F9000
G1 X103.828 Y85.435
G1 F1200
G1 X109.974 Y91.581 E.26106
G1 X109.974 Y91.581 F9000
G1 X109.974 Y92.119
G1 F1200
G1 X103.29 Y85.435 E.28391
G1 X103.29 Y85.435 F9000
G1 X102.753 Y85.435
G1 F1200
G1 X109.974 Y92.656 E.30672
G1 X109.974 Y92.656 F9000
G1 X109.974 Y93.194
G1 F1200
G1 X102.215 Y85.435 E.32957
G1 X102.215 Y85.435 F9000
G1 X101.677 Y85.435
G1 F1200
G1 X109.974 Y93.732 E.35242
G1 X109.974 Y93.732 F9000
G1 X109.974 Y94.27
G1 F1200
G1 X101.14 Y85.435 E.37526
G1 X101.14 Y85.435 F9000
G1 X100.602 Y85.435
G1 F1200
G1 X109.974 Y94.807 E.39809
G1 X109.974 Y94.807 F9000
G1 X109.974 Y95.345
G1 F1200
G1 X100.064 Y85.435 E.42094
G1 X100.064 Y85.435 F9000
G1 X99.526 Y85.435
G1 F1200
G1 X109.974 Y95.883 E.44379
G1 X109.974 Y95.883 F9000
G1 X109.974 Y96.42
G1 F1200
G1 X98.989 Y85.435 E.4666
G1 X98.989 Y85.435 F9000
G1 X98.451 Y85.435
G1 F1200
G1 X109.974 Y96.958 E.48945
G1 X109.974 Y96.958 F9000
G1 X109.974 Y97.496
G1 F1200
G1 X97.913 Y85.435 E.51231
G1 X97.913 Y85.435 F9000
G1 X97.376 Y85.435
G1 F1200
G1 X109.974 Y98.034 E.53514
G1 X109.974 Y98.034 F9000
G1 X109.968 Y98.565
G1 F1200
G1 X96.838 Y85.435 E.55771
G1 X96.838 Y85.435 F9000
G1 X96.3 Y85.435
G1 F1200
G1 X109.43 Y98.565 E.55771
G1 X109.43 Y98.565 F9000
G1 X108.893 Y98.565
G1 F1200
G1 X95.762 Y85.435 E.55773
G1 X95.762 Y85.435 F9000
G1 X95.225 Y85.435
G1 F1200
G1 X108.355 Y98.565 E.55771
G1 X108.355 Y98.565 F9000
G1 X107.817 Y98.565
G1 F1200
G1 X94.687 Y85.435 E.55771
G1 X94.687 Y85.435 F9000
G1 X94.149 Y85.435
G1 F1200
G1 X107.28 Y98.565 E.55773
G1 X107.28 Y98.565 F9000
G1 X106.742 Y98.565
G1 F1200
G1 X93.611 Y85.435 E.55773
G1 X93.611 Y85.435 F9000
G1 X93.074 Y85.435
G1 F1200
G1 X106.204 Y98.565 E.55771
G1 X106.204 Y98.565 F9000
G1 X105.666 Y98.565
G1 F1200
G1 X92.536 Y85.435 E.55771
G1 X92.536 Y85.435 F9000
G1 X91.998 Y85.435
G1 F1200
G1 X105.129 Y98.565 E.55773
G1 X105.129 Y98.565 F9000
G1 X104.591 Y98.565
G1 F1200
G1 X91.461 Y85.435 E.55771
G1 X91.461 Y85.435 F9000
G1 X90.923 Y85.435
G1 F1200
G1 X104.053 Y98.565 E.55771
G1 X104.053 Y98.565 F9000
G1 X103.515 Y98.565
G1 F1200
G1 X90.359 Y85.409 E.55882
G1 E-3.5 F3600
;WIPE_START
G1 F7200
G1 X92.592 Y87.642 E-1.5
;WIPE_END
G1 X89.474 Y78.609 F9000
G1 E5 F2400
G1 F1200
G1 X89.05 Y78.185 E.01801
G1 X89.05 Y78.185 F9000
G1 X88.512 Y78.185
G1 F1200
G1 X89.474 Y79.147 E.04086
G1 X89.474 Y79.147 F9000
G1 X89.474 Y79.685
G1 F1200
G1 X88.79 Y79 E.02907
G1 X88.79 Y79 F9000
G1 X88.825 Y79.573
G1 F1200
G1 X89.474 Y80.222 E.02757
G1 X89.474 Y80.222 F9000
G1 X89.474 Y80.76
G1 F1200
G1 X88.774 Y80.059 E.02975
G1 X88.774 Y80.059 F9000
G1 X88.653 Y80.476
G1 F1200
G1 X89.474 Y81.298 E.03489
G1 X89.474 Y81.298 F9000
G1 X89.474 Y81.835
G1 F1200
G1 X88.477 Y80.838 E.04235
G1 X88.477 Y80.838 F9000
G1 X88.261 Y81.16
G1 F1200
G1 X89.474 Y82.373 E.05152
G1 X89.474 Y82.373 F9000
G1 X89.474 Y82.911
G1 F1200
G1 X88.005 Y81.442 E.0624
G1 X88.005 Y81.442 F9000
G1 X87.707 Y81.681
G1 F1200
G1 X89.474 Y83.449 E.07508
G1 X89.474 Y83.449 F9000
G1 X89.474 Y83.986
G1 F1200
G1 X87.374 Y81.886 E.0892
G1 X87.374 Y81.886 F9000
G1 X86.994 Y82.043
G1 F1200
G1 X89.497 Y84.547 E.10634
G1 E-3.5 F3600
;WIPE_START
G1 F7200
G1 X87.264 Y82.314 E-1.5
;WIPE_END
G1 X86.558 Y82.145 F9000
G1 E5 F2400
G1 F1200
G1 X102.978 Y98.565 E.69746
G1 X102.978 Y98.565 F9000
G1 X102.44 Y98.565
G1 F1200
G1 X86.052 Y82.177 E.6961
G1 X86.052 Y82.177 F9000
G1 X85.41 Y82.073
G1 F1200
G1 X101.902 Y98.565 E.70052
G1 X101.902 Y98.565 F9000
G1 X101.365 Y98.565
G1 F1200
G1 X84.844 Y82.045 E.70173
G1 X84.844 Y82.045 F9000
G1 X84.844 Y82.582
G1 F1200
G1 X100.827 Y98.565 E.6789
G1 X100.827 Y98.565 F9000
G1 X100.289 Y98.565
G1 F1200
G1 X84.844 Y83.12 E.65604
G1 X84.844 Y83.658 F9000
G1 F1200
G1 X99.751 Y98.565 E.63319
G1 X99.751 Y98.565 F9000
G1 X99.214 Y98.565
G1 F1200
G1 X84.844 Y84.195 E.61038
G1 X84.844 Y84.195 F9000
G1 X84.844 Y84.733
G1 F1200
G1 X98.676 Y98.565 E.58753
G1 X98.676 Y98.565 F9000
G1 X98.138 Y98.565
G1 F1200
G1 X84.844 Y85.271 E.56468
G1 X84.844 Y85.809 F9000
G1 F1200
G1 X97.601 Y98.565 E.54185
G1 X97.601 Y98.565 F9000
G1 X97.063 Y98.565
G1 F1200
G1 X84.844 Y86.346 E.51902
G1 X84.844 Y86.346 F9000
G1 X84.844 Y86.884
G1 F1200
G1 X96.525 Y98.565 E.49616
G1 X96.525 Y98.565 F9000
G1 X95.987 Y98.565
G1 F1200
G1 X84.844 Y87.422 E.47331
G1 X84.844 Y87.422 F9000
G1 X84.844 Y87.96
G1 F1200
G1 X95.45 Y98.565 E.45048
G1 X95.45 Y98.565 F9000
G1 X94.912 Y98.565
G1 F1200
G1 X84.844 Y88.497 E.42765
G1 X84.844 Y88.497 F9000
G1 X84.844 Y89.035
G1 F1200
G1 X94.374 Y98.565 E.4048
G1 X94.374 Y98.565 F9000
G1 X93.836 Y98.565
G1 F1200
G1 X84.844 Y89.573 E.38195
G1 X84.844 Y89.573 F9000
G1 X84.844 Y90.11
G1 F1200
G1 X93.299 Y98.565 E.35914
G1 X93.299 Y98.565 F9000
G1 X92.761 Y98.565
G1 F1200
G1 X84.844 Y90.648 E.33628
G1 X84.844 Y90.648 F9000
G1 X84.844 Y91.186
G1 F1200
G1 X92.223 Y98.565 E.31343
G1 X92.223 Y98.565 F9000
G1 X91.686 Y98.565
G1 F1200
G1 X84.844 Y91.724 E.2906
G1 X84.844 Y91.724 F9000
G1 X84.844 Y92.261
G1 F1200
G1 X91.148 Y98.565 E.26777
G1 X91.148 Y98.565 F9000
G1 X90.61 Y98.565
G1 F1200
G1 X84.844 Y92.799 E.24492
G1 X84.844 Y93.337 F9000
G1 F1200
G1 X90.15 Y98.643 E.22538
G1 X90.15 Y98.643 F9000
G1 X89.821 Y98.851
G1 F1200
G1 X84.844 Y93.874 E.2114
G1 X84.844 Y93.874 F9000
G1 X84.844 Y94.412
G1 F1200
G1 X89.589 Y99.157 E.20155
G1 X89.589 Y99.157 F9000
G1 X89.48 Y99.585
G1 F1200
G1 X84.844 Y94.95 E.1969
G1 X84.844 Y95.488 F9000
G1 F1200
G1 X89.474 Y100.118 E.19666
G1 X89.474 Y100.118 F9000
G1 X89.474 Y100.656
G1 F1200
G1 X84.844 Y96.025 E.19669
G1 X84.844 Y96.025 F9000
G1 X84.844 Y96.563
G1 F1200
G1 X89.474 Y101.193 E.19666
G1 X89.474 Y101.193 F9000
G1 X89.474 Y101.731
G1 F1200
G1 X84.844 Y97.101 E.19666
