; generated by PrusaSlicer 2.7.4+win64 on 2024-08-03 at 21:50:15 UTC

; 

; external perimeters extrusion width = 0.42mm
; perimeters extrusion width = 0.44mm
; infill extrusion width = 0.44mm
; solid infill extrusion width = 0.44mm
; top infill extrusion width = 0.40mm
; support material extrusion width = 0.36mm
; first layer extrusion width = 0.42mm


; printing object Charge_module_case id:0 copy 0
; stop printing object Charge_module_case id:0 copy 0

;TYPE:Custom
G90 ; use absolute coordinates
M83 ; extruder relative mode
M140 S60 ; set final bed temp
M104 S150 ; set temporary nozzle temp to prevent oozing during homing
G4 S30 ; allow partial nozzle warmup
G28 ; home all axis
G1 Z50 F240
G1 X7 Y10 F3000
M300 P300 S200 ; sound buzzer to say bed levelling is done
M300 P300 S0 ; pause sound so two beeps can play
M300 P300 S200 ; sound buzzer to say bed levelling is done
M104 S200 ; set final nozzle temp
M190 S60 ; wait for bed temp to stabilize
M109 S200 ; wait for nozzle temp to stabilize
G1 Z0.28 F240
G92 E0
G1 Y140 E10 F1500 ; prime the nozzle
G1 X6 F5000
G92 E0
G1 Y10 E10 F1200 ; prime the nozzle
G92 E0
G21 ; set units to millimeters
G90 ; use absolute coordinates
M83 ; use relative distances for extrusion
; Filament gcode
M107
;LAYER_CHANGE
;Z:0.2
;HEIGHT:0.2
G1 E-5 F3600
G1 Z.2 F9000
G1 X75.742 Y74.001
G1 Z.2
G1 E5 F2400
M204 P500
;TYPE:Skirt/Brim
;WIDTH:0.42
G1 F1200
G1 X78 Y73.246 E.07092
G1 X83 Y73.246 E.14893
G1 X83.844 Y73.342 E.0253
G1 X96.844 Y76.342 E.3974
G1 X98.655 Y77.345 E.06166
G1 X100.655 Y79.345 E.08425
G1 X101.358 Y80.321 E.03583
G1 X109.358 Y96.321 E.53284
G1 X109.754 Y98 E.05138
G1 X109.754 Y104 E.17872
G1 X109.359 Y105.676 E.05129
G1 X108.258 Y106.999 E.05127
G1 X106.486 Y107.723 E.05702
G1 X83.486 Y110.723 E.69089
G1 X78 Y110.754 E.16341
G1 X76.324 Y110.359 E.05129
G1 X75.001 Y109.258 E.05127
G1 X74.246 Y107 E.07092
G1 X74.246 Y77 E.8936
G1 X74.641 Y75.324 E.05129
G1 X75.703 Y74.047 E.04947
G1 X75.703 Y74.047 F9000
G1 X76.004 Y74.318
G1 F1200
G1 X76.107 Y74.203 E.0046
G1 X78 Y73.623 E.05897
G1 X83 Y73.623 E.14893
G1 X83.759 Y73.709 E.02275
G1 X96.759 Y76.709 E.3974
G1 X98.388 Y77.612 E.05548
G1 X100.388 Y79.612 E.08425
G1 X101.021 Y80.49 E.03224
G1 X109.021 Y96.49 E.53284
G1 X109.377 Y98 E.04621
G1 X109.377 Y104 E.17872
G1 X108.983 Y105.583 E.04859
G1 X107.893 Y106.797 E.0486
G1 X106.437 Y107.349 E.04638
G1 X83 Y110.377 E.70391
G1 X78 Y110.377 E.14893
G1 X76.417 Y109.983 E.04859
G1 X75.203 Y108.893 E.0486
G1 X74.623 Y107 E.05897
G1 X74.623 Y77 E.8936
G1 X75.017 Y75.417 E.04859
G1 X75.964 Y74.362 E.04223
G1 E-3.5 F3600
;WIPE_START
G1 F7200
G1 X76.004 Y74.318 E-.02825
G1 X76.107 Y74.203 E-.07333
G1 X78 Y73.623 E-.94043
G1 X78.964 Y73.623 E-.45799
;WIPE_END
; printing object Charge_module_case id:0 copy 0
G1 X82.567 Y81.011 F9000
G1 E5 F2400
;TYPE:Perimeter
;WIDTH:0.419999
G1 F1200
G1 X82.879 Y81.064 E.00943
G1 X94.936 Y81.064 E.35914
G1 X94.936 Y82.121 E.03148
G1 X94.985 Y82.423 E.00911
G1 X95.075 Y82.615 E.00632
G1 X95.253 Y82.826 E.00822
G1 X95.568 Y83.011 E.01088
G1 X95.879 Y83.064 E.0094
G1 X96.936 Y83.064 E.03148
G1 X96.936 Y98.121 E.4485
G1 X96.987 Y98.427 E.00924
G1 X97.196 Y98.772 E.01201
G1 X97.381 Y98.922 E.00709
G1 X97.615 Y99.026 E.00763
G1 X97.879 Y99.064 E.00794
G1 X104.936 Y99.064 E.2102
G1 X104.936 Y101 E.05767
G1 X104.936 Y102.936 E.05767
G1 X82.879 Y102.936 E.657
G1 X82.567 Y102.989 E.00943
G1 X82.297 Y102.675 E.01234
G1 X81.811 Y102.301 E.01827
G1 X81.236 Y102.047 E.01872
G1 X80.616 Y101.942 E.01873
G1 X80.038 Y101.985 E.01726
G1 X79.417 Y102.182 E.01941
G1 X79.064 Y102.389 E.01219
G1 X79.064 Y97.064 E.15861
G1 X86.121 Y97.064 E.2102
G1 X86.284 Y97.05 E.00487
G1 X86.665 Y96.891 E.0123
G1 X86.901 Y96.652 E.01
G1 X87.023 Y96.396 E.00845
G1 X87.064 Y96.121 E.00828
G1 X87.064 Y87.879 E.2455
G1 X87.058 Y87.774 E.00313
G1 X86.951 Y87.43 E.01073
G1 X86.769 Y87.193 E.0089
G1 X86.482 Y87.007 E.01019
G1 X86.121 Y86.936 E.01096
G1 X79.064 Y86.936 E.2102
G1 X79.064 Y81.611 E.15861
G1 X79.189 Y81.699 E.00455
G1 X79.764 Y81.953 E.01872
G1 X80.384 Y82.058 E.01873
G1 X81.077 Y81.999 E.02072
G1 X81.607 Y81.809 E.01677
G1 X82.137 Y81.469 E.01876
G1 X82.526 Y81.055 E.01692
G1 X82.459 Y80.447 F9000
G1 F1200
G1 X82.567 Y80.594 E.00543
G1 X82.879 Y80.687 E.0097
G1 X95.313 Y80.687 E.37037
G1 X95.313 Y82.121 E.04271
G1 X95.396 Y82.417 E.00916
G1 X95.576 Y82.599 E.00762
G1 X95.879 Y82.687 E.0094
G1 X97.313 Y82.687 E.04271
G1 X97.313 Y98.121 E.45973
G1 X97.391 Y98.409 E.00889
G1 X97.58 Y98.602 E.00805
G1 X97.879 Y98.687 E.00926
G1 X105.313 Y98.687 E.22143
G1 X105.313 Y101 E.0689
G1 X105.313 Y103.313 E.0689
G1 X82.879 Y103.313 E.66823
G1 X82.567 Y103.406 E.0097
G1 X82.459 Y103.553 E.00543
G1 X82.358 Y103.35 E.00675
G1 X82.015 Y102.925 E.01627
G1 X81.594 Y102.609 E.01568
G1 X81.1 Y102.399 E.01599
G1 X80.569 Y102.316 E.01601
G1 X80.084 Y102.359 E.0145
G1 X79.544 Y102.537 E.01694
G1 X79.081 Y102.839 E.01647
G1 X78.687 Y103.283 E.01768
G1 X78.687 Y96.687 E.19647
G1 X86.121 Y96.687 E.22143
G1 X86.219 Y96.679 E.00293
G1 X86.448 Y96.583 E.0074
G1 X86.633 Y96.362 E.00858
G1 X86.687 Y96.121 E.00736
G1 X86.687 Y87.879 E.2455
G1 X86.679 Y87.781 E.00293
G1 X86.572 Y87.537 E.00794
G1 X86.338 Y87.356 E.00881
G1 X86.121 Y87.313 E.00659
G1 X78.687 Y87.313 E.22143
G1 X78.687 Y80.717 E.19647
G1 X78.978 Y81.068 E.01358
G1 X79.406 Y81.391 E.01597
G1 X79.9 Y81.601 E.01599
G1 X80.431 Y81.684 E.01601
G1 X80.965 Y81.635 E.01597
G1 X81.471 Y81.457 E.01598
G1 X81.919 Y81.161 E.01599
G1 X82.281 Y80.766 E.01596
G1 X82.43 Y80.499 E.00911
G1 E-3.5 F3600
;WIPE_START
G1 F7200
G1 X82.459 Y80.447 E-.02828
G1 X82.567 Y80.594 E-.08664
G1 X82.879 Y80.687 E-.15464
G1 X85.469 Y80.687 E-1.23044
;WIPE_END
G1 X82.329 Y105.656 F9000
G1 E5 F2400
;WIDTH:0.38882
G1 F1200
G1 X82.329 Y106.329 E.01839
G1 X81.665 Y106.329 E.01814
G1 X82.044 Y106.023 E.01331
G1 X82.292 Y105.704 E.01104
G1 E-3.5 F3600
;WIPE_START
G1 F7200
G1 X82.329 Y105.656 E-.02879
G1 X82.329 Y106.329 E-.31968
G1 X81.665 Y106.329 E-.3154
G1 X82.044 Y106.023 E-.23138
G1 X82.292 Y105.704 E-.19193
;WIPE_END
G1 E-.41282 F3600
G1 X79.343 Y106.327 F9000
G1 E5 F2400
;WIDTH:0.392297
G1 F1200
G1 X78.673 Y106.327 E.01849
G1 X78.673 Y105.658 E.01846
G1 X78.737 Y105.767 E.00349
G1 X79.103 Y106.162 E.01486
G1 X79.294 Y106.293 E.00639
G1 E-3.5 F3600
;WIPE_START
G1 F7200
G1 X79.343 Y106.327 E-.02833
G1 X78.673 Y106.327 E-.31825
G1 X78.673 Y105.658 E-.31777
G1 X78.737 Y105.767 E-.06004
G1 X79.103 Y106.162 E-.25579
G1 X79.294 Y106.293 E-.11001
;WIPE_END
G1 E-.40981 F3600
G1 X82.13 Y103.719 F9000
G1 E5 F2400
;TYPE:External perimeter
;WIDTH:0.471398
G1 F1200
G1 X82.239 Y103.919 E.00771
G1 X82.31 Y104.471 E.01884
;WIDTH:0.442995
G1 X82.259 Y104.972 E.01591
G1 X82.079 Y105.384 E.01421
;WIDTH:0.419999
G1 X81.811 Y105.747 E.01344
G1 X81.466 Y106.03 E.01329
G1 X81.06 Y106.221 E.01336
;WIDTH:0.423724
G1 X80.619 Y106.308 E.01352
;WIDTH:0.441226
G1 X80.168 Y106.29 E.0142
G1 X79.743 Y106.144 E.01414
;WIDTH:0.419999
G1 X79.362 Y105.907 E.01337
G1 X79.051 Y105.584 E.01336
G1 X78.829 Y105.194 E.01337
;WIDTH:0.431136
G1 X78.704 Y104.761 E.01382
G1 X78.696 Y104.311 E.0138
;WIDTH:0.428821
G1 X78.802 Y103.875 E.01368
;WIDTH:0.419999
G1 X79.005 Y103.48 E.01323
G1 X79.299 Y103.146 E.01325
G1 X79.67 Y102.893 E.01338
G1 X80.131 Y102.733 E.01454
G1 X80.523 Y102.691 E.01174
G1 X80.919 Y102.739 E.01188
G1 X81.376 Y102.916 E.0146
G1 X81.735 Y103.178 E.01324
G1 X82.02 Y103.519 E.01324
;WIDTH:0.445699
G1 X82.101 Y103.666 E.00534
G1 E-3.5 F3600
;WIPE_START
G1 F7200
G1 X82.13 Y103.719 E-.0287
G1 X82.239 Y103.919 E-.10819
G1 X82.31 Y104.471 E-.26436
G1 X82.259 Y104.972 E-.2392
G1 X82.079 Y105.384 E-.21356
G1 X81.811 Y105.747 E-.21433
G1 X81.466 Y106.03 E-.21196
G1 X81.06 Y106.221 E-.21312
G1 X81.046 Y106.224 E-.00658
;WIPE_END
G1 X82.329 Y78.344 F9000
G1 E5 F2400
;TYPE:Perimeter
;WIDTH:0.388827
G1 F1200
G1 X82.139 Y78.078 E.00893
G1 X81.665 Y77.671 E.01707
G1 X82.329 Y77.671 E.01814
G1 X82.329 Y78.284 E.01675
G1 E-3.5 F3600
;WIPE_START
G1 F7200
G1 X82.329 Y78.344 E-.0285
G1 X82.139 Y78.078 E-.15527
G1 X81.665 Y77.671 E-.29676
G1 X82.329 Y77.671 E-.3154
G1 X82.329 Y78.284 E-.29117
;WIPE_END
G1 E-.4129 F3600
G1 X79.343 Y77.673 F9000
G1 E5 F2400
;WIDTH:0.392305
G1 F1200
G1 X79.211 Y77.753 E.00426
G1 X78.82 Y78.124 E.01488
G1 X78.673 Y78.349 E.00742
G1 X78.673 Y77.673 E.01866
G1 X79.283 Y77.673 E.01684
G1 X79.283 Y77.673 F9000
G1 X80.628 Y77.692
;TYPE:External perimeter
;WIDTH:0.423502
G1 F1200
G1 X81.104 Y77.794 E.01463
;WIDTH:0.419999
G1 X81.505 Y77.995 E.01336
G1 X81.845 Y78.289 E.01339
G1 X82.101 Y78.657 E.01335
;WIDTH:0.447501
G1 X82.273 Y79.076 E.01448
G1 X82.31 Y79.528 E.01449
;WIDTH:0.471239
G1 X82.239 Y80.08 E.01883
G1 X82.117 Y80.3 E.00851
;WIDTH:0.445619
G1 X81.995 Y80.52 E.008
;WIDTH:0.419999
G1 X81.701 Y80.854 E.01325
G1 X81.335 Y81.105 E.01322
G1 X80.919 Y81.261 E.01323
G1 X80.477 Y81.31 E.01325
G1 X80.037 Y81.249 E.01323
G1 X79.624 Y81.084 E.01325
G1 X79.265 Y80.822 E.01324
G1 X78.98 Y80.481 E.01324
G1 X78.786 Y80.081 E.01324
;WIDTH:0.424462
G1 X78.694 Y79.641 E.01355
;WIDTH:0.438842
G1 X78.708 Y79.19 E.01411
G1 X78.831 Y78.816 E.01231
;WIDTH:0.419999
G1 X79.079 Y78.38 E.01494
G1 X79.399 Y78.064 E.0134
G1 X79.791 Y77.836 E.01351
;WIDTH:0.431731
G1 X80.267 Y77.704 E.01517
G1 X80.568 Y77.694 E.00925
G1 E-3.5 F3600
;WIPE_START
G1 F7200
G1 X80.628 Y77.692 E-.02852
G1 X81.104 Y77.794 E-.23123
G1 X81.505 Y77.995 E-.21306
G1 X81.845 Y78.289 E-.2135
G1 X82.101 Y78.657 E-.21294
G1 X82.273 Y79.076 E-.21514
G1 X82.31 Y79.528 E-.21542
G1 X82.264 Y79.883 E-.17019
;WIPE_END
G1 X82.664 Y80.116 F9000
G1 E5 F2400
;WIDTH:0.471239
G1 F1200
G1 X82.72 Y80.198 E.00336
;WIDTH:0.445619
G1 X82.775 Y80.279 E.00311
;WIDTH:0.419999
G1 X82.875 Y80.31 E.00312
G1 X95.69 Y80.31 E.38171
G1 X95.69 Y82.121 E.05394
G1 X95.736 Y82.244 E.00391
G1 X95.879 Y82.31 E.00469
G1 X97.69 Y82.31 E.05394
G1 X97.69 Y98.121 E.47095
G1 X97.742 Y98.251 E.00417
G1 X97.879 Y98.31 E.00444
G1 X105.69 Y98.31 E.23266
G1 X105.69 Y101 E.08013
G1 X105.69 Y103.69 E.08013
G1 X82.879 Y103.69 E.67946
G1 X82.775 Y103.721 E.00323
;WIDTH:0.445699
G1 X82.72 Y103.802 E.00312
;WIDTH:0.471398
G1 X82.664 Y103.883 E.00333
G1 X82.688 Y104.439 E.01884
;WIDTH:0.447501
G1 X82.676 Y104.95 E.01634
G1 X82.69 Y105.454 E.01611
;WIDTH:0.419999
G1 X82.69 Y106.69 E.03682
G1 X81.108 Y106.69 E.04712
;WIDTH:0.43287
G1 X79.708 Y106.69 E.04312
;WIDTH:0.419999
G1 X78.31 Y106.69 E.04164
G1 X78.31 Y105.382 E.03896
;WIDTH:0.431136
G1 X78.31 Y103.867 E.04646
;WIDTH:0.419999
G1 X78.31 Y96.31 E.2251
G1 X86.121 Y96.31 E.23266
G1 X86.257 Y96.253 E.00439
G1 X86.31 Y96.121 E.00424
G1 X86.31 Y87.879 E.2455
G1 X86.251 Y87.741 E.00447
G1 X86.121 Y87.69 E.00416
G1 X78.31 Y87.69 E.23266
G1 X78.31 Y80.133 E.2251
;WIDTH:0.431137
G1 X78.31 Y78.682 E.0445
;WIDTH:0.419999
G1 X78.31 Y77.31 E.04087
G1 X79.721 Y77.31 E.04203
;WIDTH:0.431731
G1 X81.108 Y77.31 E.0426
;WIDTH:0.419999
G1 X82.69 Y77.31 E.04712
G1 X82.69 Y78.546 E.03682
;WIDTH:0.447501
G1 X82.676 Y79.051 E.01615
G1 X82.688 Y79.56 E.01627
;WIDTH:0.471239
G1 X82.667 Y80.056 E.0168
G1 E-3.5 F3600
;WIPE_START
G1 F7200
G1 X82.664 Y80.116 E-.02854
G1 X82.72 Y80.198 E-.04717
G1 X82.775 Y80.279 E-.04651
G1 X82.875 Y80.31 E-.04973
G1 X85.671 Y80.31 E-1.32805
;WIPE_END
G1 X94.815 Y81.956 F9000
G1 E5 F2400
;TYPE:Solid infill
;WIDTH:0.424401
G1 F1200
G1 X94.044 Y81.185 E.03286
G1 X94.044 Y81.185 F9000
G1 X93.504 Y81.185
G1 F1200
G1 X94.951 Y82.632 E.06167
G1 X94.951 Y82.632 F9000
G1 X96.044 Y83.185
G1 F1200
G1 X96.815 Y83.956 E.03286
G1 X96.815 Y83.956 F9000
G1 X96.815 Y84.496
G1 F1200
G1 X95.366 Y83.046 E.06177
G1 E-3.5 F3600
;WIPE_START
G1 F7200
G1 X96.815 Y84.496 E-.9737
;WIPE_END
G1 E-.5263 F3600
G1 X96.815 Y85.035 F9000
G1 E5 F2400
G1 F1200
G1 X92.965 Y81.185 E.16407
G1 X92.965 Y81.185 F9000
G1 X92.425 Y81.185
G1 F1200
G1 X96.815 Y85.575 E.18709
G1 X96.815 Y85.575 F9000
G1 X96.815 Y86.114
G1 F1200
G1 X91.886 Y81.185 E.21006
G1 X91.886 Y81.185 F9000
G1 X91.346 Y81.185
G1 F1200
G1 X96.815 Y86.654 E.23307
G1 X96.815 Y86.654 F9000
G1 X96.815 Y87.193
G1 F1200
G1 X90.807 Y81.185 E.25604
G1 X90.807 Y81.185 F9000
G1 X90.267 Y81.185
G1 F1200
G1 X96.815 Y87.733 E.27905
G1 X96.815 Y87.733 F9000
G1 X96.815 Y88.272
G1 F1200
G1 X89.728 Y81.185 E.30202
G1 X89.728 Y81.185 F9000
G1 X89.188 Y81.185
G1 F1200
G1 X96.815 Y88.812 E.32503
G1 X96.815 Y88.812 F9000
G1 X96.815 Y89.351
G1 F1200
G1 X88.649 Y81.185 E.348
G1 X88.649 Y81.185 F9000
G1 X88.109 Y81.185
G1 F1200
G1 X96.815 Y89.891 E.37102
G1 X96.815 Y89.891 F9000
G1 X96.815 Y90.43
G1 F1200
G1 X87.57 Y81.185 E.39399
G1 X87.57 Y81.185 F9000
G1 X87.03 Y81.185
G1 F1200
G1 X96.815 Y90.97 E.417
G1 X96.815 Y90.97 F9000
G1 X96.815 Y91.509
G1 F1200
G1 X86.491 Y81.185 E.43997
G1 X86.491 Y81.185 F9000
G1 X85.951 Y81.185
G1 F1200
G1 X96.815 Y92.049 E.46298
G1 X96.815 Y92.049 F9000
G1 X96.815 Y92.588
G1 F1200
G1 X85.412 Y81.185 E.48595
G1 X85.412 Y81.185 F9000
G1 X84.872 Y81.185
G1 F1200
G1 X96.815 Y93.128 E.50897
G1 X96.815 Y93.128 F9000
G1 X96.815 Y93.667
G1 F1200
G1 X84.333 Y81.185 E.53194
G1 X84.333 Y81.185 F9000
G1 X83.793 Y81.185
G1 F1200
G1 X96.815 Y94.207 E.55495
G1 X96.815 Y94.207 F9000
G1 X96.815 Y94.746
G1 F1200
G1 X83.254 Y81.185 E.57792
G1 X83.254 Y81.185 F9000
G1 X82.681 Y81.152
G1 F1200
G1 X96.815 Y95.286 E.60234
G1 X96.815 Y95.286 F9000
G1 X96.815 Y95.825
G1 F1200
G1 X82.391 Y81.401 E.6147
G1 X82.391 Y81.401 F9000
G1 X82.096 Y81.646
G1 F1200
G1 X96.815 Y96.365 E.62727
G1 X96.815 Y96.365 F9000
G1 X96.815 Y96.904
G1 F1200
G1 X81.768 Y81.858 E.64123
G1 X81.768 Y81.858 F9000
G1 X81.386 Y82.015
G1 F1200
G1 X86.194 Y86.823 E.2049
G1 X86.194 Y86.823 F9000
G1 X85.647 Y86.815
G1 F1200
G1 X80.966 Y82.134 E.19949
G1 X80.966 Y82.134 F9000
G1 X80.47 Y82.177
G1 F1200
G1 X85.108 Y86.815 E.19765
G1 X85.108 Y86.815 F9000
G1 X84.568 Y86.815
G1 F1200
G1 X79.85 Y82.097 E.20106
G1 X79.185 Y81.971 F9000
G1 F1200
G1 X84.029 Y86.815 E.20643
G1 X84.029 Y86.815 F9000
G1 X83.489 Y86.815
G1 F1200
G1 X79.185 Y82.511 E.18342
G1 X79.185 Y82.511 F9000
G1 X79.185 Y83.05
G1 F1200
G1 X82.95 Y86.815 E.16045
G1 X82.95 Y86.815 F9000
G1 X82.41 Y86.815
G1 F1200
G1 X79.185 Y83.59 E.13744
G1 X79.185 Y83.59 F9000
G1 X79.185 Y84.129
G1 F1200
G1 X81.871 Y86.815 E.11447
G1 X81.871 Y86.815 F9000
G1 X81.331 Y86.815
G1 F1200
G1 X79.185 Y84.669 E.09145
G1 X79.185 Y84.669 F9000
G1 X79.185 Y85.208
G1 F1200
G1 X80.792 Y86.815 E.06848
G1 X80.792 Y86.815 F9000
G1 X80.252 Y86.815
G1 F1200
G1 X79.185 Y85.748 E.04547
G1 X79.185 Y85.748 F9000
G1 X79.185 Y86.287
G1 F1200
G1 X79.713 Y86.815 E.0225
G1 E-3.5 F3600
;WIPE_START
G1 F7200
G1 X79.185 Y86.287 E-.35468
;WIPE_END
G1 E-1.14532 F3600
G1 X87.178 Y87.807 F9000
G1 E5 F2400
G1 F1200
G1 X96.815 Y97.444 E.41069
G1 X96.815 Y97.444 F9000
G1 X96.815 Y97.983
G1 F1200
G1 X87.185 Y88.353 E.41039
G1 X87.185 Y88.353 F9000
G1 X87.185 Y88.892
G1 F1200
G1 X96.992 Y98.699 E.41794
G1 E-3.5 F3600
;WIPE_START
G1 F7200
G1 X94.759 Y96.466 E-1.5
;WIPE_END
G1 X103.951 Y99.185 F9000
G1 E5 F2400
G1 F1200
G1 X104.815 Y100.049 E.03682
G1 X104.815 Y100.049 F9000
G1 X104.815 Y100.588
G1 F1200
G1 X103.412 Y99.185 E.05979
G1 X103.412 Y99.185 F9000
G1 X102.872 Y99.185
G1 F1200
G1 X104.815 Y101.128 E.0828
G1 X104.815 Y101.128 F9000
G1 X104.815 Y101.667
G1 F1200
G1 X102.333 Y99.185 E.10577
G1 X102.333 Y99.185 F9000
G1 X101.793 Y99.185
G1 F1200
G1 X104.815 Y102.207 E.12879
G1 X104.815 Y102.207 F9000
G1 X104.815 Y102.746
G1 F1200
G1 X101.254 Y99.185 E.15176
G1 X101.254 Y99.185 F9000
G1 X100.714 Y99.185
G1 F1200
G1 X104.345 Y102.815 E.15472
G1 X104.345 Y102.815 F9000
G1 X103.805 Y102.815
G1 F1200
G1 X100.175 Y99.185 E.1547
G1 X100.175 Y99.185 F9000
G1 X99.635 Y99.185
G1 F1200
G1 X103.266 Y102.815 E.15472
G1 X103.266 Y102.815 F9000
G1 X102.726 Y102.815
G1 F1200
G1 X99.096 Y99.185 E.1547
G1 X99.096 Y99.185 F9000
G1 X98.556 Y99.185
G1 F1200
G1 X102.187 Y102.815 E.15472
G1 X102.187 Y102.815 F9000
G1 X101.647 Y102.815
G1 F1200
G1 X98.017 Y99.185 E.1547
G1 X98.017 Y99.185 F9000
G1 X97.313 Y99.02
G1 F1200
G1 X101.108 Y102.815 E.16173
G1 X101.108 Y102.815 F9000
