; generated by PrusaSlicer 2.7.4+win64 on 2024-08-01 at 16:17:57 UTC

; 

; external perimeters extrusion width = 0.42mm
; perimeters extrusion width = 0.44mm
; infill extrusion width = 0.44mm
; solid infill extrusion width = 0.44mm
; top infill extrusion width = 0.40mm
; support material extrusion width = 0.36mm
; first layer extrusion width = 0.42mm


; printing object ESP_case_down_2 id:0 copy 0
; stop printing object ESP_case_down_2 id:0 copy 0

;TYPE:Custom
G90 ; use absolute coordinates
M83 ; extruder relative mode
M140 S60 ; set final bed temp
M104 S150 ; set temporary nozzle temp to prevent oozing during homing
G4 S30 ; allow partial nozzle warmup
G28 ; home all axis
G1 Z50 F240
G1 X7 Y10 F3000
M300 P300 S200 ; sound buzzer to say bed levelling is done
M300 P300 S0 ; pause sound so two beeps can play
M300 P300 S200 ; sound buzzer to say bed levelling is done
M104 S200 ; set final nozzle temp
M190 S60 ; wait for bed temp to stabilize
M109 S200 ; wait for nozzle temp to stabilize
G1 Z0.28 F240
G92 E0
G1 Y140 E10 F1500 ; prime the nozzle
G1 X6 F5000
G92 E0
G1 Y10 E10 F1200 ; prime the nozzle
G92 E0
G21 ; set units to millimeters
G90 ; use absolute coordinates
M83 ; use relative distances for extrusion
; Filament gcode
M107
;LAYER_CHANGE
;Z:0.2
;HEIGHT:0.2
G1 E-5 F3600
G1 Z.2 F9000
G1 X49.107 Y71.703
G1 Z.2
G1 E5 F2400
M204 P500
;TYPE:Skirt/Brim
;WIDTH:0.42
G1 F1200
G1 X51 Y71.123 E.05897
G1 X133 Y71.123 E2.4425
G1 X134.583 Y71.517 E.04859
G1 X135.797 Y72.607 E.0486
G1 X136.377 Y74.5 E.05897
G1 X136.377 Y109.5 E1.04253
G1 X135.983 Y111.083 E.04859
G1 X134.893 Y112.297 E.0486
G1 X133 Y112.877 E.05897
G1 X51 Y112.877 E2.4425
G1 X49.417 Y112.483 E.04859
G1 X48.203 Y111.393 E.0486
G1 X47.623 Y109.5 E.05897
G1 X47.623 Y74.5 E1.04253
G1 X48.017 Y72.917 E.04859
G1 X49.067 Y71.748 E.0468
G1 E-3.5 F3600
;WIPE_START
G1 F7200
G1 X49.107 Y71.703 E-.0286
G1 X51 Y71.123 E-.94043
G1 X52.118 Y71.123 E-.53097
;WIPE_END
; printing object ESP_case_down_2 id:0 copy 0
G1 X52.064 Y75.564 F9000
G1 E5 F2400
;TYPE:Perimeter
;WIDTH:0.419999
G1 F1200
G1 X131.936 Y75.564 E2.37911
G1 X131.936 Y92 E.48957
G1 X131.936 Y108.436 E.48957
G1 X52.064 Y108.436 E2.37911
G1 X52.064 Y75.624 E.97736
G1 X52.064 Y75.624 F9000
G1 X51.687 Y75.187
G1 F1200
G1 X132.313 Y75.187 E2.40157
G1 X132.313 Y92 E.5008
G1 X132.313 Y108.813 E.5008
G1 X51.687 Y108.813 E2.40157
G1 X51.687 Y75.247 E.99981
G1 X51.31 Y74.81 F9000
;TYPE:External perimeter
G1 F1200
G1 X132.69 Y74.81 E2.42403
G1 X132.69 Y92 E.51203
G1 X132.69 Y109.19 E.51203
G1 X51.31 Y109.19 E2.42403
G1 X51.31 Y74.87 E1.02227
G1 E-3.5 F3600
;WIPE_START
G1 F7200
G1 X51.31 Y74.81 E-.0285
G1 X54.408 Y74.81 E-1.4715
;WIPE_END
G1 X131.815 Y76.45 F9000
G1 E5 F2400
;TYPE:Solid infill
;WIDTH:0.421175
G1 F1200
G1 X131.05 Y75.685 E.03233
G1 X131.05 Y75.685 F9000
G1 X130.515 Y75.685
G1 F1200
G1 X131.815 Y76.985 E.05493
G1 X131.815 Y76.985 F9000
G1 X131.815 Y77.519
G1 F1200
G1 X129.981 Y75.685 E.0775
G1 X129.981 Y75.685 F9000
G1 X129.446 Y75.685
G1 F1200
G1 X131.815 Y78.054 E.1001
G1 X131.815 Y78.054 F9000
G1 X131.815 Y78.589
G1 F1200
G1 X128.911 Y75.685 E.12271
G1 X128.911 Y75.685 F9000
G1 X128.376 Y75.685
G1 F1200
G1 X131.815 Y79.124 E.14532
G1 X131.815 Y79.124 F9000
G1 X131.815 Y79.659
G1 F1200
G1 X127.841 Y75.685 E.16792
G1 X127.841 Y75.685 F9000
G1 X127.306 Y75.685
G1 F1200
G1 X131.815 Y80.194 E.19053
G1 X131.815 Y80.194 F9000
G1 X131.815 Y80.729
G1 F1200
G1 X126.771 Y75.685 E.21314
G1 X126.771 Y75.685 F9000
G1 X126.236 Y75.685
G1 F1200
G1 X131.815 Y81.264 E.23575
G1 X131.815 Y81.264 F9000
G1 X131.815 Y81.799
G1 F1200
G1 X125.701 Y75.685 E.25835
G1 X125.701 Y75.685 F9000
G1 X125.166 Y75.685
G1 F1200
G1 X131.815 Y82.334 E.28096
G1 X131.815 Y82.334 F9000
G1 X131.815 Y82.869
G1 F1200
G1 X124.631 Y75.685 E.30357
G1 X124.631 Y75.685 F9000
G1 X124.096 Y75.685
G1 F1200
G1 X131.815 Y83.404 E.32617
G1 X131.815 Y83.404 F9000
G1 X131.815 Y83.939
G1 F1200
G1 X123.561 Y75.685 E.34878
G1 X123.561 Y75.685 F9000
G1 X123.026 Y75.685
G1 F1200
G1 X131.815 Y84.474 E.37139
G1 X131.815 Y84.474 F9000
G1 X131.815 Y85.009
G1 F1200
G1 X122.491 Y75.685 E.39399
G1 X122.491 Y75.685 F9000
G1 X121.957 Y75.685
G1 F1200
G1 X131.815 Y85.543 E.41656
G1 X131.815 Y85.543 F9000
G1 X131.815 Y86.078
G1 F1200
G1 X121.422 Y75.685 E.43917
G1 X121.422 Y75.685 F9000
G1 X120.887 Y75.685
G1 F1200
G1 X131.815 Y86.613 E.46177
G1 X131.815 Y86.613 F9000
G1 X131.815 Y87.148
G1 F1200
G1 X120.352 Y75.685 E.48438
G1 X120.352 Y75.685 F9000
G1 X119.817 Y75.685
G1 F1200
G1 X131.815 Y87.683 E.50699
G1 X131.815 Y87.683 F9000
G1 X131.815 Y88.218
G1 F1200
G1 X119.282 Y75.685 E.52959
G1 X119.282 Y75.685 F9000
G1 X118.747 Y75.685
G1 F1200
G1 X131.815 Y88.753 E.5522
G1 X131.815 Y88.753 F9000
G1 X131.815 Y89.288
G1 F1200
G1 X118.212 Y75.685 E.57481
G1 X118.212 Y75.685 F9000
G1 X117.677 Y75.685
G1 F1200
G1 X131.815 Y89.823 E.59741
G1 X131.815 Y89.823 F9000
G1 X131.815 Y90.358
G1 F1200
G1 X117.142 Y75.685 E.62002
G1 X117.142 Y75.685 F9000
G1 X116.607 Y75.685
G1 F1200
G1 X131.815 Y90.893 E.64263
G1 X131.815 Y90.893 F9000
G1 X131.815 Y91.428
G1 F1200
G1 X116.072 Y75.685 E.66523
G1 X116.072 Y75.685 F9000
G1 X115.537 Y75.685
G1 F1200
G1 X131.815 Y91.963 E.68784
G1 X131.815 Y91.963 F9000
G1 X131.815 Y92.498
G1 F1200
G1 X115.002 Y75.685 E.71045
G1 X115.002 Y75.685 F9000
G1 X114.467 Y75.685
G1 F1200
G1 X131.815 Y93.033 E.73306
G1 X131.815 Y93.033 F9000
G1 X131.815 Y93.567
G1 F1200
G1 X113.933 Y75.685 E.75562
G1 X113.933 Y75.685 F9000
G1 X113.398 Y75.685
G1 F1200
G1 X131.815 Y94.102 E.77823
G1 X131.815 Y94.102 F9000
G1 X131.815 Y94.637
G1 F1200
G1 X112.863 Y75.685 E.80083
G1 X112.863 Y75.685 F9000
G1 X112.328 Y75.685
G1 F1200
G1 X131.815 Y95.172 E.82344
G1 X131.815 Y95.172 F9000
G1 X131.815 Y95.707
G1 F1200
G1 X111.793 Y75.685 E.84605
G1 X111.793 Y75.685 F9000
G1 X111.258 Y75.685
G1 F1200
G1 X131.815 Y96.242 E.86865
G1 X131.815 Y96.242 F9000
G1 X131.815 Y96.777
G1 F1200
G1 X110.723 Y75.685 E.89126
G1 X110.723 Y75.685 F9000
G1 X110.188 Y75.685
G1 F1200
G1 X131.815 Y97.312 E.91387
G1 X131.815 Y97.312 F9000
G1 X131.815 Y97.847
G1 F1200
G1 X109.653 Y75.685 E.93648
G1 X109.653 Y75.685 F9000
G1 X109.118 Y75.685
G1 F1200
G1 X131.815 Y98.382 E.95908
G1 X131.815 Y98.382 F9000
G1 X131.815 Y98.917
G1 F1200
G1 X108.583 Y75.685 E.98169
G1 X108.583 Y75.685 F9000
G1 X108.048 Y75.685
G1 F1200
G1 X131.815 Y99.452 E1.0043
G1 X131.815 Y99.452 F9000
G1 X131.815 Y99.987
G1 F1200
G1 X107.513 Y75.685 E1.0269
G1 X107.513 Y75.685 F9000
G1 X106.978 Y75.685
G1 F1200
G1 X131.815 Y100.522 E1.04951
G1 X131.815 Y100.522 F9000
G1 X131.815 Y101.057
G1 F1200
G1 X106.443 Y75.685 E1.07212
G1 X106.443 Y75.685 F9000
G1 X105.909 Y75.685
G1 F1200
G1 X131.815 Y101.591 E1.09468
G1 X131.815 Y101.591 F9000
G1 X131.815 Y102.126
G1 F1200
G1 X105.374 Y75.685 E1.11729
G1 X105.374 Y75.685 F9000
G1 X104.839 Y75.685
G1 F1200
G1 X131.815 Y102.661 E1.1399
G1 X131.815 Y102.661 F9000
G1 X131.815 Y103.196
G1 F1200
G1 X104.304 Y75.685 E1.1625
G1 X104.304 Y75.685 F9000
G1 X103.769 Y75.685
G1 F1200
G1 X131.815 Y103.731 E1.18511
G1 X131.815 Y103.731 F9000
G1 X131.815 Y104.266
G1 F1200
G1 X103.234 Y75.685 E1.20772
G1 X103.234 Y75.685 F9000
G1 X102.699 Y75.685
G1 F1200
G1 X131.815 Y104.801 E1.23032
G1 X131.815 Y104.801 F9000
G1 X131.815 Y105.336
G1 F1200
G1 X102.164 Y75.685 E1.25293
G1 X102.164 Y75.685 F9000
G1 X101.629 Y75.685
G1 F1200
G1 X131.815 Y105.871 E1.27554
G1 X131.815 Y105.871 F9000
G1 X131.815 Y106.406
G1 F1200
G1 X101.094 Y75.685 E1.29814
G1 X101.094 Y75.685 F9000
G1 X100.559 Y75.685
G1 F1200
G1 X131.815 Y106.941 E1.32075
G1 X131.815 Y106.941 F9000
G1 X131.815 Y107.476
G1 F1200
G1 X100.024 Y75.685 E1.34336
G1 X100.024 Y75.685 F9000
G1 X99.489 Y75.685
G1 F1200
G1 X131.815 Y108.011 E1.36596
G1 X131.815 Y108.011 F9000
G1 X131.585 Y108.315
G1 F1200
G1 X98.954 Y75.685 E1.37883
G1 X98.954 Y75.685 F9000
G1 X98.419 Y75.685
G1 F1200
G1 X131.05 Y108.315 E1.37883
G1 X131.05 Y108.315 F9000
G1 X130.515 Y108.315
G1 F1200
G1 X97.885 Y75.685 E1.37881
G1 X97.885 Y75.685 F9000
G1 X97.35 Y75.685
G1 F1200
G1 X129.98 Y108.315 E1.37881
G1 X129.98 Y108.315 F9000
G1 X129.445 Y108.315
G1 F1200
G1 X96.815 Y75.685 E1.37881
G1 X96.815 Y75.685 F9000
G1 X96.28 Y75.685
G1 F1200
G1 X128.91 Y108.315 E1.37881
G1 X128.91 Y108.315 F9000
G1 X128.375 Y108.315
G1 F1200
G1 X95.745 Y75.685 E1.37881
G1 X95.745 Y75.685 F9000
G1 X95.21 Y75.685
G1 F1200
G1 X127.84 Y108.315 E1.37881
G1 X127.84 Y108.315 F9000
G1 X127.305 Y108.315
G1 F1200
G1 X94.675 Y75.685 E1.37881
G1 X94.675 Y75.685 F9000
G1 X94.14 Y75.685
G1 F1200
G1 X126.77 Y108.315 E1.37881
G1 X126.77 Y108.315 F9000
G1 X126.235 Y108.315
G1 F1200
G1 X93.605 Y75.685 E1.37881
G1 X93.605 Y75.685 F9000
G1 X93.07 Y75.685
G1 F1200
G1 X125.701 Y108.315 E1.37883
G1 X125.701 Y108.315 F9000
G1 X125.166 Y108.315
G1 F1200
G1 X92.535 Y75.685 E1.37883
G1 X92.535 Y75.685 F9000
G1 X92 Y75.685
G1 F1200
G1 X124.631 Y108.315 E1.37883
G1 X124.631 Y108.315 F9000
G1 X124.096 Y108.315
G1 F1200
G1 X91.465 Y75.685 E1.37883
G1 X91.465 Y75.685 F9000
G1 X90.93 Y75.685
G1 F1200
G1 X123.561 Y108.315 E1.37883
G1 X123.561 Y108.315 F9000
G1 X123.026 Y108.315
G1 F1200
G1 X90.395 Y75.685 E1.37883
G1 X90.395 Y75.685 F9000
G1 X89.861 Y75.685
G1 F1200
G1 X122.491 Y108.315 E1.37881
G1 X122.491 Y108.315 F9000
G1 X121.956 Y108.315
G1 F1200
G1 X89.326 Y75.685 E1.37881
G1 X89.326 Y75.685 F9000
G1 X88.791 Y75.685
G1 F1200
G1 X121.421 Y108.315 E1.37881
G1 X121.421 Y108.315 F9000
G1 X120.886 Y108.315
G1 F1200
G1 X88.256 Y75.685 E1.37881
G1 X88.256 Y75.685 F9000
G1 X87.721 Y75.685
G1 F1200
G1 X120.351 Y108.315 E1.37881
G1 X120.351 Y108.315 F9000
G1 X119.816 Y108.315
G1 F1200
G1 X87.186 Y75.685 E1.37881
G1 X87.186 Y75.685 F9000
G1 X86.651 Y75.685
G1 F1200
G1 X119.281 Y108.315 E1.37881
G1 X119.281 Y108.315 F9000
G1 X118.746 Y108.315
G1 F1200
G1 X86.116 Y75.685 E1.37881
G1 X86.116 Y75.685 F9000
G1 X85.581 Y75.685
G1 F1200
G1 X118.211 Y108.315 E1.37881
G1 X118.211 Y108.315 F9000
G1 X117.677 Y108.315
G1 F1200
G1 X85.046 Y75.685 E1.37883
G1 X85.046 Y75.685 F9000
G1 X84.511 Y75.685
G1 F1200
G1 X117.142 Y108.315 E1.37883
G1 X117.142 Y108.315 F9000
G1 X116.607 Y108.315
G1 F1200
G1 X83.976 Y75.685 E1.37883
G1 X83.976 Y75.685 F9000
G1 X83.441 Y75.685
G1 F1200
G1 X116.072 Y108.315 E1.37883
G1 X116.072 Y108.315 F9000
G1 X115.537 Y108.315
G1 F1200
G1 X82.906 Y75.685 E1.37883
G1 X82.906 Y75.685 F9000
G1 X82.371 Y75.685
G1 F1200
G1 X115.002 Y108.315 E1.37883
G1 X115.002 Y108.315 F9000
G1 X114.467 Y108.315
G1 F1200
G1 X81.837 Y75.685 E1.37881
G1 X81.837 Y75.685 F9000
G1 X81.302 Y75.685
G1 F1200
G1 X113.932 Y108.315 E1.37881
G1 X113.932 Y108.315 F9000
G1 X113.397 Y108.315
G1 F1200
G1 X80.767 Y75.685 E1.37881
G1 X80.767 Y75.685 F9000
G1 X80.232 Y75.685
G1 F1200
G1 X112.862 Y108.315 E1.37881
G1 X112.862 Y108.315 F9000
G1 X112.327 Y108.315
G1 F1200
G1 X79.697 Y75.685 E1.37881
G1 X79.697 Y75.685 F9000
G1 X79.162 Y75.685
G1 F1200
G1 X111.792 Y108.315 E1.37881
G1 X111.792 Y108.315 F9000
G1 X111.257 Y108.315
G1 F1200
G1 X78.627 Y75.685 E1.37881
G1 X78.627 Y75.685 F9000
G1 X78.092 Y75.685
G1 F1200
G1 X110.722 Y108.315 E1.37881
G1 X110.722 Y108.315 F9000
G1 X110.187 Y108.315
G1 F1200
G1 X77.557 Y75.685 E1.37881
G1 X77.557 Y75.685 F9000
G1 X77.022 Y75.685
G1 F1200
G1 X109.653 Y108.315 E1.37883
G1 X109.653 Y108.315 F9000
G1 X109.118 Y108.315
G1 F1200
G1 X76.487 Y75.685 E1.37883
G1 X76.487 Y75.685 F9000
G1 X75.952 Y75.685
G1 F1200
G1 X108.583 Y108.315 E1.37883
G1 X108.583 Y108.315 F9000
G1 X108.048 Y108.315
G1 F1200
G1 X75.417 Y75.685 E1.37883
G1 X75.417 Y75.685 F9000
G1 X74.882 Y75.685
G1 F1200
G1 X107.513 Y108.315 E1.37883
G1 X107.513 Y108.315 F9000
G1 X106.978 Y108.315
G1 F1200
G1 X74.347 Y75.685 E1.37883
G1 X74.347 Y75.685 F9000
G1 X73.813 Y75.685
G1 F1200
G1 X106.443 Y108.315 E1.37881
G1 X106.443 Y108.315 F9000
G1 X105.908 Y108.315
G1 F1200
G1 X73.278 Y75.685 E1.37881
G1 X73.278 Y75.685 F9000
G1 X72.743 Y75.685
G1 F1200
G1 X105.373 Y108.315 E1.37881
G1 X105.373 Y108.315 F9000
G1 X104.838 Y108.315
G1 F1200
G1 X72.208 Y75.685 E1.37881
G1 X72.208 Y75.685 F9000
G1 X71.673 Y75.685
G1 F1200
G1 X104.303 Y108.315 E1.37881
G1 X104.303 Y108.315 F9000
G1 X103.768 Y108.315
G1 F1200
G1 X71.138 Y75.685 E1.37881
G1 X71.138 Y75.685 F9000
G1 X70.603 Y75.685
G1 F1200
G1 X103.233 Y108.315 E1.37881
G1 X103.233 Y108.315 F9000
G1 X102.698 Y108.315
G1 F1200
G1 X70.068 Y75.685 E1.37881
G1 X70.068 Y75.685 F9000
G1 X69.533 Y75.685
G1 F1200
G1 X102.163 Y108.315 E1.37881
G1 X102.163 Y108.315 F9000
G1 X101.629 Y108.315
G1 F1200
G1 X68.998 Y75.685 E1.37883
G1 X68.998 Y75.685 F9000
G1 X68.463 Y75.685
G1 F1200
G1 X101.094 Y108.315 E1.37883
G1 X101.094 Y108.315 F9000
G1 X100.559 Y108.315
G1 F1200
G1 X67.928 Y75.685 E1.37883
G1 X67.928 Y75.685 F9000
G1 X67.393 Y75.685
G1 F1200
G1 X100.024 Y108.315 E1.37883
G1 X100.024 Y108.315 F9000
G1 X99.489 Y108.315
G1 F1200
G1 X66.858 Y75.685 E1.37883
G1 X66.858 Y75.685 F9000
G1 X66.323 Y75.685
G1 F1200
G1 X98.954 Y108.315 E1.37883
G1 X98.954 Y108.315 F9000
G1 X98.419 Y108.315
G1 F1200
G1 X65.789 Y75.685 E1.37881
G1 X65.789 Y75.685 F9000
G1 X65.254 Y75.685
G1 F1200
G1 X97.884 Y108.315 E1.37881
G1 X97.884 Y108.315 F9000
G1 X97.349 Y108.315
G1 F1200
G1 X64.719 Y75.685 E1.37881
G1 X64.719 Y75.685 F9000
G1 X64.184 Y75.685
G1 F1200
G1 X96.814 Y108.315 E1.37881
G1 X96.814 Y108.315 F9000
G1 X96.279 Y108.315
G1 F1200
G1 X63.649 Y75.685 E1.37881
G1 X63.649 Y75.685 F9000
G1 X63.114 Y75.685
G1 F1200
G1 X95.744 Y108.315 E1.37881
G1 X95.744 Y108.315 F9000
G1 X95.209 Y108.315
G1 F1200
G1 X62.579 Y75.685 E1.37881
G1 X62.579 Y75.685 F9000
G1 X62.044 Y75.685
G1 F1200
G1 X94.674 Y108.315 E1.37881
G1 X94.674 Y108.315 F9000
G1 X94.139 Y108.315
G1 F1200
G1 X61.509 Y75.685 E1.37881
G1 X61.509 Y75.685 F9000
G1 X60.974 Y75.685
G1 F1200
G1 X93.605 Y108.315 E1.37883
G1 X93.605 Y108.315 F9000
G1 X93.07 Y108.315
G1 F1200
G1 X60.439 Y75.685 E1.37883
G1 X60.439 Y75.685 F9000
G1 X59.904 Y75.685
G1 F1200
G1 X92.535 Y108.315 E1.37883
G1 X92.535 Y108.315 F9000
G1 X92 Y108.315
G1 F1200
G1 X59.369 Y75.685 E1.37883
G1 X59.369 Y75.685 F9000
G1 X58.834 Y75.685
G1 F1200
G1 X91.465 Y108.315 E1.37883
G1 X91.465 Y108.315 F9000
G1 X90.93 Y108.315
G1 F1200
G1 X58.299 Y75.685 E1.37883
G1 X58.299 Y75.685 F9000
G1 X57.765 Y75.685
G1 F1200
G1 X90.395 Y108.315 E1.37881
G1 X90.395 Y108.315 F9000
G1 X89.86 Y108.315
G1 F1200
G1 X57.23 Y75.685 E1.37881
G1 X57.23 Y75.685 F9000
G1 X56.695 Y75.685
G1 F1200
G1 X89.325 Y108.315 E1.37881
G1 X89.325 Y108.315 F9000
G1 X88.79 Y108.315
G1 F1200
G1 X56.16 Y75.685 E1.37881
G1 X56.16 Y75.685 F9000
G1 X55.625 Y75.685
G1 F1200
G1 X88.255 Y108.315 E1.37881
G1 X88.255 Y108.315 F9000
G1 X87.72 Y108.315
G1 F1200
G1 X55.09 Y75.685 E1.37881
G1 X55.09 Y75.685 F9000
G1 X54.555 Y75.685
G1 F1200
G1 X87.185 Y108.315 E1.37881
G1 X87.185 Y108.315 F9000
G1 X86.65 Y108.315
G1 F1200
G1 X54.02 Y75.685 E1.37881
G1 X54.02 Y75.685 F9000
G1 X53.485 Y75.685
G1 F1200
G1 X86.115 Y108.315 E1.37881
G1 X86.115 Y108.315 F9000
G1 X85.581 Y108.315
G1 F1200
G1 X52.95 Y75.685 E1.37883
G1 X52.95 Y75.685 F9000
G1 X52.415 Y75.685
G1 F1200
G1 X85.046 Y108.315 E1.37883
G1 X85.046 Y108.315 F9000
G1 X84.511 Y108.315
G1 F1200
G1 X52.185 Y75.989 E1.36596
G1 X52.185 Y75.989 F9000
G1 X52.185 Y76.524
G1 F1200
G1 X83.976 Y108.315 E1.34336
G1 X83.976 Y108.315 F9000
G1 X83.441 Y108.315
G1 F1200
G1 X52.185 Y77.059 E1.32075
G1 X52.185 Y77.059 F9000
G1 X52.185 Y77.594
G1 F1200
G1 X82.906 Y108.315 E1.29814
G1 X82.906 Y108.315 F9000
G1 X82.371 Y108.315
G1 F1200
G1 X52.185 Y78.129 E1.27554
G1 X52.185 Y78.129 F9000
G1 X52.185 Y78.664
G1 F1200
G1 X81.836 Y108.315 E1.25293
G1 X81.836 Y108.315 F9000
G1 X81.301 Y108.315
G1 F1200
G1 X52.185 Y79.199 E1.23032
G1 X52.185 Y79.199 F9000
G1 X52.185 Y79.734
G1 F1200
G1 X80.766 Y108.315 E1.20772
G1 X80.766 Y108.315 F9000
G1 X80.231 Y108.315
G1 F1200
G1 X52.185 Y80.269 E1.18511
G1 X52.185 Y80.269 F9000
G1 X52.185 Y80.804
G1 F1200
G1 X79.696 Y108.315 E1.1625
G1 X79.696 Y108.315 F9000
G1 X79.161 Y108.315
G1 F1200
G1 X52.185 Y81.339 E1.1399
G1 X52.185 Y81.339 F9000
G1 X52.185 Y81.874
G1 F1200
