; generated by PrusaSlicer 2.7.4+win64 on 2024-08-08 at 11:20:42 UTC

; 

; external perimeters extrusion width = 0.42mm
; perimeters extrusion width = 0.44mm
; infill extrusion width = 0.44mm
; solid infill extrusion width = 0.44mm
; top infill extrusion width = 0.40mm
; support material extrusion width = 0.36mm
; first layer extrusion width = 0.42mm

; external perimeters extrusion width = 0.42mm
; perimeters extrusion width = 0.44mm
; infill extrusion width = 0.44mm
; solid infill extrusion width = 0.44mm
; top infill extrusion width = 0.40mm
; support material extrusion width = 0.36mm
; first layer extrusion width = 0.42mm


; printing object Main_button_case id:0 copy 0
; stop printing object Main_button_case id:0 copy 0
; printing object Main_button_case id:1 copy 0
; stop printing object Main_button_case id:1 copy 0

;TYPE:Custom
G90 ; use absolute coordinates
M83 ; extruder relative mode
M140 S60 ; set final bed temp
M104 S150 ; set temporary nozzle temp to prevent oozing during homing
G4 S30 ; allow partial nozzle warmup
G28 ; home all axis
G1 Z50 F240
G1 X7 Y10 F3000
M300 P300 S200 ; sound buzzer to say bed levelling is done
M300 P300 S0 ; pause sound so two beeps can play
M300 P300 S200 ; sound buzzer to say bed levelling is done
M104 S200 ; set final nozzle temp
M190 S60 ; wait for bed temp to stabilize
M109 S200 ; wait for nozzle temp to stabilize
G1 Z0.28 F240
G92 E0
G1 Y140 E10 F1500 ; prime the nozzle
G1 X6 F5000
G92 E0
G1 Y10 E10 F1200 ; prime the nozzle
G92 E0
G21 ; set units to millimeters
G90 ; use absolute coordinates
M83 ; use relative distances for extrusion
; Filament gcode
M107
;LAYER_CHANGE
;Z:0.2
;HEIGHT:0.2
G1 E-5 F3600
G1 Z.2 F9000
G1 X70.344 Y74.893
G1 Z.2
G1 E5 F2400
M204 P500
;TYPE:Skirt/Brim
;WIDTH:0.42
G1 F1200
G1 X72.603 Y74.138 E.07095
G1 X100.545 Y74.138 E.8323
G1 X102.221 Y74.532 E.05128
G1 X103.544 Y75.633 E.05127
G1 X104.299 Y77.892 E.07095
G1 X104.299 Y88.428 E.31383
G1 X103.905 Y90.104 E.05128
G1 X102.804 Y91.427 E.05127
G1 X100.545 Y92.182 E.07095
G1 X72.603 Y92.182 E.8323
G1 X70.927 Y91.788 E.05128
G1 X69.604 Y90.687 E.05127
G1 X68.849 Y88.428 E.07095
G1 X68.849 Y77.892 E.31383
G1 X69.243 Y76.216 E.05128
G1 X70.306 Y74.939 E.04949
G1 X70.306 Y74.939 F9000
G1 X70.607 Y75.209
G1 F1200
G1 X70.71 Y75.095 E.00458
G1 X72.603 Y74.515 E.05897
G1 X100.545 Y74.515 E.8323
G1 X102.128 Y74.909 E.04859
G1 X103.342 Y75.999 E.0486
G1 X103.922 Y77.892 E.05897
G1 X103.922 Y88.428 E.31383
G1 X103.528 Y90.011 E.04859
G1 X102.438 Y91.225 E.0486
G1 X100.545 Y91.805 E.05897
G1 X72.603 Y91.805 E.8323
G1 X71.02 Y91.411 E.04859
G1 X69.806 Y90.321 E.0486
G1 X69.226 Y88.428 E.05897
G1 X69.226 Y77.892 E.31383
G1 X69.62 Y76.309 E.04859
G1 X70.567 Y75.254 E.04223
G1 E-3.5 F3600
;WIPE_START
G1 F7200
G1 X70.607 Y75.209 E-.0286
G1 X70.71 Y75.095 E-.07298
G1 X72.603 Y74.515 E-.94043
G1 X73.567 Y74.515 E-.45799
;WIPE_END
; printing object Main_button_case id:1 copy 0
G1 X98.49 Y86.469 F9000
G1 E5 F2400
;TYPE:Support material interface
;WIDTH:0.36
G1 F1200
G1 X98.096 Y86.469 E.00987
G1 X98.096 Y88.428 E.04907
G1 X97.579 Y88.428 E.01295
G1 X97.579 Y86.469 E.04907
G1 X97.062 Y86.469 E.01295
G1 X97.062 Y88.428 E.04907
G1 X96.545 Y88.428 E.01295
G1 X96.545 Y86.469 E.04907
G1 X96.028 Y86.469 E.01295
G1 X96.028 Y88.428 E.04907
G1 X95.511 Y88.428 E.01295
G1 X95.511 Y86.469 E.04907
G1 X94.994 Y86.469 E.01295
G1 X94.994 Y88.428 E.04907
G1 X94.477 Y88.428 E.01295
G1 X94.477 Y86.469 E.04907
G1 X93.96 Y86.469 E.01295
G1 X93.96 Y88.428 E.04907
G1 X93.443 Y88.428 E.01295
G1 X93.443 Y86.469 E.04907
G1 X92.926 Y86.469 E.01295
G1 X92.926 Y88.428 E.04907
G1 X92.409 Y88.428 E.01295
G1 X92.409 Y86.469 E.04907
G1 X91.892 Y86.469 E.01295
G1 X91.892 Y88.428 E.04907
G1 X91.374 Y88.428 E.01297
G1 X91.374 Y86.469 E.04907
G1 X90.857 Y86.469 E.01295
G1 X90.857 Y88.428 E.04907
G1 X90.34 Y88.428 E.01295
G1 X90.34 Y86.469 E.04907
G1 X89.823 Y86.469 E.01295
G1 X89.823 Y88.428 E.04907
G1 X89.306 Y88.428 E.01295
G1 X89.306 Y86.384 E.0512
G1 X89.151 Y86.229 E.00549
G1 X89.151 Y80.091 E.15374
G1 X89.306 Y79.936 E.00549
G1 X89.306 Y77.892 E.0512
G1 X88.789 Y77.892 E.01295
G1 X88.789 Y88.428 E.2639
G1 X88.272 Y88.428 E.01295
G1 X88.272 Y77.892 E.2639
G1 X87.755 Y77.892 E.01295
G1 X87.755 Y88.428 E.2639
G1 X87.374 Y88.428 E.00954
G1 X87.374 Y77.892 E.2639
G1 X87.596 Y77.892 E.00556
G1 E-3.5 F3600
;WIPE_START
G1 F7200
G1 X87.374 Y77.892 E-.10545
G1 X87.374 Y80.828 E-1.39455
;WIPE_END
G1 X89.429 Y79.851 F9000
G1 E5 F2400
G1 F1200
G1 X89.823 Y79.851 E.00987
G1 X89.823 Y77.892 E.04907
G1 X90.34 Y77.892 E.01295
G1 X90.34 Y79.851 E.04907
G1 X90.857 Y79.851 E.01295
G1 X90.857 Y77.892 E.04907
G1 X91.374 Y77.892 E.01295
G1 X91.374 Y79.851 E.04907
G1 X91.892 Y79.851 E.01297
G1 X91.892 Y77.892 E.04907
G1 X92.409 Y77.892 E.01295
G1 X92.409 Y79.851 E.04907
G1 X92.926 Y79.851 E.01295
G1 X92.926 Y77.892 E.04907
G1 X93.443 Y77.892 E.01295
G1 X93.443 Y79.851 E.04907
G1 X93.96 Y79.851 E.01295
G1 X93.96 Y77.892 E.04907
G1 X94.477 Y77.892 E.01295
G1 X94.477 Y79.851 E.04907
G1 X94.994 Y79.851 E.01295
G1 X94.994 Y77.892 E.04907
G1 X95.511 Y77.892 E.01295
G1 X95.511 Y79.851 E.04907
G1 X96.028 Y79.851 E.01295
G1 X96.028 Y77.892 E.04907
G1 X96.545 Y77.892 E.01295
G1 X96.545 Y79.851 E.04907
G1 X97.062 Y79.851 E.01295
G1 X97.062 Y77.892 E.04907
G1 X97.579 Y77.892 E.01295
G1 X97.579 Y79.851 E.04907
G1 X98.096 Y79.851 E.01295
G1 X98.096 Y77.892 E.04907
G1 X98.614 Y77.892 E.01297
G1 X98.614 Y79.936 E.0512
G1 X98.769 Y80.091 E.00549
G1 X98.769 Y86.229 E.15374
G1 X98.614 Y86.384 E.00549
G1 X98.614 Y88.428 E.0512
G1 X99.131 Y88.428 E.01295
G1 X99.131 Y77.892 E.2639
G1 X99.648 Y77.892 E.01295
G1 X99.648 Y88.428 E.2639
G1 X100.165 Y88.428 E.01295
G1 X100.165 Y77.892 E.2639
G1 X100.545 Y77.892 E.00952
G1 X100.545 Y88.428 E.2639
G1 X100.323 Y88.428 E.00556
G1 E-3.5 F3600
;WIPE_START
G1 F7200
G1 X100.545 Y88.428 E-.10545
G1 X100.545 Y85.492 E-1.39455
;WIPE_END
G1 X95.365 Y83.368 F9000
G1 E5 F2400
;TYPE:Perimeter
;WIDTH:0.419999
G1 F1200
G1 X95.319 Y83.614 E.00745
G1 X95.105 Y84.02 E.01367
G1 X94.774 Y84.339 E.01369
G1 X94.358 Y84.536 E.01371
G1 X93.902 Y84.591 E.01368
G1 X93.452 Y84.499 E.01368
G1 X93.054 Y84.27 E.01368
G1 X92.749 Y83.926 E.01369
G1 X92.569 Y83.503 E.01369
G1 X92.532 Y83.045 E.01369
G1 X92.642 Y82.599 E.01368
G1 X92.888 Y82.21 E.01371
G1 X93.244 Y81.92 E.01368
G1 X93.636 Y81.767 E.01253
G1 X94.17 Y81.746 E.01592
G1 X94.574 Y81.866 E.01255
G1 X94.952 Y82.127 E.01368
G1 X95.228 Y82.494 E.01368
G1 X95.374 Y82.93 E.0137
G1 X95.383 Y83.273 E.01022
G1 X95.376 Y83.309 E.00109
G1 X95.376 Y83.309 F9000
G1 X95.733 Y83.438
G1 F1200
G1 X95.677 Y83.733 E.00894
G1 X95.407 Y84.248 E.01732
G1 X94.988 Y84.65 E.0173
G1 X94.464 Y84.899 E.01728
G1 X93.887 Y84.969 E.01731
G1 X93.318 Y84.853 E.0173
G1 X92.815 Y84.563 E.01729
G1 X92.429 Y84.128 E.01732
G1 X92.202 Y83.593 E.01731
G1 X92.155 Y83.014 E.0173
G1 X92.294 Y82.45 E.0173
G1 X92.605 Y81.959 E.01731
G1 X93.054 Y81.592 E.01727
G1 X93.575 Y81.392 E.01662
G1 X94.201 Y81.367 E.01866
G1 X94.736 Y81.524 E.01661
G1 X95.214 Y81.854 E.0173
G1 X95.563 Y82.319 E.01732
G1 X95.747 Y82.87 E.0173
G1 X95.759 Y83.303 E.0129
G1 X95.745 Y83.379 E.0023
G1 X95.745 Y83.379 F9000
G1 X96.12 Y83.511
;TYPE:External perimeter
G1 F1200
G1 X95.967 Y84.016 E.01572
G1 X95.71 Y84.475 E.01567
G1 X95.339 Y84.851 E.01573
G1 X94.898 Y85.138 E.01567
G1 X94.395 Y85.298 E.01572
G1 X93.872 Y85.347 E.01565
G1 X93.352 Y85.255 E.01573
G1 X92.865 Y85.056 E.01567
G1 X92.448 Y84.733 E.01571
G1 X92.11 Y84.33 E.01567
G1 X91.89 Y83.849 E.01575
G1 X91.778 Y83.336 E.01564
G1 X91.807 Y82.807 E.01578
G1 X91.946 Y82.302 E.0156
G1 X92.219 Y81.844 E.01588
G1 X92.575 Y81.464 E.01551
G1 X93.009 Y81.196 E.01519
G1 X93.514 Y81.017 E.01596
G1 X94.024 Y80.997 E.0152
G1 X94.434 Y81.03 E.01225
G1 X94.898 Y81.182 E.01454
G1 X95.345 Y81.474 E.0159
G1 X95.71 Y81.845 E.0155
G1 X95.968 Y82.307 E.01576
G1 X96.12 Y82.809 E.01562
G1 X96.135 Y83.334 E.01564
G1 X96.125 Y83.451 E.0035
G1 X96.125 Y83.451 F9000
G1 X95.219 Y82.807
;TYPE:Solid infill
;WIDTH:0.422649
G1 F1200
G1 X94.319 Y81.907 E.03818
G1 X94.319 Y81.907 F9000
G1 X93.758 Y81.883
G1 F1200
G1 X95.252 Y83.377 E.06338
G1 X95.252 Y83.377 F9000
G1 X95.116 Y83.778
G1 F1200
G1 X93.344 Y82.006 E.07517
G1 X93.344 Y82.006 F9000
G1 X93.036 Y82.235
G1 F1200
G1 X94.886 Y84.085 E.07848
G1 X94.886 Y84.085 F9000
G1 X94.577 Y84.313
G1 F1200
G1 X92.807 Y82.543 E.07508
G1 X92.807 Y82.543 F9000
G1 X92.671 Y82.944
G1 F1200
G1 X94.177 Y84.45 E.06389
G1 X94.177 Y84.45 F9000
G1 X93.609 Y84.419
G1 F1200
G1 X92.698 Y83.508 E.03865
G1 E-3.5 F3600
;WIPE_START
G1 F7200
G1 X93.609 Y84.419 E-.61197
;WIPE_END
G1 E-.88803 F3600
; stop printing object Main_button_case id:1 copy 0
; printing object Main_button_case id:0 copy 0
G1 X83.719 Y86.469 F9000
G1 E5 F2400
;TYPE:Support material interface
;WIDTH:0.36
G1 F1200
G1 X83.325 Y86.469 E.00987
G1 X83.325 Y88.428 E.04907
G1 X82.808 Y88.428 E.01295
G1 X82.808 Y86.469 E.04907
G1 X82.291 Y86.469 E.01295
G1 X82.291 Y88.428 E.04907
G1 X81.774 Y88.428 E.01295
G1 X81.774 Y86.469 E.04907
G1 X81.257 Y86.469 E.01295
G1 X81.257 Y88.428 E.04907
G1 X80.74 Y88.428 E.01295
G1 X80.74 Y86.469 E.04907
G1 X80.222 Y86.469 E.01297
G1 X80.222 Y88.428 E.04907
G1 X79.705 Y88.428 E.01295
G1 X79.705 Y86.469 E.04907
G1 X79.188 Y86.469 E.01295
G1 X79.188 Y88.428 E.04907
G1 X78.671 Y88.428 E.01295
G1 X78.671 Y86.469 E.04907
G1 X78.154 Y86.469 E.01295
G1 X78.154 Y88.428 E.04907
G1 X77.637 Y88.428 E.01295
G1 X77.637 Y86.469 E.04907
G1 X77.12 Y86.469 E.01295
G1 X77.12 Y88.428 E.04907
G1 X76.603 Y88.428 E.01295
G1 X76.603 Y86.469 E.04907
G1 X76.086 Y86.469 E.01295
G1 X76.086 Y88.428 E.04907
G1 X75.569 Y88.428 E.01295
G1 X75.569 Y86.469 E.04907
G1 X75.052 Y86.469 E.01295
G1 X75.052 Y88.428 E.04907
G1 X74.535 Y88.428 E.01295
G1 X74.535 Y86.384 E.0512
G1 X74.379 Y86.229 E.00551
G1 X74.379 Y80.091 E.15374
G1 X74.535 Y79.936 E.00551
G1 X74.535 Y77.892 E.0512
G1 X74.018 Y77.892 E.01295
G1 X74.018 Y88.428 E.2639
G1 X73.5 Y88.428 E.01297
G1 X73.5 Y77.892 E.2639
G1 X72.983 Y77.892 E.01295
G1 X72.983 Y88.428 E.2639
G1 X72.603 Y88.428 E.00952
G1 X72.603 Y77.892 E.2639
G1 X72.825 Y77.892 E.00556
G1 E-3.5 F3600
;WIPE_START
G1 F7200
G1 X72.603 Y77.892 E-.10545
G1 X72.603 Y80.828 E-1.39455
;WIPE_END
G1 X74.658 Y79.851 F9000
G1 E5 F2400
G1 F1200
G1 X75.052 Y79.851 E.00987
G1 X75.052 Y77.892 E.04907
G1 X75.569 Y77.892 E.01295
G1 X75.569 Y79.851 E.04907
G1 X76.086 Y79.851 E.01295
G1 X76.086 Y77.892 E.04907
G1 X76.603 Y77.892 E.01295
G1 X76.603 Y79.851 E.04907
G1 X77.12 Y79.851 E.01295
G1 X77.12 Y77.892 E.04907
G1 X77.637 Y77.892 E.01295
G1 X77.637 Y79.851 E.04907
G1 X78.154 Y79.851 E.01295
G1 X78.154 Y77.892 E.04907
G1 X78.671 Y77.892 E.01295
G1 X78.671 Y79.851 E.04907
G1 X79.188 Y79.851 E.01295
G1 X79.188 Y77.892 E.04907
G1 X79.705 Y77.892 E.01295
G1 X79.705 Y79.851 E.04907
G1 X80.222 Y79.851 E.01295
G1 X80.222 Y77.892 E.04907
G1 X80.74 Y77.892 E.01297
G1 X80.74 Y79.851 E.04907
G1 X81.257 Y79.851 E.01295
G1 X81.257 Y77.892 E.04907
G1 X81.774 Y77.892 E.01295
G1 X81.774 Y79.851 E.04907
G1 X82.291 Y79.851 E.01295
G1 X82.291 Y77.892 E.04907
G1 X82.808 Y77.892 E.01295
G1 X82.808 Y79.851 E.04907
G1 X83.325 Y79.851 E.01295
G1 X83.325 Y77.892 E.04907
G1 X83.842 Y77.892 E.01295
G1 X83.842 Y79.936 E.0512
G1 X83.998 Y80.091 E.00551
G1 X83.998 Y86.229 E.15374
G1 X83.842 Y86.384 E.00551
G1 X83.842 Y88.428 E.0512
G1 X84.359 Y88.428 E.01295
G1 X84.359 Y77.892 E.2639
G1 X84.876 Y77.892 E.01295
G1 X84.876 Y88.428 E.2639
G1 X85.393 Y88.428 E.01295
G1 X85.393 Y77.892 E.2639
G1 X85.774 Y77.892 E.00954
G1 X85.774 Y88.428 E.2639
G1 X85.552 Y88.428 E.00556
G1 E-3.5 F3600
;WIPE_START
G1 F7200
G1 X85.774 Y88.428 E-.10545
G1 X85.774 Y85.492 E-1.39455
;WIPE_END
G1 X80.594 Y83.368 F9000
G1 E5 F2400
;TYPE:Perimeter
;WIDTH:0.419999
G1 F1200
G1 X80.547 Y83.614 E.00746
G1 X80.333 Y84.02 E.01367
G1 X80.002 Y84.339 E.01369
G1 X79.587 Y84.536 E.01368
G1 X79.131 Y84.591 E.01368
G1 X78.68 Y84.499 E.01371
G1 X78.282 Y84.27 E.01368
G1 X77.978 Y83.926 E.01367
G1 X77.798 Y83.503 E.01369
G1 X77.761 Y83.045 E.01369
G1 X77.871 Y82.599 E.01368
G1 X78.116 Y82.21 E.01369
G1 X78.472 Y81.92 E.01368
G1 X78.865 Y81.767 E.01256
G1 X79.399 Y81.746 E.01592
G1 X79.802 Y81.866 E.01252
G1 X80.181 Y82.127 E.01371
G1 X80.457 Y82.494 E.01368
G1 X80.602 Y82.93 E.01369
G1 X80.612 Y83.273 E.01022
G1 X80.605 Y83.309 E.00109
G1 X80.605 Y83.309 F9000
G1 X80.962 Y83.438
G1 F1200
G1 X80.906 Y83.733 E.00894
G1 X80.636 Y84.248 E.01732
G1 X80.217 Y84.65 E.0173
G1 X79.692 Y84.899 E.01731
G1 X79.115 Y84.969 E.01731
G1 X78.546 Y84.853 E.0173
G1 X78.043 Y84.563 E.01729
G1 X77.658 Y84.128 E.0173
G1 X77.43 Y83.593 E.01732
G1 X77.384 Y83.014 E.0173
G1 X77.523 Y82.45 E.0173
G1 X77.833 Y81.959 E.0173
G1 X78.283 Y81.592 E.0173
G1 X78.804 Y81.392 E.01662
G1 X79.429 Y81.367 E.01863
G1 X79.965 Y81.524 E.01664
G1 X80.443 Y81.854 E.0173
G1 X80.792 Y82.319 E.01732
G1 X80.976 Y82.87 E.0173
G1 X80.987 Y83.303 E.0129
G1 X80.973 Y83.379 E.0023
G1 X80.973 Y83.379 F9000
G1 X81.349 Y83.511
;TYPE:External perimeter
G1 F1200
G1 X81.195 Y84.016 E.01573
G1 X80.938 Y84.475 E.01567
G1 X80.567 Y84.851 E.01573
G1 X80.127 Y85.138 E.01565
G1 X79.624 Y85.298 E.01572
G1 X79.1 Y85.347 E.01568
G1 X78.58 Y85.255 E.01573
G1 X78.094 Y85.056 E.01564
G1 X77.676 Y84.733 E.01573
G1 X77.338 Y84.33 E.01567
G1 X77.118 Y83.849 E.01575
G1 X77.006 Y83.336 E.01564
G1 X77.035 Y82.807 E.01578
G1 X77.175 Y82.302 E.01561
G1 X77.448 Y81.844 E.01588
G1 X77.804 Y81.464 E.01551
G1 X78.238 Y81.196 E.01519
G1 X78.743 Y81.017 E.01596
G1 X79.253 Y80.997 E.0152
G1 X79.663 Y81.03 E.01225
G1 X80.127 Y81.182 E.01454
G1 X80.573 Y81.474 E.01588
G1 X80.938 Y81.845 E.0155
G1 X81.197 Y82.307 E.01578
G1 X81.349 Y82.809 E.01562
G1 X81.363 Y83.334 E.01564
G1 X81.354 Y83.451 E.0035
G1 X81.354 Y83.451 F9000
G1 X80.447 Y82.807
;TYPE:Solid infill
;WIDTH:0.422649
G1 F1200
G1 X79.547 Y81.907 E.03818
G1 X79.547 Y81.907 F9000
G1 X78.987 Y81.883
G1 F1200
G1 X80.481 Y83.377 E.06338
G1 X80.481 Y83.377 F9000
G1 X80.344 Y83.778
G1 F1200
G1 X78.572 Y82.006 E.07517
G1 X78.572 Y82.006 F9000
G1 X78.265 Y82.235
G1 F1200
G1 X80.115 Y84.085 E.07848
G1 X80.115 Y84.085 F9000
G1 X79.806 Y84.313
G1 F1200
G1 X78.036 Y82.543 E.07508
G1 X78.036 Y82.543 F9000
G1 X77.899 Y82.944
G1 F1200
G1 X79.405 Y84.45 E.06389
G1 X79.405 Y84.45 F9000
G1 X78.838 Y84.419
G1 F1200
G1 X77.927 Y83.508 E.03865
M106 S255
;LAYER_CHANGE
;Z:0.4
;HEIGHT:0.2
;BEFORE_LAYER_CHANGE
G92 E0
;0.4


G1 E-3.5 F3600
;WIPE_START
G1 F7200
G1 X78.838 Y84.419 E-.61197
;WIPE_END
G1 E-.88803 F3600
G1 Z.4 F9000
;AFTER_LAYER_CHANGE
;0.4
; stop printing object Main_button_case id:0 copy 0
G1 Z.4
G1 X78.838 Y92.182
G1 E5 F2400
;TYPE:Skirt/Brim
;WIDTH:0.42
G1 F1053
G1 X72.603 Y92.182 E.18572
G1 X70.927 Y91.788 E.05128
G1 X69.604 Y90.687 E.05127
G1 X68.849 Y88.428 E.07095
G1 X68.849 Y77.892 E.31383
G1 X69.243 Y76.216 E.05128
G1 X70.344 Y74.893 E.05127
G1 X72.603 Y74.138 E.07095
G1 X100.545 Y74.138 E.8323
G1 X102.221 Y74.532 E.05128
G1 X103.544 Y75.633 E.05127
G1 X104.299 Y77.892 E.07095
G1 X104.299 Y88.428 E.31383
G1 X103.905 Y90.104 E.05128
G1 X102.804 Y91.427 E.05127
G1 X100.545 Y92.182 E.07095
G1 X78.898 Y92.182 E.64479
G1 X78.898 Y92.182 F9000
G1 X78.898 Y91.805
G1 F1053
G1 X72.603 Y91.805 E.18751
G1 X71.02 Y91.411 E.04859
G1 X69.806 Y90.321 E.0486
G1 X69.226 Y88.428 E.05897
G1 X69.226 Y77.892 E.31383
G1 X69.62 Y76.309 E.04859
G1 X70.71 Y75.095 E.0486
G1 X72.603 Y74.515 E.05897
G1 X100.545 Y74.515 E.8323
G1 X102.128 Y74.909 E.04859
G1 X103.342 Y75.999 E.0486
G1 X103.922 Y77.892 E.05897
G1 X103.922 Y88.428 E.31383
G1 X103.528 Y90.011 E.04859
G1 X102.438 Y91.225 E.0486
G1 X100.545 Y91.805 E.05897
G1 X78.958 Y91.805 E.643
G1 E-3.5 F3600
;WIPE_START
G1 F7200
G1 X78.898 Y91.805 E-.0285
G1 X75.8 Y91.805 E-1.4715
;WIPE_END
; printing object Main_button_case id:1 copy 0
G1 X92.706 Y83.953 F9000
G1 E5 F2400
;TYPE:Perimeter
;WIDTH:0.439999
G1 F1053
G1 X92.577 Y83.749 E.00757
G1 X92.462 Y83.281 E.01512
G1 X92.479 Y82.938 E.01077
G1 X92.616 Y82.497 E.01448
G1 X92.835 Y82.164 E.0125
