; generated by PrusaSlicer 2.7.4+win64 on 2024-08-04 at 11:00:37 UTC

; 

; external perimeters extrusion width = 0.42mm
; perimeters extrusion width = 0.44mm
; infill extrusion width = 0.44mm
; solid infill extrusion width = 0.44mm
; top infill extrusion width = 0.40mm
; support material extrusion width = 0.36mm
; first layer extrusion width = 0.42mm


; printing object Power_button_case id:0 copy 0
; stop printing object Power_button_case id:0 copy 0

;TYPE:Custom
G90 ; use absolute coordinates
M83 ; extruder relative mode
M140 S60 ; set final bed temp
M104 S150 ; set temporary nozzle temp to prevent oozing during homing
G4 S30 ; allow partial nozzle warmup
G28 ; home all axis
G1 Z50 F240
G1 X7 Y10 F3000
M300 P300 S200 ; sound buzzer to say bed levelling is done
M300 P300 S0 ; pause sound so two beeps can play
M300 P300 S200 ; sound buzzer to say bed levelling is done
M104 S200 ; set final nozzle temp
M190 S60 ; wait for bed temp to stabilize
M109 S200 ; wait for nozzle temp to stabilize
G1 Z0.28 F240
G92 E0
G1 Y140 E10 F1500 ; prime the nozzle
G1 X6 F5000
G92 E0
G1 Y10 E10 F1200 ; prime the nozzle
G92 E0
G21 ; set units to millimeters
G90 ; use absolute coordinates
M83 ; use relative distances for extrusion
; Filament gcode
M107
;LAYER_CHANGE
;Z:0.2
;HEIGHT:0.2
G1 E-5 F3600
G1 Z.2 F9000
G1 X81.765 Y82.301
G1 Z.2
G1 E5 F2400
M204 P500
;TYPE:Skirt/Brim
;WIDTH:0.42
G1 F1200
G1 X83.378 Y81.485 E.05384
G1 X84.392 Y81.359 E.03044
G1 X95.192 Y81.359 E.3217
G1 X96.955 Y81.754 E.05382
G1 X98.381 Y82.864 E.05383
G1 X99.196 Y84.476 E.0538
G1 X99.323 Y85.49 E.03044
G1 X99.323 Y92.69 E.21446
G1 X99.098 Y94.033 E.04056
G1 X97.964 Y97.333 E.10394
G1 X97.017 Y98.872 E.05383
G1 X95.504 Y99.859 E.05381
G1 X94.057 Y100.121 E.0438
G1 X85.526 Y100.121 E.25411
G1 X83.763 Y99.726 E.05382
G1 X82.337 Y98.616 E.05383
G1 X81.619 Y97.333 E.04379
G1 X80.485 Y94.033 E.10394
G1 X80.26 Y92.69 E.04056
G1 X80.26 Y85.49 E.21446
G1 X80.655 Y83.727 E.05382
G1 X81.728 Y82.348 E.05205
G1 X81.728 Y82.348 F9000
G1 X82.038 Y82.606
G1 F1200
G1 X82.133 Y82.491 E.00444
G1 X84.392 Y81.736 E.07095
G1 X95.192 Y81.736 E.3217
G1 X96.867 Y82.13 E.05125
G1 X98.19 Y83.231 E.05127
G1 X98.946 Y85.49 E.07096
G1 X98.946 Y92.69 E.21446
G1 X98.742 Y93.911 E.03687
G1 X97.607 Y97.21 E.10392
G1 X96.689 Y98.666 E.05127
G1 X95.218 Y99.56 E.05127
G1 X94.057 Y99.744 E.03501
G1 X85.526 Y99.744 E.25411
G1 X83.85 Y99.349 E.05129
G1 X82.527 Y98.248 E.05127
G1 X81.976 Y97.21 E.035
G1 X80.841 Y93.911 E.10392
G1 X80.637 Y92.69 E.03687
G1 X80.637 Y85.49 E.21446
G1 X81.032 Y83.814 E.05129
G1 X81.999 Y82.652 E.04503
G1 X81.999 Y82.652 F9000
G1 X82.296 Y82.918
G1 F1200
G1 X82.499 Y82.693 E.00903
G1 X84.392 Y82.113 E.05897
G1 X95.192 Y82.113 E.3217
G1 X96.775 Y82.507 E.04859
G1 X97.988 Y83.597 E.04858
G1 X98.569 Y85.49 E.05898
G1 X98.569 Y92.69 E.21446
G1 X98.385 Y93.788 E.03316
G1 X97.251 Y97.088 E.10394
G1 X96.363 Y98.457 E.04861
G1 X94.938 Y99.25 E.04858
G1 X94.057 Y99.367 E.02647
G1 X85.526 Y99.367 E.25411
G1 X83.943 Y98.973 E.04859
G1 X82.729 Y97.882 E.04862
G1 X82.332 Y97.088 E.02644
G1 X81.198 Y93.788 E.10394
G1 X81.014 Y92.69 E.03316
G1 X81.014 Y85.49 E.21446
G1 X81.409 Y83.907 E.0486
G1 X82.256 Y82.963 E.03778
G1 E-3.5 F3600
;WIPE_START
G1 F7200
G1 X82.296 Y82.918 E-.0286
G1 X82.499 Y82.693 E-.14394
G1 X84.392 Y82.113 E-.94043
G1 X85.207 Y82.113 E-.38703
;WIPE_END
; printing object Power_button_case id:0 copy 0
G1 X94.057 Y95.99 F9000
G1 E5 F2400
;TYPE:Support material
G1 F1200
G1 X85.526 Y95.99 E.25411
G1 X85.526 Y93.152 E.08453
G1 X94.057 Y93.152 E.25411
G1 X94.057 Y95.933 E.08284
G1 X93.562 Y95.82 F9000
G1 F1200
G1 X93.562 Y93.491 E.06937
G1 X93.143 Y93.491 E.01248
G1 X93.143 Y95.65 E.06431
G1 X92.724 Y95.65 E.01248
G1 X92.724 Y93.491 E.06431
G1 X92.305 Y93.491 E.01248
G1 X92.305 Y95.65 E.06431
G1 X91.886 Y95.65 E.01248
G1 X91.886 Y93.491 E.06431
G1 X91.467 Y93.491 E.01248
G1 X91.467 Y95.65 E.06431
G1 X91.048 Y95.65 E.01248
G1 X91.048 Y93.491 E.06431
G1 X90.629 Y93.491 E.01248
G1 X90.629 Y95.65 E.06431
G1 X90.21 Y95.65 E.01248
G1 X90.21 Y93.491 E.06431
G1 X89.792 Y93.491 E.01245
G1 X89.792 Y95.65 E.06431
G1 X89.373 Y95.65 E.01248
G1 X89.373 Y93.491 E.06431
G1 X88.954 Y93.491 E.01248
G1 X88.954 Y95.65 E.06431
G1 X88.535 Y95.65 E.01248
G1 X88.535 Y93.491 E.06431
G1 X88.116 Y93.491 E.01248
G1 X88.116 Y95.65 E.06431
G1 X87.697 Y95.65 E.01248
G1 X87.697 Y93.491 E.06431
G1 X87.278 Y93.491 E.01248
G1 X87.278 Y95.65 E.06431
G1 X86.859 Y95.65 E.01248
G1 X86.859 Y93.491 E.06431
G1 X86.44 Y93.491 E.01248
G1 X86.44 Y95.65 E.06431
G1 X86.021 Y95.65 E.01248
G1 X86.021 Y93.322 E.06934
G1 X86.021 Y93.322 F9000
G1 X85.456 Y91.626
;TYPE:Perimeter
;WIDTH:0.419999
G1 F1200
G1 X85.456 Y86.554 E.15108
G1 X87.608 Y86.547 E.0641
G1 X87.079 Y86.827 E.01783
G1 X86.836 Y87.341 E.01694
G1 X86.827 Y89.511 E.06464
G1 X86.89 Y89.849 E.01024
G1 X87.055 Y90.125 E.00958
G1 X87.358 Y90.359 E.0114
G1 X87.77 Y90.454 E.01259
G1 X91.813 Y90.454 E.12043
G1 X92.225 Y90.359 E.01259
G1 X92.529 Y90.125 E.01143
G1 X92.693 Y89.849 E.00956
G1 X92.756 Y89.511 E.01024
G1 X92.747 Y87.341 E.06464
G1 X92.504 Y86.827 E.01694
G1 X91.813 Y86.54 E.02229
G1 X94.127 Y86.554 E.06893
G1 X94.127 Y87.247 E.02064
G1 X94.127 Y91.626 E.13044
G1 X85.516 Y91.626 E.25649
G1 X85.516 Y91.626 F9000
G1 X85.079 Y92.003
G1 F1200
G1 X85.079 Y86.177 E.17354
G1 X94.504 Y86.177 E.28074
G1 X94.504 Y87.247 E.03187
G1 X94.504 Y92.003 E.14166
G1 X85.139 Y92.003 E.27895
G1 X85.139 Y92.003 F9000
G1 X84.702 Y92.38
;TYPE:External perimeter
G1 F1200
G1 X84.702 Y85.8 E.196
G1 X94.882 Y85.8 E.30323
G1 X94.882 Y87.247 E.0431
G1 X94.882 Y92.38 E.15289
G1 X84.762 Y92.38 E.30144
G1 E-3.5 F3600
;WIPE_START
G1 F7200
G1 X84.702 Y92.38 E-.0285
G1 X84.702 Y89.282 E-1.4715
;WIPE_END
G1 X87.213 Y89.556 F9000
G1 E5 F2400
;TYPE:Perimeter
G1 F1200
G1 X87.204 Y87.468 E.06219
G1 X87.355 Y87.084 E.01229
G1 X87.672 Y86.911 E.01076
G1 X87.77 Y86.903 E.00293
G1 X91.813 Y86.903 E.12043
G1 X92.228 Y87.084 E.01349
G1 X92.379 Y87.468 E.01229
G1 X92.379 Y89.511 E.06085
G1 X92.341 Y89.714 E.00615
G1 X92.242 Y89.88 E.00576
G1 X92.06 Y90.02 E.00684
G1 X91.813 Y90.077 E.00755
G1 X87.77 Y90.077 E.12043
G1 X87.523 Y90.02 E.00755
G1 X87.341 Y89.88 E.00684
G1 X87.216 Y89.615 E.00873
G1 X87.216 Y89.615 F9000
G1 X87.582 Y89.511
;TYPE:External perimeter
G1 F1200
G1 X87.582 Y87.468 E.06085
G1 X87.632 Y87.34 E.00409
G1 X87.77 Y87.28 E.00448
G1 X91.813 Y87.28 E.12043
G1 X91.951 Y87.34 E.00448
G1 X92.002 Y87.468 E.0041
G1 X92.002 Y89.511 E.06085
G1 X91.956 Y89.634 E.00391
G1 X91.813 Y89.7 E.00469
G1 X87.77 Y89.7 E.12043
G1 X87.627 Y89.634 E.00469
G1 X87.602 Y89.568 E.0021
G1 E-3.5 F3600
;WIPE_START
G1 F7200
G1 X87.582 Y89.511 E-.02869
G1 X87.582 Y87.468 E-.97042
G1 X87.632 Y87.34 E-.06527
G1 X87.77 Y87.28 E-.07148
G1 X88.537 Y87.28 E-.36414
;WIPE_END
G1 X87.608 Y86.547 F9000
G1 E5 F2400
;TYPE:Perimeter
;WIDTH:0.405756
G1 F1200
G1 X87.77 Y86.54 E.00465
;WIDTH:0.391684
G1 X91.813 Y86.54 E.11138
G1 E-3.5 F3600
;WIPE_START
G1 F7200
G1 X88.655 Y86.54 E-1.5
;WIPE_END
G1 X94.007 Y87.437 F9000
G1 E5 F2400
;TYPE:Solid infill
;WIDTH:0.420122
G1 F1200
G1 X93.244 Y86.675 E.03213
G1 X93.244 Y86.675 F9000
G1 X92.711 Y86.675
G1 F1200
G1 X94.007 Y87.971 E.05461
G1 X94.007 Y87.971 F9000
G1 X94.007 Y88.504
G1 F1200
G1 X92.866 Y87.364 E.04806
G1 X92.866 Y87.364 F9000
G1 X92.869 Y87.9
G1 F1200
G1 X94.007 Y89.038 E.04795
G1 X94.007 Y89.038 F9000
G1 X94.007 Y89.571
G1 F1200
G1 X92.871 Y88.436 E.04785
G1 X92.871 Y88.436 F9000
G1 X92.874 Y88.972
G1 F1200
G1 X94.007 Y90.104 E.04772
G1 X94.007 Y90.104 F9000
G1 X94.007 Y90.638
G1 F1200
G1 X92.876 Y89.508 E.04764
G1 X92.876 Y89.508 F9000
G1 X92.776 Y89.94
G1 F1200
G1 X94.007 Y91.171 E.05187
G1 X94.007 Y91.171 F9000
G1 X93.807 Y91.505
G1 F1200
G1 X92.554 Y90.253 E.05278
G1 X92.554 Y90.253 F9000
G1 X92.246 Y90.477
G1 F1200
G1 X93.274 Y91.505 E.04332
G1 X93.274 Y91.505 F9000
G1 X92.74 Y91.505
G1 F1200
G1 X91.81 Y90.575 E.03919
G1 X91.81 Y90.575 F9000
G1 X91.276 Y90.575
G1 F1200
G1 X92.207 Y91.505 E.03921
G1 X92.207 Y91.505 F9000
G1 X91.673 Y91.505
G1 F1200
G1 X90.743 Y90.575 E.03919
G1 X90.743 Y90.575 F9000
G1 X90.209 Y90.575
G1 F1200
G1 X91.14 Y91.505 E.03921
G1 X91.14 Y91.505 F9000
G1 X90.606 Y91.505
G1 F1200
G1 X89.676 Y90.575 E.03919
G1 X89.676 Y90.575 F9000
G1 X89.143 Y90.575
G1 F1200
G1 X90.073 Y91.505 E.03919
G1 X90.073 Y91.505 F9000
G1 X89.539 Y91.505
G1 F1200
G1 X88.609 Y90.575 E.03919
G1 X88.609 Y90.575 F9000
G1 X88.076 Y90.575
G1 F1200
G1 X89.006 Y91.505 E.03919
G1 X88.473 Y91.505 F9000
G1 F1200
G1 X87.472 Y90.504 E.04218
G1 E-3.5 F3600
;WIPE_START
G1 F7200
G1 X88.473 Y91.505 E-.67242
;WIPE_END
G1 E-.82758 F3600
G1 X86.797 Y87.162 F9000
G1 E5 F2400
G1 F1200
G1 X86.309 Y86.675 E.02054
G1 X86.309 Y86.675 F9000
G1 X85.776 Y86.675
G1 F1200
G1 X86.716 Y87.614 E.03959
G1 X86.716 Y87.614 F9000
G1 X86.713 Y88.145
G1 F1200
G1 X85.576 Y87.009 E.04789
G1 X85.576 Y87.009 F9000
G1 X85.576 Y87.542
G1 F1200
G1 X86.711 Y88.676 E.04781
G1 X86.711 Y88.676 F9000
G1 X86.708 Y89.207
G1 F1200
G1 X85.576 Y88.075 E.0477
G1 X85.576 Y88.075 F9000
G1 X85.576 Y88.609
G1 F1200
G1 X86.746 Y89.779 E.0493
G1 X86.746 Y89.779 F9000
G1 X85.576 Y89.142
G1 F1200
G1 X87.939 Y91.505 E.09957
G1 X87.406 Y91.505 F9000
G1 F1200
G1 X85.576 Y89.676 E.07709
G1 X85.576 Y89.676 F9000
G1 X85.576 Y90.209
G1 F1200
G1 X86.872 Y91.505 E.05461
G1 X86.872 Y91.505 F9000
G1 X86.339 Y91.505
G1 F1200
G1 X85.576 Y90.743 E.03213
M106 S255
;LAYER_CHANGE
;Z:0.4
;HEIGHT:0.2
;BEFORE_LAYER_CHANGE
G92 E0
;0.4


G1 E-3.5 F3600
;WIPE_START
G1 F7200
G1 X86.339 Y91.505 E-.51221
;WIPE_END
G1 E-.98779 F3600
G1 Z.4 F9000
;AFTER_LAYER_CHANGE
;0.4
; stop printing object Power_button_case id:0 copy 0
G1 Z.4
G1 X80.26 Y91.505
G1 E5 F2400
;TYPE:Skirt/Brim
;WIDTH:0.42
G1 F1308
G1 X80.26 Y85.49 E.17917
G1 X80.655 Y83.727 E.05382
G1 X81.765 Y82.301 E.05383
G1 X83.378 Y81.485 E.05384
G1 X84.392 Y81.359 E.03044
G1 X95.192 Y81.359 E.3217
G1 X96.955 Y81.754 E.05382
G1 X98.381 Y82.864 E.05383
G1 X99.196 Y84.476 E.0538
G1 X99.323 Y85.49 E.03044
G1 X99.323 Y92.69 E.21446
G1 X99.098 Y94.033 E.04056
G1 X97.964 Y97.333 E.10394
G1 X97.017 Y98.872 E.05383
G1 X95.504 Y99.859 E.05381
G1 X94.057 Y100.121 E.0438
G1 X85.526 Y100.121 E.25411
G1 X83.763 Y99.726 E.05382
G1 X82.337 Y98.616 E.05383
G1 X81.619 Y97.333 E.04379
G1 X80.485 Y94.033 E.10394
G1 X80.26 Y92.69 E.04056
G1 X80.26 Y91.565 E.03351
G1 X80.26 Y91.565 F9000
G1 X80.637 Y91.565
G1 F1308
G1 X80.637 Y85.49 E.18095
G1 X81.032 Y83.814 E.05129
G1 X82.133 Y82.491 E.05127
G1 X84.392 Y81.736 E.07095
G1 X95.192 Y81.736 E.3217
G1 X96.867 Y82.13 E.05125
G1 X98.19 Y83.231 E.05127
G1 X98.946 Y85.49 E.07096
G1 X98.946 Y92.69 E.21446
G1 X98.742 Y93.911 E.03687
G1 X97.607 Y97.21 E.10392
G1 X96.689 Y98.666 E.05127
G1 X95.218 Y99.56 E.05127
G1 X94.057 Y99.744 E.03501
G1 X85.526 Y99.744 E.25411
G1 X83.85 Y99.349 E.05129
G1 X82.527 Y98.248 E.05127
G1 X81.976 Y97.21 E.035
G1 X80.841 Y93.911 E.10392
G1 X80.637 Y92.69 E.03687
G1 X80.637 Y91.625 E.03172
G1 X80.637 Y91.625 F9000
G1 X81.014 Y91.625
G1 F1308
G1 X81.014 Y85.49 E.18274
G1 X81.409 Y83.907 E.0486
G1 X82.499 Y82.693 E.0486
G1 X84.392 Y82.113 E.05897
G1 X95.192 Y82.113 E.3217
G1 X96.775 Y82.507 E.04859
G1 X97.988 Y83.597 E.04858
G1 X98.569 Y85.49 E.05898
G1 X98.569 Y92.69 E.21446
G1 X98.385 Y93.788 E.03316
G1 X97.251 Y97.088 E.10394
G1 X96.363 Y98.457 E.04861
G1 X94.938 Y99.25 E.04858
G1 X94.057 Y99.367 E.02647
G1 X85.526 Y99.367 E.25411
G1 X83.943 Y98.973 E.04859
G1 X82.729 Y97.882 E.04862
G1 X82.332 Y97.088 E.02644
G1 X81.198 Y93.788 E.10394
G1 X81.014 Y92.69 E.03316
G1 X81.014 Y91.685 E.02994
G1 E-3.5 F3600
;WIPE_START
G1 F7200
G1 X81.014 Y91.625 E-.0285
G1 X81.014 Y88.527 E-1.4715
;WIPE_END
; printing object Power_button_case id:0 copy 0
G1 X85.386 Y91.696 F9000
G1 E5 F2400
;TYPE:Perimeter
;WIDTH:0.439999
G1 F1308
G1 X85.386 Y86.484 E.16348
G1 X87.013 Y86.484 E.05103
;WIDTH:0.482423
G1 X87.239 Y86.505 E.00788
;WIDTH:0.524847
G1 X87.465 Y86.526 E.00864
;WIDTH:0.56727
G1 X87.691 Y86.548 E.00941
G1 X87.52 Y86.66 E.00847
;WIDTH:0.524847
G1 X87.35 Y86.772 E.00775
;WIDTH:0.482423
G1 X87.179 Y86.884 E.0071
;WIDTH:0.439999
G1 X86.913 Y87.393 E.01801
G1 X86.897 Y87.568 E.00551
G1 X86.897 Y89.411 E.05781
G1 X86.963 Y89.762 E.0112
G1 X87.135 Y90.048 E.01047
G1 X87.448 Y90.288 E.01237
G1 X87.87 Y90.384 E.01357
G1 X91.713 Y90.384 E.12054
G1 X92.135 Y90.288 E.01357
G1 X92.448 Y90.048 E.01237
G1 X92.62 Y89.762 E.01047
G1 X92.686 Y89.411 E.0112
G1 X92.686 Y87.568 E.05781
G1 X92.67 Y87.393 E.00551
G1 X92.404 Y86.884 E.01801
;WIDTH:0.477228
G1 X92.173 Y86.769 E.00885
;WIDTH:0.514456
G1 X91.943 Y86.654 E.00958
;WIDTH:0.551684
G1 X91.713 Y86.54 E.01032
G1 X91.999 Y86.521 E.01152
;WIDTH:0.514456
G1 X92.284 Y86.503 E.01064
;WIDTH:0.477228
G1 X92.57 Y86.484 E.00983
;WIDTH:0.439999
G1 X94.197 Y86.484 E.05103
G1 X94.197 Y87.254 E.02415
G1 X94.197 Y91.696 E.13933
G1 X85.446 Y91.696 E.27449
G1 X85.446 Y91.696 F9000
G1 X84.989 Y92.093
G1 F1308
G1 X84.989 Y86.087 E.18839
G1 X94.594 Y86.087 E.30127
G1 X94.594 Y87.254 E.0366
G1 X94.594 Y92.093 E.15178
G1 X85.049 Y92.093 E.29939
G1 X85.049 Y92.093 F9000
G1 X84.602 Y92.48
;TYPE:External perimeter
;WIDTH:0.419999
G1 F1308
G1 X84.602 Y85.7 E.20195
G1 X94.982 Y85.7 E.30918
G1 X94.982 Y87.254 E.04629
G1 X94.982 Y92.48 E.15566
G1 X84.662 Y92.48 E.3074
G1 E-3.5 F3600
;WIPE_START
G1 F7200
G1 X84.602 Y92.48 E-.0285
G1 X84.602 Y89.382 E-1.4715
;WIPE_END
G1 X87.46 Y89.807 F9000
G1 E5 F2400
;TYPE:Perimeter
;WIDTH:0.439999
G1 F1308
G1 X87.435 Y89.788 E.00098
G1 X87.303 Y89.511 E.00962
G1 X87.294 Y87.568 E.06095
G1 X87.304 Y87.465 E.00325
G1 X87.461 Y87.163 E.01068
G1 X87.771 Y87.001 E.01097
G1 X91.713 Y86.993 E.12365
G1 X92.122 Y87.163 E.01389
G1 X92.279 Y87.465 E.01068
G1 X92.289 Y89.411 E.06104
G1 X92.25 Y89.619 E.00664
G1 X92.148 Y89.788 E.00619
G1 X91.963 Y89.93 E.00732
G1 X91.713 Y89.987 E.00804
G1 X87.87 Y89.987 E.12054
G1 X87.62 Y89.93 E.00804
G1 X87.508 Y89.844 E.00443
G1 X87.508 Y89.844 F9000
G1 X87.728 Y89.535
;TYPE:External perimeter
;WIDTH:0.419999
G1 F1308
G1 X87.682 Y89.411 E.00394
G1 X87.682 Y87.568 E.0549
G1 X87.736 Y87.436 E.00425
G1 X87.87 Y87.38 E.00433
G1 X91.713 Y87.38 E.11447
G1 X91.847 Y87.436 E.00433
G1 X91.902 Y87.568 E.00426
G1 X91.902 Y89.411 E.0549
G1 X91.856 Y89.535 E.00394
G1 X91.713 Y89.6 E.00468
G1 X87.87 Y89.6 E.11447
G1 X87.782 Y89.56 E.00288
G1 E-3.5 F3600
;WIPE_START
G1 F7200
G1 X87.728 Y89.535 E-.02827
G1 X87.682 Y89.411 E-.06282
G1 X87.682 Y87.568 E-.87543
G1 X87.736 Y87.436 E-.06774
G1 X87.87 Y87.38 E-.06898
G1 X88.705 Y87.38 E-.39676
;WIPE_END
G1 X87.691 Y86.548 F9000
G1 E5 F2400
;TYPE:Perimeter
;WIDTH:0.56727
G1 F1308
G1 X87.87 Y86.54 E.00742
;WIDTH:0.551684
G1 X91.713 Y86.54 E.15445
G1 X93.057 Y86.609 F9000
;TYPE:Top solid infill
;WIDTH:0.412643
G1 F1308
G1 X92.739 Y86.927 E.01313
G1 X92.918 Y87.27 E.0113
G1 X93.419 Y86.77 E.02067
G1 X93.912 Y86.77 E.0144
G1 X93.912 Y86.8 E.00088
G1 X92.971 Y87.74 E.03885
G1 X92.971 Y88.263 E.01527
G1 X93.912 Y87.323 E.03885
G1 X93.912 Y87.846 E.01527
G1 X92.971 Y88.786 E.03885
G1 X92.971 Y89.309 E.01527
G1 X93.912 Y88.368 E.03887
G1 X93.912 Y88.891 E.01527
G1 X91.393 Y91.41 E.10404
G1 X91.916 Y91.41 E.01527
G1 X93.912 Y89.414 E.08244
G1 X93.912 Y89.937 E.01527
G1 X92.439 Y91.41 E.06084
G1 X92.961 Y91.41 E.01525
G1 X93.912 Y90.46 E.03926
G1 X93.912 Y90.983 E.01527
G1 X93.324 Y91.571 E.02429
G1 E-3.5 F3600
;WIPE_START
G1 F7200
G1 X93.912 Y90.983 E-.39499
G1 X93.912 Y90.46 E-.24842
G1 X92.961 Y91.41 E-.6385
G1 X92.502 Y91.41 E-.21809
;WIPE_END
G1 X90.709 Y91.571 F9000
G1 E5 F2400
G1 F1308
G1 X91.61 Y90.67 E.03721
G1 X91.087 Y90.67 E.01527
G1 X90.347 Y91.41 E.03056
G1 X90.271 Y91.41 E.00222
G1 X90.109 Y91.125 E.00957
G1 X90.564 Y90.67 E.01879
G1 X90.042 Y90.67 E.01525
G1 X89.824 Y90.887 E.00898
G1 X89.824 Y90.887 F9000
G1 X89.849 Y91.36
;TYPE:Solid infill
;WIDTH:0.472192
G1 F1308
G1 X89.811 Y91.322 E.00182
G1 X89.759 Y91.336 E.00183
G1 X89.745 Y91.388 E.00183
G1 X89.783 Y91.426 E.00182
G1 X89.835 Y91.412 E.00183
G1 X89.835 Y91.412 F9000
G1 X89.141 Y91.571
