; generated by PrusaSlicer 2.7.4+win64 on 2024-08-12 at 14:48:12 UTC

; 

; external perimeters extrusion width = 0.42mm
; perimeters extrusion width = 0.44mm
; infill extrusion width = 0.44mm
; solid infill extrusion width = 0.44mm
; top infill extrusion width = 0.40mm
; support material extrusion width = 0.36mm
; first layer extrusion width = 0.42mm


; printing object Switch_case id:0 copy 0
; stop printing object Switch_case id:0 copy 0

;TYPE:Custom
G90 ; use absolute coordinates
M83 ; extruder relative mode
M140 S60 ; set final bed temp
M104 S150 ; set temporary nozzle temp to prevent oozing during homing
G4 S30 ; allow partial nozzle warmup
G28 ; home all axis
G1 Z50 F240
G1 X7 Y10 F3000
M300 P300 S200 ; sound buzzer to say bed levelling is done
M300 P300 S0 ; pause sound so two beeps can play
M300 P300 S200 ; sound buzzer to say bed levelling is done
M104 S200 ; set final nozzle temp
M190 S60 ; wait for bed temp to stabilize
M109 S200 ; wait for nozzle temp to stabilize
G1 Z0.28 F240
G92 E0
G1 Y140 E10 F1500 ; prime the nozzle
G1 X6 F5000
G92 E0
G1 Y10 E10 F1200 ; prime the nozzle
G92 E0
G21 ; set units to millimeters
G90 ; use absolute coordinates
M83 ; use relative distances for extrusion
; Filament gcode
M107
;LAYER_CHANGE
;Z:0.2
;HEIGHT:0.2
G1 E-5 F3600
G1 Z.2 F9000
G1 X87.005 Y86.636
G1 Z.2
G1 E5 F2400
M204 P500
;TYPE:Skirt/Brim
;WIDTH:0.42
G1 F650
G1 X88.647 Y85.704 E.05624
G1 X90 Y85.497 E.04077
G1 X94 Y85.497 E.11915
G1 X95.847 Y85.892 E.05626
G1 X97.369 Y87.01 E.05625
G1 X98.301 Y88.652 E.05624
G1 X98.508 Y90.005 E.04077
G1 X98.508 Y94.005 E.11915
G1 X98.113 Y95.852 E.05626
G1 X96.995 Y97.374 E.05625
G1 X95.353 Y98.306 E.05624
G1 X94 Y98.513 E.04077
G1 X90 Y98.513 E.11915
G1 X88.153 Y98.118 E.05626
G1 X86.631 Y97 E.05625
G1 X85.699 Y95.358 E.05624
G1 X85.492 Y94.005 E.04077
G1 X85.492 Y90.005 E.11915
G1 X85.887 Y88.158 E.05626
G1 X86.969 Y86.684 E.05446
G1 X87.285 Y86.93 F9000
G1 F650
G1 X87.374 Y86.816 E.00431
G1 X88.986 Y86 E.05382
G1 X90 Y85.874 E.03044
G1 X94 Y85.874 E.11915
G1 X95.763 Y86.269 E.05382
G1 X97.189 Y87.379 E.05383
G1 X98.005 Y88.991 E.05382
G1 X98.131 Y90.005 E.03044
G1 X98.131 Y94.005 E.11915
G1 X97.736 Y95.768 E.05382
G1 X96.626 Y97.194 E.05383
G1 X95.014 Y98.01 E.05382
G1 X94 Y98.136 E.03044
G1 X90 Y98.136 E.11915
G1 X88.237 Y97.741 E.05382
G1 X86.811 Y96.631 E.05383
G1 X85.995 Y95.019 E.05382
G1 X85.869 Y94.005 E.03044
G1 X85.869 Y90.005 E.11915
G1 X86.264 Y88.242 E.05382
G1 X87.248 Y86.977 E.04774
G1 X87.248 Y86.977 F9000
G1 X87.554 Y87.232
G1 F650
G1 X87.742 Y87.006 E.00876
G1 X90 Y86.251 E.07092
G1 X94 Y86.251 E.11915
G1 X95.676 Y86.646 E.05129
G1 X96.999 Y87.747 E.05127
G1 X97.754 Y90.005 E.07092
G1 X97.754 Y94.005 E.11915
G1 X97.359 Y95.681 E.05129
G1 X96.258 Y97.004 E.05127
G1 X94 Y97.759 E.07092
G1 X90 Y97.759 E.11915
G1 X88.324 Y97.364 E.05129
G1 X87.001 Y96.263 E.05127
G1 X86.246 Y94.005 E.07092
G1 X86.246 Y90.005 E.11915
G1 X86.641 Y88.329 E.05129
G1 X87.515 Y87.278 E.04072
G1 X87.515 Y87.278 F9000
G1 X87.808 Y87.541
G1 F650
G1 X88.107 Y87.208 E.01333
G1 X90 Y86.628 E.05897
G1 X94 Y86.628 E.11915
G1 X95.583 Y87.022 E.04859
G1 X96.797 Y88.112 E.0486
G1 X97.377 Y90.005 E.05897
G1 X97.377 Y94.005 E.11915
G1 X96.983 Y95.588 E.04859
G1 X95.893 Y96.802 E.0486
G1 X94 Y97.382 E.05897
G1 X90 Y97.382 E.11915
G1 X88.417 Y96.988 E.04859
G1 X87.203 Y95.898 E.0486
G1 X86.623 Y94.005 E.05897
G1 X86.623 Y90.005 E.11915
G1 X87.017 Y88.422 E.04859
G1 X87.768 Y87.586 E.03347
G1 E-3.5 F3600
;WIPE_START
G1 F7200
G1 X87.808 Y87.541 E-.0286
G1 X88.107 Y87.208 E-.21258
G1 X90 Y86.628 E-.94043
G1 X90.67 Y86.628 E-.31839
;WIPE_END
; printing object Switch_case id:0 copy 0
G1 X90.402 Y90.407 F9000
G1 E5 F2400
;TYPE:External perimeter
;WIDTH:0.603565
G1 F650
G1 X90.74 Y90.386 E.015
;WIDTH:0.562513
G1 X91.079 Y90.366 E.01394
;WIDTH:0.52146
G1 X92.921 Y90.366 E.06963
G1 X93.178 Y90.349 E.00974
;WIDTH:0.48764
G1 X93.434 Y90.332 E.00901
;WIDTH:0.45382
G1 X93.69 Y90.315 E.00833
;WIDTH:0.419999
G1 X93.69 Y90.687 E.01108
;WIDTH:0.45382
G1 X93.673 Y90.819 E.00432
;WIDTH:0.48764
G1 X93.656 Y90.951 E.00468
;WIDTH:0.52146
G1 X93.639 Y91.084 E.00507
G1 X93.639 Y92.926 E.06963
;WIDTH:0.525085
G1 X93.637 Y93.01 E.0032
;WIDTH:0.564325
G1 X93.618 Y93.306 E.01222
;WIDTH:0.603565
G1 X93.598 Y93.603 E.01318
G1 X93.26 Y93.624 E.015
;WIDTH:0.562513
G1 X92.921 Y93.644 E.01394
;WIDTH:0.521461
G1 X91.079 Y93.644 E.06963
;WIDTH:0.562513
G1 X90.74 Y93.624 E.01394
;WIDTH:0.603564
G1 X90.402 Y93.603 E.015
G1 X90.381 Y93.265 E.015
;WIDTH:0.562512
G1 X90.361 Y92.926 E.01394
;WIDTH:0.52146
G1 X90.361 Y91.084 E.06963
;WIDTH:0.562513
G1 X90.381 Y90.745 E.01394
;WIDTH:0.603565
G1 X90.398 Y90.467 E.01233
G1 X90.398 Y90.467 F9000
G1 X90.88 Y90.885
G1 F650
G1 X90.979 Y90.865 E.00447
;WIDTH:0.562513
G1 X91.079 Y90.844 E.00419
;WIDTH:0.52146
G1 X92.921 Y90.844 E.06963
G1 X93.161 Y91.084 E.01283
G1 X93.161 Y92.926 E.06963
;WIDTH:0.562513
G1 X93.14 Y93.026 E.00419
;WIDTH:0.603565
G1 X93.12 Y93.125 E.00447
G1 X93.021 Y93.145 E.00447
;WIDTH:0.562513
G1 X92.921 Y93.166 E.00419
;WIDTH:0.521461
G1 X91.079 Y93.166 E.06963
;WIDTH:0.562513
G1 X90.979 Y93.145 E.00419
;WIDTH:0.603564
G1 X90.88 Y93.125 E.00447
G1 X90.86 Y93.026 E.00447
;WIDTH:0.562512
G1 X90.839 Y92.926 E.00419
;WIDTH:0.52146
G1 X90.839 Y91.084 E.06963
;WIDTH:0.562513
G1 X90.86 Y90.984 E.00419
;WIDTH:0.603565
G1 X90.868 Y90.944 E.00181
G1 E-3.5 F3600
;WIPE_START
G1 F7200
G1 X90.88 Y90.885 E-.0286
G1 X90.979 Y90.865 E-.04798
G1 X91.079 Y90.844 E-.04854
G1 X92.921 Y90.844 E-.87495
G1 X93.161 Y91.084 E-.16122
G1 X93.161 Y91.797 E-.33871
;WIPE_END
G1 X93.341 Y90.647 F9000
G1 E5 F2400
;TYPE:Perimeter
;WIDTH:0.410052
G1 F650
G1 X93.272 Y90.687 E.00231
G1 X93.341 Y90.727 E.00231
G1 X93.364 Y90.687 E.00134
M106 S255
;LAYER_CHANGE
;Z:0.4
;HEIGHT:0.2
;BEFORE_LAYER_CHANGE
G92 E0
;0.4


G1 E-3.5 F3600
;WIPE_START
G1 F7200
G1 X93.341 Y90.727 E-.02192
G1 X93.272 Y90.687 E-.03788
G1 X93.341 Y90.647 E-.03788
;WIPE_END
G1 E-1.40232 F3600
G1 Z.4 F9000
;AFTER_LAYER_CHANGE
;0.4
; stop printing object Switch_case id:0 copy 0
G1 Z.4
G1 X93.341 Y85.497
G1 E5 F2400
;TYPE:Skirt/Brim
;WIDTH:0.42
G1 F632
G1 X94 Y85.497 E.01963
G1 X95.847 Y85.892 E.05626
G1 X97.369 Y87.01 E.05625
G1 X98.301 Y88.652 E.05624
G1 X98.508 Y90.005 E.04077
G1 X98.508 Y94.005 E.11915
G1 X98.113 Y95.852 E.05626
G1 X96.995 Y97.374 E.05625
G1 X95.353 Y98.306 E.05624
G1 X94 Y98.513 E.04077
G1 X90 Y98.513 E.11915
G1 X88.153 Y98.118 E.05626
G1 X86.631 Y97 E.05625
G1 X85.699 Y95.358 E.05624
G1 X85.492 Y94.005 E.04077
G1 X85.492 Y90.005 E.11915
G1 X85.887 Y88.158 E.05626
G1 X87.005 Y86.636 E.05625
G1 X88.647 Y85.704 E.05624
G1 X90 Y85.497 E.04077
G1 X93.281 Y85.497 E.09773
G1 X93.281 Y85.497 F9000
G1 X93.281 Y85.874
G1 F632
G1 X94 Y85.874 E.02142
G1 X95.763 Y86.269 E.05382
G1 X97.189 Y87.379 E.05383
G1 X98.005 Y88.991 E.05382
G1 X98.131 Y90.005 E.03044
G1 X98.131 Y94.005 E.11915
G1 X97.736 Y95.768 E.05382
G1 X96.626 Y97.194 E.05383
G1 X95.014 Y98.01 E.05382
G1 X94 Y98.136 E.03044
G1 X90 Y98.136 E.11915
G1 X88.237 Y97.741 E.05382
G1 X86.811 Y96.631 E.05383
G1 X85.995 Y95.019 E.05382
G1 X85.869 Y94.005 E.03044
G1 X85.869 Y90.005 E.11915
G1 X86.264 Y88.242 E.05382
G1 X87.374 Y86.816 E.05383
G1 X88.986 Y86 E.05382
G1 X90 Y85.874 E.03044
G1 X93.221 Y85.874 E.09594
G1 X93.221 Y85.874 F9000
G1 X93.221 Y86.251
G1 F632
G1 X94 Y86.251 E.0232
G1 X95.676 Y86.646 E.05129
G1 X96.999 Y87.747 E.05127
G1 X97.754 Y90.005 E.07092
G1 X97.754 Y94.005 E.11915
G1 X97.359 Y95.681 E.05129
G1 X96.258 Y97.004 E.05127
G1 X94 Y97.759 E.07092
G1 X90 Y97.759 E.11915
G1 X88.324 Y97.364 E.05129
G1 X87.001 Y96.263 E.05127
G1 X86.246 Y94.005 E.07092
G1 X86.246 Y90.005 E.11915
G1 X86.641 Y88.329 E.05129
G1 X87.742 Y87.006 E.05127
G1 X90 Y86.251 E.07092
G1 X93.161 Y86.251 E.09416
G1 X93.161 Y86.251 F9000
G1 X93.161 Y86.628
G1 F632
G1 X94 Y86.628 E.02499
G1 X95.583 Y87.022 E.04859
G1 X96.797 Y88.112 E.0486
G1 X97.377 Y90.005 E.05897
G1 X97.377 Y94.005 E.11915
G1 X96.983 Y95.588 E.04859
G1 X95.893 Y96.802 E.0486
G1 X94 Y97.382 E.05897
G1 X90 Y97.382 E.11915
G1 X88.417 Y96.988 E.04859
G1 X87.203 Y95.898 E.0486
G1 X86.623 Y94.005 E.05897
G1 X86.623 Y90.005 E.11915
G1 X87.017 Y88.422 E.04859
G1 X88.107 Y87.208 E.0486
G1 X90 Y86.628 E.05897
G1 X93.101 Y86.628 E.09237
G1 E-3.5 F3600
;WIPE_START
G1 F7200
G1 X93.161 Y86.628 E-.0285
G1 X94 Y86.628 E-.39852
G1 X95.583 Y87.022 E-.77487
G1 X96.05 Y87.441 E-.29811
;WIPE_END
; printing object Switch_case id:0 copy 0
G1 X93.79 Y90.215 F9000
G1 E5 F2400
;TYPE:External perimeter
;WIDTH:0.419999
G1 F632
G1 X93.79 Y90.704 E.01457
G1 X93.79 Y93.795 E.09207
G1 X90.21 Y93.795 E.10664
G1 X90.21 Y90.215 E.10664
G1 X93.73 Y90.215 E.10485
G1 X92.821 Y90.995 F9000
G1 F632
G1 X92.955 Y91.05 E.00431
G1 X93.01 Y91.184 E.00431
G1 X93.01 Y92.826 E.04891
G1 X92.955 Y92.96 E.00431
G1 X92.821 Y93.015 E.00431
G1 X91.179 Y93.015 E.04891
G1 X91.045 Y92.96 E.00431
G1 X90.99 Y92.826 E.00431
G1 X90.99 Y91.184 E.04891
G1 X91.045 Y91.05 E.00431
G1 X91.179 Y90.995 E.00431
G1 X92.761 Y90.995 E.04712
G1 X92.761 Y90.995 F9000
G1 X92.898 Y90.621
;TYPE:Perimeter
;WIDTH:0.495473
G1 F632
G1 X92.941 Y90.63 E.00157
;WIDTH:0.545104
G1 X93.061 Y90.655 E.00486
;WIDTH:0.594735
G1 X93.181 Y90.679 E.00533
;WIDTH:0.644366
G1 X93.301 Y90.704 E.00582
G1 X93.326 Y90.824 E.00582
;WIDTH:0.594735
G1 X93.35 Y90.944 E.00533
;WIDTH:0.545104
G1 X93.375 Y91.064 E.00486
;WIDTH:0.495473
G1 X93.4 Y91.184 E.00438
;WIDTH:0.445842
G1 X93.4 Y92.826 E.05226
;WIDTH:0.495473
G1 X93.375 Y92.946 E.00438
;WIDTH:0.545104
G1 X93.35 Y93.066 E.00486
;WIDTH:0.594735
G1 X93.326 Y93.186 E.00533
;WIDTH:0.644366
G1 X93.301 Y93.306 E.00582
G1 X93.181 Y93.331 E.00582
;WIDTH:0.594736
G1 X93.061 Y93.355 E.00533
;WIDTH:0.545105
G1 X92.941 Y93.38 E.00486
;WIDTH:0.495475
G1 X92.821 Y93.405 E.00438
;WIDTH:0.445844
G1 X91.179 Y93.405 E.05226
;WIDTH:0.495475
G1 X91.059 Y93.38 E.00438
;WIDTH:0.545105
G1 X90.939 Y93.355 E.00486
;WIDTH:0.594736
G1 X90.819 Y93.331 E.00533
;WIDTH:0.644366
G1 X90.699 Y93.306 E.00582
G1 X90.674 Y93.186 E.00582
;WIDTH:0.594735
G1 X90.65 Y93.066 E.00533
;WIDTH:0.545104
G1 X90.625 Y92.946 E.00486
;WIDTH:0.495473
G1 X90.6 Y92.826 E.00438
;WIDTH:0.445842
G1 X90.6 Y91.184 E.05226
;WIDTH:0.495473
G1 X90.625 Y91.064 E.00438
;WIDTH:0.545103
G1 X90.65 Y90.944 E.00486
;WIDTH:0.594734
G1 X90.674 Y90.824 E.00533
;WIDTH:0.644364
G1 X90.699 Y90.704 E.00582
G1 X90.819 Y90.679 E.00582
;WIDTH:0.594734
G1 X90.939 Y90.655 E.00533
;WIDTH:0.545103
G1 X91.059 Y90.63 E.00486
;WIDTH:0.495473
G1 X91.179 Y90.605 E.00438
;WIDTH:0.445842
G1 X92.821 Y90.605 E.05226
;WIDTH:0.495473
G1 X92.839 Y90.609 E.00066
;LAYER_CHANGE
;Z:0.6
;HEIGHT:0.2
;BEFORE_LAYER_CHANGE
G92 E0
;0.6


G1 E-3.5 F3600
;WIPE_START
G1 F7200
G1 X92.898 Y90.621 E-.0286
G1 X92.941 Y90.63 E-.02087
G1 X93.061 Y90.655 E-.05822
G1 X93.181 Y90.679 E-.05813
G1 X93.301 Y90.704 E-.05822
G1 X93.326 Y90.824 E-.05822
G1 X93.35 Y90.944 E-.05813
G1 X93.375 Y91.064 E-.05822
G1 X93.4 Y91.184 E-.05822
G1 X93.4 Y92.826 E-.77995
G1 X93.375 Y92.946 E-.05822
G1 X93.35 Y93.066 E-.05822
G1 X93.326 Y93.186 E-.05813
G1 X93.301 Y93.306 E-.05822
G1 X93.238 Y93.319 E-.03043
;WIPE_END
G1 Z.6 F9000
;AFTER_LAYER_CHANGE
;0.6
G1 Z.6
G1 X93.79 Y93.795
G1 E5 F2400
;TYPE:External perimeter
;WIDTH:0.419999
G1 F600
G1 X90.21 Y93.795 E.10664
G1 X90.21 Y90.215 E.10664
G1 X93.79 Y90.215 E.10664
G1 X93.79 Y90.704 E.01457
G1 X93.79 Y93.735 E.09028
G1 X92.955 Y92.96 F9000
G1 F600
G1 X92.821 Y93.015 E.00431
G1 X91.179 Y93.015 E.04891
G1 X91.045 Y92.96 E.00431
G1 X90.99 Y92.826 E.00431
G1 X90.99 Y91.184 E.04891
G1 X91.045 Y91.05 E.00431
G1 X91.179 Y90.995 E.00431
G1 X92.821 Y90.995 E.04891
G1 X92.955 Y91.05 E.00431
G1 X93.01 Y91.184 E.00431
G1 X93.01 Y92.826 E.04891
G1 X92.978 Y92.904 E.00251
G1 X92.978 Y92.904 F9000
G1 X93.201 Y93.326
;TYPE:Perimeter
;WIDTH:0.644366
G1 F600
G1 X93.181 Y93.331 E.00098
;WIDTH:0.594736
G1 X93.061 Y93.355 E.00533
;WIDTH:0.545105
G1 X92.941 Y93.38 E.00486
;WIDTH:0.495475
G1 X92.821 Y93.405 E.00438
;WIDTH:0.445844
G1 X91.179 Y93.405 E.05226
;WIDTH:0.495475
G1 X91.059 Y93.38 E.00438
;WIDTH:0.545105
G1 X90.939 Y93.355 E.00486
;WIDTH:0.594736
G1 X90.819 Y93.331 E.00533
;WIDTH:0.644366
G1 X90.699 Y93.306 E.00582
G1 X90.674 Y93.186 E.00582
;WIDTH:0.594735
G1 X90.65 Y93.066 E.00533
;WIDTH:0.545104
G1 X90.625 Y92.946 E.00486
;WIDTH:0.495473
G1 X90.6 Y92.826 E.00438
;WIDTH:0.445842
G1 X90.6 Y91.184 E.05226
;WIDTH:0.495473
G1 X90.625 Y91.064 E.00438
;WIDTH:0.545103
G1 X90.65 Y90.944 E.00486
;WIDTH:0.594734
G1 X90.674 Y90.824 E.00533
;WIDTH:0.644364
G1 X90.699 Y90.704 E.00582
G1 X90.819 Y90.679 E.00582
;WIDTH:0.594734
G1 X90.939 Y90.655 E.00533
;WIDTH:0.545103
G1 X91.059 Y90.63 E.00486
;WIDTH:0.495473
G1 X91.179 Y90.605 E.00438
;WIDTH:0.445842
G1 X92.821 Y90.605 E.05226
;WIDTH:0.495473
G1 X92.941 Y90.63 E.00438
;WIDTH:0.545104
G1 X93.061 Y90.655 E.00486
;WIDTH:0.594735
G1 X93.181 Y90.679 E.00533
;WIDTH:0.644366
G1 X93.301 Y90.704 E.00582
G1 X93.326 Y90.824 E.00582
;WIDTH:0.594735
G1 X93.35 Y90.944 E.00533
;WIDTH:0.545104
G1 X93.375 Y91.064 E.00486
;WIDTH:0.495473
G1 X93.4 Y91.184 E.00438
;WIDTH:0.445842
G1 X93.4 Y92.826 E.05226
;WIDTH:0.495473
G1 X93.375 Y92.946 E.00438
;WIDTH:0.545104
G1 X93.35 Y93.066 E.00486
;WIDTH:0.594735
G1 X93.326 Y93.186 E.00533
;WIDTH:0.644366
G1 X93.301 Y93.306 E.00582
G1 X93.26 Y93.314 E.00198
;LAYER_CHANGE
;Z:0.8
;HEIGHT:0.2
;BEFORE_LAYER_CHANGE
G92 E0
;0.8


G1 E-3.5 F3600
;WIPE_START
G1 F7200
G1 X93.201 Y93.326 E-.0286
G1 X93.181 Y93.331 E-.00979
G1 X93.061 Y93.355 E-.05813
G1 X92.941 Y93.38 E-.05822
G1 X92.821 Y93.405 E-.05822
G1 X91.179 Y93.405 E-.77995
G1 X91.059 Y93.38 E-.05822
G1 X90.939 Y93.355 E-.05822
G1 X90.819 Y93.331 E-.05813
G1 X90.699 Y93.306 E-.05822
G1 X90.674 Y93.186 E-.05822
G1 X90.65 Y93.066 E-.05813
G1 X90.625 Y92.946 E-.05822
G1 X90.6 Y92.826 E-.05822
G1 X90.6 Y92.739 E-.04151
;WIPE_END
G1 Z.8 F9000
;AFTER_LAYER_CHANGE
;0.8
G1 Z.8
G1 X90.21 Y93.795
G1 E5 F2400
;TYPE:External perimeter
;WIDTH:0.419999
G1 F600
G1 X90.21 Y90.215 E.10664
G1 X93.79 Y90.215 E.10664
G1 X93.79 Y90.704 E.01457
G1 X93.79 Y93.795 E.09207
G1 X90.27 Y93.795 E.10485
G1 X91.045 Y92.96 F9000
G1 F600
G1 X90.99 Y92.826 E.00431
G1 X90.99 Y91.184 E.04891
G1 X91.045 Y91.05 E.00431
G1 X91.179 Y90.995 E.00431
G1 X92.821 Y90.995 E.04891
G1 X92.955 Y91.05 E.00431
G1 X93.01 Y91.184 E.00431
G1 X93.01 Y92.826 E.04891
G1 X92.955 Y92.96 E.00431
G1 X92.821 Y93.015 E.00431
G1 X91.179 Y93.015 E.04891
G1 X91.101 Y92.983 E.00251
G1 X91.101 Y92.983 F9000
G1 X90.679 Y93.206
;TYPE:Perimeter
;WIDTH:0.644366
G1 F600
G1 X90.674 Y93.186 E.00098
;WIDTH:0.594735
G1 X90.65 Y93.066 E.00533
;WIDTH:0.545104
G1 X90.625 Y92.946 E.00486
;WIDTH:0.495473
G1 X90.6 Y92.826 E.00438
;WIDTH:0.445842
G1 X90.6 Y91.184 E.05226
;WIDTH:0.495473
G1 X90.625 Y91.064 E.00438
;WIDTH:0.545103
G1 X90.65 Y90.944 E.00486
;WIDTH:0.594734
G1 X90.674 Y90.824 E.00533
;WIDTH:0.644364
G1 X90.699 Y90.704 E.00582
G1 X90.819 Y90.679 E.00582
;WIDTH:0.594734
G1 X90.939 Y90.655 E.00533
;WIDTH:0.545103
G1 X91.059 Y90.63 E.00486
;WIDTH:0.495473
G1 X91.179 Y90.605 E.00438
;WIDTH:0.445842
G1 X92.821 Y90.605 E.05226
;WIDTH:0.495473
G1 X92.941 Y90.63 E.00438
;WIDTH:0.545104
G1 X93.061 Y90.655 E.00486
;WIDTH:0.594735
G1 X93.181 Y90.679 E.00533
;WIDTH:0.644366
G1 X93.301 Y90.704 E.00582
G1 X93.326 Y90.824 E.00582
;WIDTH:0.594735
G1 X93.35 Y90.944 E.00533
;WIDTH:0.545104
G1 X93.375 Y91.064 E.00486
;WIDTH:0.495473
G1 X93.4 Y91.184 E.00438
;WIDTH:0.445842
G1 X93.4 Y92.826 E.05226
;WIDTH:0.495473
G1 X93.375 Y92.946 E.00438
;WIDTH:0.545104
G1 X93.35 Y93.066 E.00486
;WIDTH:0.594735
G1 X93.326 Y93.186 E.00533
;WIDTH:0.644366
G1 X93.301 Y93.306 E.00582
G1 X93.181 Y93.331 E.00582
;WIDTH:0.594736
G1 X93.061 Y93.355 E.00533
;WIDTH:0.545105
G1 X92.941 Y93.38 E.00486
;WIDTH:0.495475
G1 X92.821 Y93.405 E.00438
;WIDTH:0.445844
G1 X91.179 Y93.405 E.05226
;WIDTH:0.495475
G1 X91.059 Y93.38 E.00438
;WIDTH:0.545105
G1 X90.939 Y93.355 E.00486
;WIDTH:0.594736
G1 X90.819 Y93.331 E.00533
;WIDTH:0.644366
G1 X90.699 Y93.306 E.00582
