; generated by PrusaSlicer 2.7.4+win64 on 2024-07-29 at 16:21:30 UTC

; 

; external perimeters extrusion width = 0.42mm
; perimeters extrusion width = 0.44mm
; infill extrusion width = 0.44mm
; solid infill extrusion width = 0.44mm
; top infill extrusion width = 0.40mm
; support material extrusion width = 0.36mm
; first layer extrusion width = 0.42mm


; printing object TFT_096_display id:0 copy 0
; stop printing object TFT_096_display id:0 copy 0

;TYPE:Custom
G90 ; use absolute coordinates
M83 ; extruder relative mode
M140 S60 ; set final bed temp
M104 S150 ; set temporary nozzle temp to prevent oozing during homing
G4 S30 ; allow partial nozzle warmup
G28 ; home all axis
G1 Z50 F240
G1 X7 Y10 F3000
M300 P300 S200 ; sound buzzer to say bed levelling is done
M300 P300 S0 ; pause sound so two beeps can play
M300 P300 S200 ; sound buzzer to say bed levelling is done
M104 S200 ; set final nozzle temp
M190 S60 ; wait for bed temp to stabilize
M109 S200 ; wait for nozzle temp to stabilize
G1 Z0.28 F240
G92 E0
G1 Y140 E10 F1500 ; prime the nozzle
G1 X6 F5000
G92 E0
G1 Y10 E10 F1200 ; prime the nozzle
G92 E0
G21 ; set units to millimeters
G90 ; use absolute coordinates
M83 ; use relative distances for extrusion
; Filament gcode
M107
;LAYER_CHANGE
;Z:0.2
;HEIGHT:0.2
G1 E-5 F3600
G1 Z.2 F9000
G1 X67.403 Y69.133
G1 Z.2
G1 E5 F2400
M204 P500
;TYPE:Skirt/Brim
;WIDTH:0.42
G1 F1200
G1 X69.295 Y68.552 E.05895
G1 X114.705 Y68.552 E1.35261
G1 X116.288 Y68.947 E.0486
G1 X117.501 Y70.037 E.04858
G1 X118.082 Y71.93 E.05898
G1 X118.082 Y85.339 E.39941
G1 X115.327 Y108.082 E.68239
G1 X115.089 Y108.998 E.02819
G1 X114.76 Y109.681 E.02258
G1 X114.011 Y110.62 E.03578
G1 X113.231 Y111.21 E.02913
G1 X112.548 Y111.539 E.02258
G1 X111.601 Y111.781 E.02911
G1 X111 Y111.827 E.01795
G1 X73 Y111.827 E1.13189
G1 X72.399 Y111.781 E.01795
G1 X71.456 Y111.54 E.02899
G1 X70.592 Y111.099 E.02889
G1 X69.831 Y110.462 E.02956
G1 X69.24 Y109.681 E.02917
G1 X68.911 Y108.999 E.02255
G1 X68.673 Y108.082 E.02822
G1 X65.918 Y85.338 E.68242
G1 X65.918 Y71.93 E.39938
G1 X66.312 Y70.346 E.04862
G1 X67.363 Y69.177 E.04682
G1 E-3.5 F3600
;WIPE_START
G1 F7200
G1 X67.403 Y69.133 E-.02825
G1 X69.295 Y68.552 E-.94012
G1 X70.414 Y68.552 E-.53163
;WIPE_END
; printing object TFT_096_display id:0 copy 0
G1 X114.705 Y85.339 F9000
G1 E5 F2400
;TYPE:Support material
G1 F1200
G1 X112.462 Y83.096 E.09449
G1 X112.431 Y79.15 E.11754
G1 X112.306 Y78.792 E.01129
G1 X111.891 Y78.291 E.01938
G1 X111.351 Y78.03 E.01787
G1 X110.812 Y77.988 E.0161
G1 X110.812 Y75.759 E.06639
G1 X110.541 Y75.488 E.01142
G1 X104.857 Y75.488 E.16931
G1 X104.857 Y71.93 E.10598
G1 X114.705 Y71.93 E.29334
G1 X114.705 Y85.283 E.39774
G1 X114.705 Y85.283 F9000
G1 X114.206 Y84.601
G1 F1200
G1 X114.206 Y72.269 E.36733
G1 X113.787 Y72.269 E.01248
G1 X113.787 Y83.941 E.34767
G1 X113.368 Y83.522 E.01765
G1 X113.368 Y72.269 E.33519
G1 X112.949 Y72.269 E.01248
G1 X112.949 Y83.103 E.32271
G1 X112.801 Y82.956 E.00621
G1 X112.799 Y79.382 E.10646
G1 X112.746 Y79.005 E.01134
G1 X112.53 Y78.511 E.01606
G1 X112.53 Y72.269 E.18593
G1 X112.111 Y72.269 E.01248
G1 X112.111 Y78.032 E.17166
G1 X111.692 Y77.79 E.01441
G1 X111.692 Y72.269 E.16445
G1 X111.273 Y72.269 E.01248
G1 X111.273 Y77.674 E.161
G1 X111.151 Y77.661 E.00365
G1 X111.151 Y75.618 E.06085
G1 X110.854 Y75.321 E.01251
G1 X110.854 Y72.269 E.09091
G1 X110.435 Y72.269 E.01248
G1 X110.435 Y75.149 E.08579
G1 X110.016 Y75.149 E.01248
G1 X110.016 Y72.269 E.08579
G1 X109.597 Y72.269 E.01248
G1 X109.597 Y75.149 E.08579
G1 X109.178 Y75.149 E.01248
G1 X109.178 Y72.269 E.08579
G1 X108.759 Y72.269 E.01248
G1 X108.759 Y75.149 E.08579
G1 X108.34 Y75.149 E.01248
G1 X108.34 Y72.269 E.08579
G1 X107.921 Y72.269 E.01248
G1 X107.921 Y75.149 E.08579
G1 X107.502 Y75.149 E.01248
G1 X107.502 Y72.269 E.08579
G1 X107.083 Y72.269 E.01248
G1 X107.083 Y75.149 E.08579
G1 X106.664 Y75.149 E.01248
G1 X106.664 Y72.269 E.08579
G1 X106.245 Y72.269 E.01248
G1 X106.245 Y75.149 E.08579
G1 X105.826 Y75.149 E.01248
G1 X105.826 Y72.269 E.08579
G1 X105.407 Y72.269 E.01248
G1 X105.407 Y75.318 E.09082
G1 E-3.5 F3600
;WIPE_START
G1 F7200
G1 X105.407 Y72.269 E-1.44827
G1 X105.516 Y72.269 E-.05173
;WIPE_END
G1 X79.144 Y75.488 F9000
G1 E5 F2400
G1 F1200
G1 X73.459 Y75.488 E.16934
G1 X73.188 Y75.759 E.01142
G1 X73.188 Y77.988 E.06639
G1 X72.649 Y78.03 E.0161
G1 X72.109 Y78.291 E.01787
G1 X71.694 Y78.792 E.01938
G1 X71.569 Y79.15 E.01129
G1 X71.538 Y83.096 E.11754
G1 X69.295 Y85.338 E.09446
G1 X69.295 Y71.93 E.39938
G1 X79.144 Y71.93 E.29337
G1 X79.144 Y75.431 E.10428
G1 X79.144 Y75.431 F9000
G1 X78.593 Y75.318
G1 F1200
G1 X78.593 Y72.269 E.09082
G1 X78.174 Y72.269 E.01248
G1 X78.174 Y75.149 E.08579
G1 X77.755 Y75.149 E.01248
G1 X77.755 Y72.269 E.08579
G1 X77.336 Y72.269 E.01248
G1 X77.336 Y75.149 E.08579
G1 X76.917 Y75.149 E.01248
G1 X76.917 Y72.269 E.08579
G1 X76.498 Y72.269 E.01248
G1 X76.498 Y75.149 E.08579
G1 X76.079 Y75.149 E.01248
G1 X76.079 Y72.269 E.08579
G1 X75.66 Y72.269 E.01248
G1 X75.66 Y75.149 E.08579
G1 X75.241 Y75.149 E.01248
G1 X75.241 Y72.269 E.08579
G1 X74.822 Y72.269 E.01248
G1 X74.822 Y75.149 E.08579
G1 X74.403 Y75.149 E.01248
G1 X74.403 Y72.269 E.08579
G1 X73.984 Y72.269 E.01248
G1 X73.984 Y75.149 E.08579
G1 X73.565 Y75.149 E.01248
G1 X73.565 Y72.269 E.08579
G1 X73.146 Y72.269 E.01248
G1 X73.146 Y75.321 E.09091
G1 X72.849 Y75.618 E.01251
G1 X72.849 Y77.661 E.06085
G1 X72.727 Y77.674 E.00365
G1 X72.727 Y72.269 E.161
G1 X72.308 Y72.269 E.01248
G1 X72.308 Y77.79 E.16445
G1 X71.889 Y78.032 E.01441
G1 X71.889 Y72.269 E.17166
G1 X71.47 Y72.269 E.01248
G1 X71.47 Y78.511 E.18593
G1 X71.254 Y79.005 E.01606
G1 X71.201 Y79.383 E.01137
G1 X71.199 Y82.955 E.1064
G1 X71.051 Y83.103 E.00623
G1 X71.051 Y72.269 E.32271
G1 X70.632 Y72.269 E.01248
G1 X70.632 Y83.522 E.33519
G1 X70.213 Y83.941 E.01765
G1 X70.213 Y72.269 E.34767
G1 X69.794 Y72.269 E.01248
G1 X69.794 Y84.6 E.3673
G1 E-3.5 F3600
;WIPE_START
G1 F7200
G1 X69.794 Y81.442 E-1.5
;WIPE_END
G1 X74.387 Y79.261 F9000
G1 E5 F2400
;TYPE:Perimeter
;WIDTH:0.419999
G1 F1200
G1 X74.496 Y79.174 E.00415
G1 X74.666 Y78.87 E.01037
G1 X74.714 Y78.571 E.00902
G1 X74.714 Y77.014 E.04638
G1 X109.286 Y77.014 E1.02978
G1 X109.286 Y78.571 E.04638
G1 X109.334 Y78.87 E.00902
G1 X109.504 Y79.174 E.01037
G1 X109.816 Y79.419 E.01182
G1 X110.229 Y79.514 E.01262
G1 X110.936 Y79.525 E.02106
G1 X110.925 Y107.386 E.82988
G1 X73.064 Y107.375 E1.12775
G1 X73.071 Y79.531 E.82938
G1 X73.794 Y79.514 E.02154
G1 X74.189 Y79.416 E.01212
G1 X74.34 Y79.298 E.00571
G1 X74.34 Y79.298 F9000
G1 X74.161 Y78.977
G1 F1200
G1 X74.255 Y78.865 E.00436
G1 X74.337 Y78.571 E.00909
G1 X74.337 Y76.637 E.05761
G1 X109.663 Y76.637 E1.05224
G1 X109.663 Y78.571 E.05761
G1 X109.692 Y78.751 E.00543
G1 X109.794 Y78.933 E.00621
G1 X109.981 Y79.08 E.00709
G1 X110.229 Y79.137 E.00758
G1 X110.882 Y79.137 E.01945
G1 X111.065 Y79.168 E.00553
G1 X111.233 Y79.264 E.00576
G1 X111.313 Y79.507 E.00762
G1 X111.313 Y107.332 E.82881
G1 X111.282 Y107.515 E.00553
G1 X111.186 Y107.683 E.00576
G1 X110.961 Y107.763 E.00711
G1 X73.118 Y107.763 E1.12721
G1 X72.935 Y107.732 E.00553
G1 X72.767 Y107.636 E.00576
G1 X72.687 Y107.411 E.00711
G1 X72.687 Y79.52 E.83078
G1 X72.773 Y79.269 E.0079
G1 X72.94 Y79.157 E.00599
G1 X73.785 Y79.137 E.02518
G1 X74.022 Y79.078 E.00727
G1 X74.116 Y79.016 E.00335
G1 X74.116 Y79.016 F9000
G1 X73.895 Y78.714
;TYPE:External perimeter
G1 F1200
G1 X73.96 Y78.571 E.00468
G1 X73.96 Y76.26 E.06884
G1 X110.04 Y76.26 E1.0747
G1 X110.04 Y78.571 E.06884
G1 X110.084 Y78.692 E.00384
G1 X110.229 Y78.76 E.00477
G1 X110.882 Y78.76 E.01945
G1 X111.297 Y78.834 E.01256
G1 X111.535 Y79.023 E.00905
G1 X111.672 Y79.308 E.00942
G1 X111.69 Y79.507 E.00595
G1 X111.69 Y107.332 E.82881
G1 X111.617 Y107.747 E.01255
G1 X111.427 Y107.985 E.00907
G1 X111.257 Y108.067 E.00562
G1 X110.983 Y108.14 E.00845
G1 X73.118 Y108.14 E1.12787
G1 X72.703 Y108.067 E.01255
G1 X72.465 Y107.877 E.00907
G1 X72.383 Y107.707 E.00562
G1 X72.31 Y107.433 E.00845
G1 X72.31 Y79.566 E.83006
G1 X72.384 Y79.153 E.0125
G1 X72.573 Y78.915 E.00905
G1 X72.85 Y78.782 E.00915
G1 X73.776 Y78.76 E.02759
G1 X73.839 Y78.735 E.00202
G1 E-3.5 F3600
;WIPE_START
G1 F7200
G1 X73.895 Y78.714 E-.02841
G1 X73.96 Y78.571 E-.07461
G1 X73.96 Y76.26 E-1.09772
G1 X74.59 Y76.26 E-.29926
;WIPE_END
G1 X79.243 Y85.412 F9000
G1 E5 F2400
;TYPE:Perimeter
G1 F1200
G1 X79.379 Y85.386 E.00412
G1 X104.621 Y85.386 E.75187
G1 X104.967 Y85.451 E.01049
G1 X105.24 Y85.617 E.00952
G1 X105.471 Y85.92 E.01135
G1 X105.564 Y86.329 E.01249
G1 X105.564 Y100.571 E.42422
G1 X105.539 Y100.786 E.00645
G1 X105.362 Y101.155 E.01219
G1 X105.105 Y101.381 E.01019
G1 X104.784 Y101.5 E.0102
G1 X104.621 Y101.514 E.00487
G1 X79.379 Y101.514 E.75187
G1 X79.043 Y101.452 E.01018
G1 X78.768 Y101.289 E.00952
G1 X78.531 Y100.985 E.01148
G1 X78.45 Y100.734 E.00786
G1 X78.436 Y100.571 E.00487
G1 X78.436 Y86.329 E.42422
G1 X78.529 Y85.92 E.01249
G1 X78.76 Y85.617 E.01135
G1 X79.033 Y85.451 E.00952
G1 X79.184 Y85.423 E.00457
G1 X79.184 Y85.423 F9000
G1 X79.328 Y85.769
G1 F1200
G1 X79.379 Y85.763 E.00153
G1 X104.621 Y85.763 E.75187
G1 X104.91 Y85.842 E.00892
G1 X105.069 Y85.982 E.00631
G1 X105.173 Y86.201 E.00722
G1 X105.187 Y86.329 E.00384
G1 X105.187 Y100.571 E.42422
G1 X105.13 Y100.82 E.00761
G1 X104.988 Y101.002 E.00688
G1 X104.719 Y101.129 E.00886
G1 X104.621 Y101.137 E.00293
G1 X79.379 Y101.137 E.75187
G1 X79.089 Y101.057 E.00896
G1 X79.012 Y101.002 E.00282
G1 X78.87 Y100.82 E.00688
G1 X78.813 Y100.571 E.00761
G1 X78.813 Y86.329 E.42422
G1 X78.869 Y86.084 E.00749
G1 X79.007 Y85.902 E.0068
G1 X79.252 Y85.777 E.00819
G1 X79.268 Y85.775 E.00048
G1 X79.268 Y85.775 F9000
G1 X79.379 Y86.14
;TYPE:External perimeter
G1 F1200
G1 X104.621 Y86.14 E.75187
G1 X104.771 Y86.213 E.00497
G1 X104.81 Y86.329 E.00365
G1 X104.81 Y100.571 E.42422
G1 X104.744 Y100.715 E.00472
G1 X104.621 Y100.76 E.0039
G1 X79.379 Y100.76 E.75187
G1 X79.256 Y100.715 E.0039
G1 X79.19 Y100.571 E.00472
G1 X79.19 Y86.329 E.42422
G1 X79.255 Y86.186 E.00468
G1 X79.322 Y86.161 E.00213
G1 E-3.5 F3600
;WIPE_START
G1 F7200
G1 X79.379 Y86.14 E-.02885
G1 X82.476 Y86.14 E-1.47115
;WIPE_END
G1 X110.815 Y80.082 F9000
G1 E5 F2400
;TYPE:Solid infill
;WIDTH:0.420344
G1 F1200
G1 X110.368 Y79.635 E.01885
G1 X110.368 Y79.635 F9000
G1 X109.655 Y79.455
G1 F1200
G1 X110.815 Y80.615 E.04891
G1 E-3.5 F3600
;WIPE_START
G1 F7200
G1 X109.655 Y79.455 E-.77923
;WIPE_END
G1 E-.72077 F3600
G1 X109.165 Y77.898 F9000
G1 E5 F2400
G1 F1200
G1 X108.402 Y77.135 E.03217
G1 X108.402 Y77.135 F9000
G1 X107.868 Y77.135
G1 F1200
G1 X109.165 Y78.432 E.05469
G1 X109.165 Y78.432 F9000
G1 X109.317 Y79.117
G1 F1200
G1 X107.335 Y77.135 E.08357
G1 X107.335 Y77.135 F9000
G1 X106.801 Y77.135
G1 F1200
G1 X110.815 Y81.149 E.16924
G1 X110.815 Y81.149 F9000
G1 X110.815 Y81.683
G1 F1200
G1 X106.267 Y77.135 E.19176
G1 X106.267 Y77.135 F9000
G1 X105.733 Y77.135
G1 F1200
G1 X110.815 Y82.217 E.21427
G1 X110.815 Y82.217 F9000
G1 X110.815 Y82.75
G1 F1200
G1 X105.2 Y77.135 E.23675
G1 X105.2 Y77.135 F9000
G1 X104.666 Y77.135
G1 F1200
G1 X110.815 Y83.284 E.25926
G1 X110.815 Y83.284 F9000
G1 X110.815 Y83.818
G1 F1200
G1 X104.132 Y77.135 E.28178
G1 X104.132 Y77.135 F9000
G1 X103.598 Y77.135
G1 F1200
G1 X110.815 Y84.352 E.30429
G1 X110.815 Y84.352 F9000
G1 X110.815 Y84.885
G1 F1200
G1 X103.065 Y77.135 E.32676
G1 X103.065 Y77.135 F9000
G1 X102.531 Y77.135
G1 F1200
G1 X110.815 Y85.419 E.34928
G1 X110.815 Y85.419 F9000
G1 X110.815 Y85.953
G1 F1200
G1 X101.997 Y77.135 E.37179
G1 X101.997 Y77.135 F9000
G1 X101.463 Y77.135
G1 F1200
G1 X110.815 Y86.487 E.39431
G1 X110.815 Y86.487 F9000
G1 X110.815 Y87.02
G1 F1200
G1 X100.93 Y77.135 E.41678
G1 X100.93 Y77.135 F9000
G1 X100.396 Y77.135
G1 F1200
G1 X110.815 Y87.554 E.4393
G1 X110.815 Y87.554 F9000
G1 X110.815 Y88.088
G1 F1200
G1 X99.862 Y77.135 E.46181
G1 X99.862 Y77.135 F9000
G1 X99.328 Y77.135
G1 F1200
G1 X110.815 Y88.622 E.48433
G1 X110.815 Y88.622 F9000
G1 X110.815 Y89.155
G1 F1200
G1 X98.795 Y77.135 E.5068
G1 X98.795 Y77.135 F9000
G1 X98.261 Y77.135
G1 F1200
G1 X110.815 Y89.689 E.52932
G1 X110.815 Y89.689 F9000
G1 X110.815 Y90.223
G1 F1200
G1 X97.727 Y77.135 E.55183
G1 X97.727 Y77.135 F9000
G1 X97.193 Y77.135
G1 F1200
G1 X110.815 Y90.757 E.57435
G1 X110.815 Y90.757 F9000
G1 X110.815 Y91.291
G1 F1200
G1 X105.663 Y86.138 E.21725
G1 X105.663 Y86.138 F9000
G1 X105.685 Y86.694
G1 F1200
G1 X110.815 Y91.824 E.2163
G1 X110.815 Y91.824 F9000
G1 X110.815 Y92.358
G1 F1200
G1 X105.685 Y87.228 E.2163
G1 X105.685 Y87.228 F9000
G1 X105.685 Y87.761
G1 F1200
G1 X110.815 Y92.892 E.21632
G1 X110.815 Y92.892 F9000
G1 X110.815 Y93.426
G1 F1200
G1 X105.685 Y88.295 E.21632
G1 X105.685 Y88.295 F9000
G1 X105.685 Y88.829
G1 F1200
G1 X110.815 Y93.959 E.2163
G1 X110.815 Y93.959 F9000
G1 X110.815 Y94.493
G1 F1200
G1 X105.685 Y89.363 E.2163
G1 X105.685 Y89.363 F9000
G1 X105.685 Y89.896
G1 F1200
G1 X110.815 Y95.027 E.21632
G1 X110.815 Y95.027 F9000
G1 X110.815 Y95.561
G1 F1200
G1 X105.685 Y90.43 E.21632
G1 X105.685 Y90.43 F9000
G1 X105.685 Y90.964
G1 F1200
G1 X110.815 Y96.094 E.2163
G1 X110.815 Y96.094 F9000
G1 X110.815 Y96.628
G1 F1200
G1 X105.685 Y91.498 E.2163
G1 X105.685 Y91.498 F9000
G1 X105.685 Y92.031
G1 F1200
G1 X110.815 Y97.162 E.21632
G1 X110.815 Y97.162 F9000
G1 X110.815 Y97.696
G1 F1200
G1 X105.685 Y92.565 E.21632
G1 X105.685 Y92.565 F9000
G1 X105.685 Y93.099
G1 F1200
G1 X110.815 Y98.229 E.2163
G1 X110.815 Y98.229 F9000
G1 X110.815 Y98.763
G1 F1200
G1 X105.685 Y93.633 E.2163
G1 X105.685 Y93.633 F9000
G1 X105.685 Y94.167
G1 F1200
G1 X110.815 Y99.297 E.2163
G1 X110.815 Y99.297 F9000
G1 X110.815 Y99.831
G1 F1200
G1 X105.685 Y94.7 E.21632
G1 X105.685 Y94.7 F9000
G1 X105.685 Y95.234
G1 F1200
G1 X110.815 Y100.364 E.2163
G1 X110.815 Y100.364 F9000
G1 X110.815 Y100.898
G1 F1200
G1 X105.685 Y95.768 E.2163
G1 X105.685 Y95.768 F9000
G1 X105.685 Y96.302
G1 F1200
G1 X110.815 Y101.432 E.2163
G1 X110.815 Y101.432 F9000
G1 X110.815 Y101.966
G1 F1200
G1 X105.685 Y96.835 E.21632
G1 X105.685 Y96.835 F9000
G1 X105.685 Y97.369
G1 F1200
G1 X110.815 Y102.499 E.2163
G1 X110.815 Y102.499 F9000
G1 X110.815 Y103.033
G1 F1200
G1 X105.685 Y97.903 E.2163
G1 X105.685 Y97.903 F9000
G1 X105.685 Y98.437
G1 F1200
G1 X110.815 Y103.567 E.2163
G1 X110.815 Y103.567 F9000
G1 X110.815 Y104.101
G1 F1200
G1 X105.685 Y98.97 E.21632
G1 X105.685 Y98.97 F9000
G1 X105.685 Y99.504
G1 F1200
G1 X110.815 Y104.634 E.2163
G1 X110.815 Y104.634 F9000
G1 X110.815 Y105.168
G1 F1200
G1 X105.685 Y100.038 E.2163
G1 X105.685 Y100.038 F9000
G1 X105.684 Y100.571
G1 F1200
G1 X110.815 Y105.702 E.21634
G1 X110.815 Y105.702 F9000
G1 X110.815 Y106.236
G1 F1200
G1 X105.587 Y101.008 E.22043
G1 X105.587 Y101.008 F9000
G1 X105.367 Y101.322
G1 F1200
G1 X110.815 Y106.769 E.22968
G1 X110.815 Y106.769 F9000
G1 X110.777 Y107.265
G1 F1200
G1 X105.052 Y101.54 E.24138
G1 X105.052 Y101.54 F9000
G1 X104.613 Y101.635
G1 F1200
G1 X110.243 Y107.265 E.23738
G1 X110.243 Y107.265 F9000
G1 X109.71 Y107.265
G1 F1200
G1 X104.079 Y101.635 E.2374
G1 X104.079 Y101.635 F9000
G1 X103.545 Y101.635
G1 F1200
G1 X109.176 Y107.265 E.2374
G1 X109.176 Y107.265 F9000
G1 X108.642 Y107.265
G1 F1200
G1 X103.012 Y101.635 E.23738
G1 X103.012 Y101.635 F9000
G1 X102.478 Y101.635
G1 F1200
G1 X108.108 Y107.265 E.23738
G1 X108.108 Y107.265 F9000
G1 X107.575 Y107.265
G1 F1200
G1 X101.944 Y101.635 E.2374
G1 X101.944 Y101.635 F9000
G1 X101.41 Y101.635
G1 F1200
G1 X107.041 Y107.265 E.2374
G1 X107.041 Y107.265 F9000
G1 X106.507 Y107.265
G1 F1200
G1 X100.877 Y101.635 E.23738
G1 X100.877 Y101.635 F9000
G1 X100.343 Y101.635
G1 F1200
G1 X105.973 Y107.265 E.23738
G1 X105.973 Y107.265 F9000
G1 X105.44 Y107.265
G1 F1200
G1 X99.809 Y101.635 E.2374
G1 X99.809 Y101.635 F9000
G1 X99.275 Y101.635
G1 F1200
G1 X104.906 Y107.265 E.2374
G1 X104.906 Y107.265 F9000
G1 X104.372 Y107.265
G1 F1200
G1 X98.742 Y101.635 E.23738
G1 X98.742 Y101.635 F9000
G1 X98.208 Y101.635
G1 F1200
G1 X103.838 Y107.265 E.23738
G1 X103.838 Y107.265 F9000
G1 X103.304 Y107.265
G1 F1200
G1 X97.674 Y101.635 E.23738
G1 X97.674 Y101.635 F9000
